<?xml version="1.0" encoding="UTF-8"?>
<map version="1.10" tiledversion="1.12.1" orientation="orthogonal" renderorder="right-down" width="46" height="32" tilewidth="16" tileheight="16" infinite="1" nextlayerid="232" nextobjectid="149">
 <tileset firstgid="1" name="Water_detilazation" tilewidth="16" tileheight="16" tilecount="2886" columns="37">
  <image source="WaterDetilazation.png" width="592" height="1248"/>
  <tile id="40">
   <animation>
    <frame tileid="40" duration="150"/>
    <frame tileid="521" duration="150"/>
    <frame tileid="1002" duration="150"/>
    <frame tileid="1483" duration="150"/>
    <frame tileid="1964" duration="150"/>
    <frame tileid="2445" duration="150"/>
   </animation>
  </tile>
  <tile id="41">
   <animation>
    <frame tileid="41" duration="150"/>
    <frame tileid="522" duration="150"/>
    <frame tileid="1003" duration="150"/>
    <frame tileid="1484" duration="150"/>
    <frame tileid="1965" duration="150"/>
    <frame tileid="2446" duration="150"/>
   </animation>
  </tile>
  <tile id="42">
   <animation>
    <frame tileid="42" duration="150"/>
    <frame tileid="523" duration="150"/>
    <frame tileid="1004" duration="150"/>
    <frame tileid="1485" duration="150"/>
    <frame tileid="1966" duration="150"/>
    <frame tileid="2447" duration="150"/>
   </animation>
  </tile>
  <tile id="43">
   <animation>
    <frame tileid="43" duration="150"/>
    <frame tileid="524" duration="150"/>
    <frame tileid="1005" duration="150"/>
    <frame tileid="1486" duration="150"/>
    <frame tileid="1967" duration="150"/>
    <frame tileid="2448" duration="150"/>
   </animation>
  </tile>
  <tile id="44">
   <animation>
    <frame tileid="44" duration="150"/>
    <frame tileid="525" duration="150"/>
    <frame tileid="1006" duration="150"/>
    <frame tileid="1487" duration="150"/>
    <frame tileid="1968" duration="150"/>
    <frame tileid="2449" duration="150"/>
   </animation>
  </tile>
  <tile id="45">
   <animation>
    <frame tileid="45" duration="150"/>
    <frame tileid="526" duration="150"/>
    <frame tileid="1007" duration="150"/>
    <frame tileid="1488" duration="150"/>
    <frame tileid="1969" duration="150"/>
    <frame tileid="2450" duration="150"/>
   </animation>
  </tile>
  <tile id="46">
   <animation>
    <frame tileid="46" duration="150"/>
    <frame tileid="527" duration="150"/>
    <frame tileid="1008" duration="150"/>
    <frame tileid="1489" duration="150"/>
    <frame tileid="1970" duration="150"/>
    <frame tileid="2451" duration="150"/>
   </animation>
  </tile>
  <tile id="47">
   <animation>
    <frame tileid="47" duration="150"/>
    <frame tileid="528" duration="150"/>
    <frame tileid="1009" duration="150"/>
    <frame tileid="1490" duration="150"/>
    <frame tileid="1971" duration="150"/>
    <frame tileid="2452" duration="150"/>
   </animation>
  </tile>
  <tile id="48">
   <animation>
    <frame tileid="48" duration="150"/>
    <frame tileid="529" duration="150"/>
    <frame tileid="1010" duration="150"/>
    <frame tileid="1491" duration="150"/>
    <frame tileid="1972" duration="150"/>
    <frame tileid="2453" duration="150"/>
   </animation>
  </tile>
  <tile id="49">
   <animation>
    <frame tileid="49" duration="150"/>
    <frame tileid="530" duration="150"/>
    <frame tileid="1011" duration="150"/>
    <frame tileid="1492" duration="150"/>
    <frame tileid="1973" duration="150"/>
    <frame tileid="2454" duration="150"/>
   </animation>
  </tile>
  <tile id="50">
   <animation>
    <frame tileid="50" duration="150"/>
    <frame tileid="531" duration="150"/>
    <frame tileid="1012" duration="150"/>
    <frame tileid="1493" duration="150"/>
    <frame tileid="1974" duration="150"/>
    <frame tileid="2455" duration="150"/>
   </animation>
  </tile>
  <tile id="51">
   <animation>
    <frame tileid="51" duration="150"/>
    <frame tileid="532" duration="150"/>
    <frame tileid="1013" duration="150"/>
    <frame tileid="1494" duration="150"/>
    <frame tileid="1975" duration="150"/>
    <frame tileid="2456" duration="150"/>
   </animation>
  </tile>
  <tile id="52">
   <animation>
    <frame tileid="52" duration="150"/>
    <frame tileid="533" duration="150"/>
    <frame tileid="1014" duration="150"/>
    <frame tileid="1495" duration="150"/>
    <frame tileid="1976" duration="150"/>
    <frame tileid="2457" duration="150"/>
   </animation>
  </tile>
  <tile id="53">
   <animation>
    <frame tileid="53" duration="150"/>
    <frame tileid="534" duration="150"/>
    <frame tileid="1015" duration="150"/>
    <frame tileid="1496" duration="150"/>
    <frame tileid="1977" duration="150"/>
    <frame tileid="2458" duration="150"/>
   </animation>
  </tile>
  <tile id="56">
   <animation>
    <frame tileid="56" duration="150"/>
    <frame tileid="537" duration="150"/>
    <frame tileid="1018" duration="150"/>
    <frame tileid="1499" duration="150"/>
    <frame tileid="1980" duration="150"/>
    <frame tileid="2461" duration="150"/>
   </animation>
  </tile>
  <tile id="57">
   <animation>
    <frame tileid="57" duration="150"/>
    <frame tileid="538" duration="150"/>
    <frame tileid="1019" duration="150"/>
    <frame tileid="1500" duration="150"/>
    <frame tileid="1981" duration="150"/>
    <frame tileid="2462" duration="150"/>
   </animation>
  </tile>
  <tile id="58">
   <animation>
    <frame tileid="58" duration="150"/>
    <frame tileid="539" duration="150"/>
    <frame tileid="1020" duration="150"/>
    <frame tileid="1501" duration="150"/>
    <frame tileid="1982" duration="150"/>
    <frame tileid="2463" duration="150"/>
   </animation>
  </tile>
  <tile id="59">
   <animation>
    <frame tileid="59" duration="150"/>
    <frame tileid="540" duration="150"/>
    <frame tileid="1021" duration="150"/>
    <frame tileid="1502" duration="150"/>
    <frame tileid="1983" duration="150"/>
    <frame tileid="2464" duration="150"/>
   </animation>
  </tile>
  <tile id="60">
   <animation>
    <frame tileid="60" duration="150"/>
    <frame tileid="541" duration="150"/>
    <frame tileid="1022" duration="150"/>
    <frame tileid="1503" duration="150"/>
    <frame tileid="1984" duration="150"/>
    <frame tileid="2465" duration="150"/>
   </animation>
  </tile>
  <tile id="61">
   <animation>
    <frame tileid="61" duration="150"/>
    <frame tileid="542" duration="150"/>
    <frame tileid="1023" duration="150"/>
    <frame tileid="1504" duration="150"/>
    <frame tileid="1985" duration="150"/>
    <frame tileid="2466" duration="150"/>
   </animation>
  </tile>
  <tile id="62">
   <animation>
    <frame tileid="62" duration="150"/>
    <frame tileid="543" duration="150"/>
    <frame tileid="1024" duration="150"/>
    <frame tileid="1505" duration="150"/>
    <frame tileid="1986" duration="150"/>
    <frame tileid="2467" duration="150"/>
   </animation>
  </tile>
  <tile id="63">
   <animation>
    <frame tileid="63" duration="150"/>
    <frame tileid="544" duration="150"/>
    <frame tileid="1025" duration="150"/>
    <frame tileid="1506" duration="150"/>
    <frame tileid="1987" duration="150"/>
    <frame tileid="2468" duration="150"/>
   </animation>
  </tile>
  <tile id="74">
   <animation>
    <frame tileid="74" duration="150"/>
    <frame tileid="555" duration="150"/>
    <frame tileid="1036" duration="150"/>
    <frame tileid="1517" duration="150"/>
    <frame tileid="1998" duration="150"/>
    <frame tileid="2479" duration="150"/>
   </animation>
  </tile>
  <tile id="75">
   <animation>
    <frame tileid="75" duration="150"/>
    <frame tileid="556" duration="150"/>
    <frame tileid="1037" duration="150"/>
    <frame tileid="1518" duration="150"/>
    <frame tileid="1999" duration="150"/>
    <frame tileid="2480" duration="150"/>
   </animation>
  </tile>
  <tile id="76">
   <animation>
    <frame tileid="76" duration="150"/>
    <frame tileid="557" duration="150"/>
    <frame tileid="1038" duration="150"/>
    <frame tileid="1519" duration="150"/>
    <frame tileid="2000" duration="150"/>
    <frame tileid="2481" duration="150"/>
   </animation>
  </tile>
  <tile id="77">
   <animation>
    <frame tileid="77" duration="150"/>
    <frame tileid="558" duration="150"/>
    <frame tileid="1039" duration="150"/>
    <frame tileid="1520" duration="150"/>
    <frame tileid="2001" duration="150"/>
    <frame tileid="2482" duration="150"/>
   </animation>
  </tile>
  <tile id="78">
   <animation>
    <frame tileid="78" duration="150"/>
    <frame tileid="559" duration="150"/>
    <frame tileid="1040" duration="150"/>
    <frame tileid="1521" duration="150"/>
    <frame tileid="2002" duration="150"/>
    <frame tileid="2483" duration="150"/>
   </animation>
  </tile>
  <tile id="79">
   <animation>
    <frame tileid="79" duration="150"/>
    <frame tileid="560" duration="150"/>
    <frame tileid="1041" duration="150"/>
    <frame tileid="1522" duration="150"/>
    <frame tileid="2003" duration="150"/>
    <frame tileid="2484" duration="150"/>
   </animation>
  </tile>
  <tile id="80">
   <animation>
    <frame tileid="80" duration="150"/>
    <frame tileid="561" duration="150"/>
    <frame tileid="1042" duration="150"/>
    <frame tileid="1523" duration="150"/>
    <frame tileid="2004" duration="150"/>
    <frame tileid="2485" duration="150"/>
   </animation>
  </tile>
  <tile id="81">
   <animation>
    <frame tileid="81" duration="150"/>
    <frame tileid="562" duration="150"/>
    <frame tileid="1043" duration="150"/>
    <frame tileid="1524" duration="150"/>
    <frame tileid="2005" duration="150"/>
    <frame tileid="2486" duration="150"/>
   </animation>
  </tile>
  <tile id="82">
   <animation>
    <frame tileid="82" duration="150"/>
    <frame tileid="563" duration="150"/>
    <frame tileid="1044" duration="150"/>
    <frame tileid="1525" duration="150"/>
    <frame tileid="2006" duration="150"/>
    <frame tileid="2487" duration="150"/>
   </animation>
  </tile>
  <tile id="83">
   <animation>
    <frame tileid="83" duration="150"/>
    <frame tileid="564" duration="150"/>
    <frame tileid="1045" duration="150"/>
    <frame tileid="1526" duration="150"/>
    <frame tileid="2007" duration="150"/>
    <frame tileid="2488" duration="150"/>
   </animation>
  </tile>
  <tile id="84">
   <animation>
    <frame tileid="84" duration="150"/>
    <frame tileid="565" duration="150"/>
    <frame tileid="1046" duration="150"/>
    <frame tileid="1527" duration="150"/>
    <frame tileid="2008" duration="150"/>
    <frame tileid="2489" duration="150"/>
   </animation>
  </tile>
  <tile id="85">
   <animation>
    <frame tileid="85" duration="150"/>
    <frame tileid="566" duration="150"/>
    <frame tileid="1047" duration="150"/>
    <frame tileid="1528" duration="150"/>
    <frame tileid="2009" duration="150"/>
    <frame tileid="2490" duration="150"/>
   </animation>
  </tile>
  <tile id="86">
   <animation>
    <frame tileid="86" duration="150"/>
    <frame tileid="567" duration="150"/>
    <frame tileid="1048" duration="150"/>
    <frame tileid="1529" duration="150"/>
    <frame tileid="2010" duration="150"/>
    <frame tileid="2491" duration="150"/>
   </animation>
  </tile>
  <tile id="87">
   <animation>
    <frame tileid="87" duration="150"/>
    <frame tileid="568" duration="150"/>
    <frame tileid="1049" duration="150"/>
    <frame tileid="1530" duration="150"/>
    <frame tileid="2011" duration="150"/>
    <frame tileid="2492" duration="150"/>
   </animation>
  </tile>
  <tile id="88">
   <animation>
    <frame tileid="88" duration="150"/>
    <frame tileid="569" duration="150"/>
    <frame tileid="1050" duration="150"/>
    <frame tileid="1531" duration="150"/>
    <frame tileid="2012" duration="150"/>
    <frame tileid="2493" duration="150"/>
   </animation>
  </tile>
  <tile id="89">
   <animation>
    <frame tileid="89" duration="150"/>
    <frame tileid="570" duration="150"/>
    <frame tileid="1051" duration="150"/>
    <frame tileid="1532" duration="150"/>
    <frame tileid="2013" duration="150"/>
    <frame tileid="2494" duration="150"/>
   </animation>
  </tile>
  <tile id="90">
   <animation>
    <frame tileid="90" duration="150"/>
    <frame tileid="571" duration="150"/>
    <frame tileid="1052" duration="150"/>
    <frame tileid="1533" duration="150"/>
    <frame tileid="2014" duration="150"/>
    <frame tileid="2495" duration="150"/>
   </animation>
  </tile>
  <tile id="92">
   <animation>
    <frame tileid="92" duration="150"/>
    <frame tileid="573" duration="150"/>
    <frame tileid="1054" duration="150"/>
    <frame tileid="1535" duration="150"/>
    <frame tileid="2016" duration="150"/>
    <frame tileid="2497" duration="150"/>
   </animation>
  </tile>
  <tile id="93">
   <animation>
    <frame tileid="93" duration="150"/>
    <frame tileid="574" duration="150"/>
    <frame tileid="1055" duration="150"/>
    <frame tileid="1536" duration="150"/>
    <frame tileid="2017" duration="150"/>
    <frame tileid="2498" duration="150"/>
   </animation>
  </tile>
  <tile id="94">
   <animation>
    <frame tileid="94" duration="150"/>
    <frame tileid="575" duration="150"/>
    <frame tileid="1056" duration="150"/>
    <frame tileid="1537" duration="150"/>
    <frame tileid="2018" duration="150"/>
    <frame tileid="2499" duration="150"/>
   </animation>
  </tile>
  <tile id="95">
   <animation>
    <frame tileid="95" duration="150"/>
    <frame tileid="576" duration="150"/>
    <frame tileid="1057" duration="150"/>
    <frame tileid="1538" duration="150"/>
    <frame tileid="2019" duration="150"/>
    <frame tileid="2500" duration="150"/>
   </animation>
  </tile>
  <tile id="96">
   <animation>
    <frame tileid="96" duration="150"/>
    <frame tileid="577" duration="150"/>
    <frame tileid="1058" duration="150"/>
    <frame tileid="1539" duration="150"/>
    <frame tileid="2020" duration="150"/>
    <frame tileid="2501" duration="150"/>
   </animation>
  </tile>
  <tile id="97">
   <animation>
    <frame tileid="97" duration="150"/>
    <frame tileid="578" duration="150"/>
    <frame tileid="1059" duration="150"/>
    <frame tileid="1540" duration="150"/>
    <frame tileid="2021" duration="150"/>
    <frame tileid="2502" duration="150"/>
   </animation>
  </tile>
  <tile id="98">
   <animation>
    <frame tileid="98" duration="150"/>
    <frame tileid="579" duration="150"/>
    <frame tileid="1060" duration="150"/>
    <frame tileid="1541" duration="150"/>
    <frame tileid="2022" duration="150"/>
    <frame tileid="2503" duration="150"/>
   </animation>
  </tile>
  <tile id="99">
   <animation>
    <frame tileid="99" duration="150"/>
    <frame tileid="580" duration="150"/>
    <frame tileid="1061" duration="150"/>
    <frame tileid="1542" duration="150"/>
    <frame tileid="2023" duration="150"/>
    <frame tileid="2504" duration="150"/>
   </animation>
  </tile>
  <tile id="100">
   <animation>
    <frame tileid="100" duration="150"/>
    <frame tileid="581" duration="150"/>
    <frame tileid="1062" duration="150"/>
    <frame tileid="1543" duration="150"/>
    <frame tileid="2024" duration="150"/>
    <frame tileid="2505" duration="150"/>
   </animation>
  </tile>
  <tile id="101">
   <animation>
    <frame tileid="101" duration="150"/>
    <frame tileid="582" duration="150"/>
    <frame tileid="1063" duration="150"/>
    <frame tileid="1544" duration="150"/>
    <frame tileid="2025" duration="150"/>
    <frame tileid="2506" duration="150"/>
   </animation>
  </tile>
  <tile id="102">
   <animation>
    <frame tileid="102" duration="150"/>
    <frame tileid="583" duration="150"/>
    <frame tileid="1064" duration="150"/>
    <frame tileid="1545" duration="150"/>
    <frame tileid="2026" duration="150"/>
    <frame tileid="2507" duration="150"/>
   </animation>
  </tile>
  <tile id="103">
   <animation>
    <frame tileid="103" duration="150"/>
    <frame tileid="584" duration="150"/>
    <frame tileid="1065" duration="150"/>
    <frame tileid="1546" duration="150"/>
    <frame tileid="2027" duration="150"/>
    <frame tileid="2508" duration="150"/>
   </animation>
  </tile>
  <tile id="105">
   <animation>
    <frame tileid="105" duration="150"/>
    <frame tileid="586" duration="150"/>
    <frame tileid="1067" duration="150"/>
    <frame tileid="1548" duration="150"/>
    <frame tileid="2029" duration="150"/>
    <frame tileid="2510" duration="150"/>
   </animation>
  </tile>
  <tile id="106">
   <animation>
    <frame tileid="106" duration="150"/>
    <frame tileid="587" duration="150"/>
    <frame tileid="1068" duration="150"/>
    <frame tileid="1549" duration="150"/>
    <frame tileid="2030" duration="150"/>
    <frame tileid="2511" duration="150"/>
   </animation>
  </tile>
  <tile id="107">
   <animation>
    <frame tileid="107" duration="150"/>
    <frame tileid="588" duration="150"/>
    <frame tileid="1069" duration="150"/>
    <frame tileid="1550" duration="150"/>
    <frame tileid="2031" duration="150"/>
    <frame tileid="2512" duration="150"/>
   </animation>
  </tile>
  <tile id="108">
   <animation>
    <frame tileid="108" duration="150"/>
    <frame tileid="589" duration="150"/>
    <frame tileid="1070" duration="150"/>
    <frame tileid="1551" duration="150"/>
    <frame tileid="2032" duration="150"/>
    <frame tileid="2513" duration="150"/>
   </animation>
  </tile>
  <tile id="109">
   <animation>
    <frame tileid="109" duration="150"/>
    <frame tileid="590" duration="150"/>
    <frame tileid="1071" duration="150"/>
    <frame tileid="1552" duration="150"/>
    <frame tileid="2033" duration="150"/>
    <frame tileid="2514" duration="150"/>
   </animation>
  </tile>
  <tile id="110">
   <animation>
    <frame tileid="110" duration="150"/>
    <frame tileid="591" duration="150"/>
    <frame tileid="1072" duration="150"/>
    <frame tileid="1553" duration="150"/>
    <frame tileid="2034" duration="150"/>
    <frame tileid="2515" duration="150"/>
   </animation>
  </tile>
  <tile id="112">
   <animation>
    <frame tileid="112" duration="150"/>
    <frame tileid="593" duration="150"/>
    <frame tileid="1074" duration="150"/>
    <frame tileid="1555" duration="150"/>
    <frame tileid="2036" duration="150"/>
    <frame tileid="2517" duration="150"/>
   </animation>
  </tile>
  <tile id="113">
   <animation>
    <frame tileid="113" duration="150"/>
    <frame tileid="594" duration="150"/>
    <frame tileid="1075" duration="150"/>
    <frame tileid="1556" duration="150"/>
    <frame tileid="2037" duration="150"/>
    <frame tileid="2518" duration="150"/>
   </animation>
  </tile>
  <tile id="114">
   <animation>
    <frame tileid="114" duration="150"/>
    <frame tileid="595" duration="150"/>
    <frame tileid="1076" duration="150"/>
    <frame tileid="1557" duration="150"/>
    <frame tileid="2038" duration="150"/>
    <frame tileid="2519" duration="150"/>
   </animation>
  </tile>
  <tile id="115">
   <animation>
    <frame tileid="115" duration="150"/>
    <frame tileid="596" duration="150"/>
    <frame tileid="1077" duration="150"/>
    <frame tileid="1558" duration="150"/>
    <frame tileid="2039" duration="150"/>
    <frame tileid="2520" duration="150"/>
   </animation>
  </tile>
  <tile id="116">
   <animation>
    <frame tileid="116" duration="150"/>
    <frame tileid="597" duration="150"/>
    <frame tileid="1078" duration="150"/>
    <frame tileid="1559" duration="150"/>
    <frame tileid="2040" duration="150"/>
    <frame tileid="2521" duration="150"/>
   </animation>
  </tile>
  <tile id="117">
   <animation>
    <frame tileid="117" duration="150"/>
    <frame tileid="598" duration="150"/>
    <frame tileid="1079" duration="150"/>
    <frame tileid="1560" duration="150"/>
    <frame tileid="2041" duration="150"/>
    <frame tileid="2522" duration="150"/>
   </animation>
  </tile>
  <tile id="118">
   <animation>
    <frame tileid="118" duration="150"/>
    <frame tileid="599" duration="150"/>
    <frame tileid="1080" duration="150"/>
    <frame tileid="1561" duration="150"/>
    <frame tileid="2042" duration="150"/>
    <frame tileid="2523" duration="150"/>
   </animation>
  </tile>
  <tile id="119">
   <animation>
    <frame tileid="119" duration="150"/>
    <frame tileid="600" duration="150"/>
    <frame tileid="1081" duration="150"/>
    <frame tileid="1562" duration="150"/>
    <frame tileid="2043" duration="150"/>
    <frame tileid="2524" duration="150"/>
   </animation>
  </tile>
  <tile id="120">
   <animation>
    <frame tileid="120" duration="150"/>
    <frame tileid="601" duration="150"/>
    <frame tileid="1082" duration="150"/>
    <frame tileid="1563" duration="150"/>
    <frame tileid="2044" duration="150"/>
    <frame tileid="2525" duration="150"/>
   </animation>
  </tile>
  <tile id="121">
   <animation>
    <frame tileid="121" duration="150"/>
    <frame tileid="602" duration="150"/>
    <frame tileid="1083" duration="150"/>
    <frame tileid="1564" duration="150"/>
    <frame tileid="2045" duration="150"/>
    <frame tileid="2526" duration="150"/>
   </animation>
  </tile>
  <tile id="122">
   <animation>
    <frame tileid="122" duration="150"/>
    <frame tileid="603" duration="150"/>
    <frame tileid="1084" duration="150"/>
    <frame tileid="1565" duration="150"/>
    <frame tileid="2046" duration="150"/>
    <frame tileid="2527" duration="150"/>
   </animation>
  </tile>
  <tile id="131">
   <animation>
    <frame tileid="131" duration="150"/>
    <frame tileid="612" duration="150"/>
    <frame tileid="1093" duration="150"/>
    <frame tileid="1574" duration="150"/>
    <frame tileid="2055" duration="150"/>
    <frame tileid="2536" duration="150"/>
   </animation>
  </tile>
  <tile id="132">
   <animation>
    <frame tileid="132" duration="150"/>
    <frame tileid="613" duration="150"/>
    <frame tileid="1094" duration="150"/>
    <frame tileid="1575" duration="150"/>
    <frame tileid="2056" duration="150"/>
    <frame tileid="2537" duration="150"/>
   </animation>
  </tile>
  <tile id="133">
   <animation>
    <frame tileid="133" duration="150"/>
    <frame tileid="614" duration="150"/>
    <frame tileid="1095" duration="150"/>
    <frame tileid="1576" duration="150"/>
    <frame tileid="2057" duration="150"/>
    <frame tileid="2538" duration="150"/>
   </animation>
  </tile>
  <tile id="134">
   <animation>
    <frame tileid="134" duration="150"/>
    <frame tileid="615" duration="150"/>
    <frame tileid="1096" duration="150"/>
    <frame tileid="1577" duration="150"/>
    <frame tileid="2058" duration="150"/>
    <frame tileid="2539" duration="150"/>
   </animation>
  </tile>
  <tile id="135">
   <animation>
    <frame tileid="135" duration="150"/>
    <frame tileid="616" duration="150"/>
    <frame tileid="1097" duration="150"/>
    <frame tileid="1578" duration="150"/>
    <frame tileid="2059" duration="150"/>
    <frame tileid="2540" duration="150"/>
   </animation>
  </tile>
  <tile id="136">
   <animation>
    <frame tileid="136" duration="150"/>
    <frame tileid="617" duration="150"/>
    <frame tileid="1098" duration="150"/>
    <frame tileid="1579" duration="150"/>
    <frame tileid="2060" duration="150"/>
    <frame tileid="2541" duration="150"/>
   </animation>
  </tile>
  <tile id="137">
   <animation>
    <frame tileid="137" duration="150"/>
    <frame tileid="618" duration="150"/>
    <frame tileid="1099" duration="150"/>
    <frame tileid="1580" duration="150"/>
    <frame tileid="2060" duration="150"/>
    <frame tileid="2542" duration="150"/>
   </animation>
  </tile>
  <tile id="138">
   <animation>
    <frame tileid="138" duration="150"/>
    <frame tileid="619" duration="150"/>
    <frame tileid="1100" duration="150"/>
    <frame tileid="1581" duration="150"/>
    <frame tileid="2062" duration="150"/>
    <frame tileid="2543" duration="150"/>
   </animation>
  </tile>
  <tile id="176">
   <animation>
    <frame tileid="176" duration="150"/>
    <frame tileid="657" duration="150"/>
    <frame tileid="1138" duration="150"/>
    <frame tileid="1619" duration="150"/>
    <frame tileid="2100" duration="150"/>
    <frame tileid="2581" duration="150"/>
   </animation>
  </tile>
  <tile id="177">
   <animation>
    <frame tileid="177" duration="150"/>
    <frame tileid="658" duration="150"/>
    <frame tileid="1139" duration="150"/>
    <frame tileid="1620" duration="150"/>
    <frame tileid="2101" duration="150"/>
    <frame tileid="2582" duration="150"/>
   </animation>
  </tile>
  <tile id="178">
   <animation>
    <frame tileid="178" duration="150"/>
    <frame tileid="659" duration="150"/>
    <frame tileid="1140" duration="150"/>
    <frame tileid="1621" duration="150"/>
    <frame tileid="2102" duration="150"/>
    <frame tileid="2583" duration="150"/>
   </animation>
  </tile>
  <tile id="179">
   <animation>
    <frame tileid="179" duration="150"/>
    <frame tileid="660" duration="150"/>
    <frame tileid="1141" duration="150"/>
    <frame tileid="1622" duration="150"/>
    <frame tileid="2103" duration="150"/>
    <frame tileid="2584" duration="150"/>
   </animation>
  </tile>
  <tile id="180">
   <animation>
    <frame tileid="180" duration="150"/>
    <frame tileid="661" duration="150"/>
    <frame tileid="1142" duration="150"/>
    <frame tileid="1623" duration="150"/>
    <frame tileid="2104" duration="150"/>
    <frame tileid="2585" duration="150"/>
   </animation>
  </tile>
  <tile id="188">
   <animation>
    <frame tileid="188" duration="150"/>
    <frame tileid="669" duration="150"/>
    <frame tileid="1150" duration="150"/>
    <frame tileid="1631" duration="150"/>
    <frame tileid="2112" duration="150"/>
    <frame tileid="2593" duration="150"/>
   </animation>
  </tile>
  <tile id="189">
   <animation>
    <frame tileid="189" duration="150"/>
    <frame tileid="670" duration="150"/>
    <frame tileid="1151" duration="150"/>
    <frame tileid="1632" duration="150"/>
    <frame tileid="2113" duration="150"/>
    <frame tileid="2594" duration="150"/>
   </animation>
  </tile>
  <tile id="190">
   <animation>
    <frame tileid="190" duration="150"/>
    <frame tileid="671" duration="150"/>
    <frame tileid="1152" duration="150"/>
    <frame tileid="1633" duration="150"/>
    <frame tileid="2114" duration="150"/>
    <frame tileid="2595" duration="150"/>
   </animation>
  </tile>
  <tile id="191">
   <animation>
    <frame tileid="191" duration="150"/>
    <frame tileid="672" duration="150"/>
    <frame tileid="1153" duration="150"/>
    <frame tileid="1634" duration="150"/>
    <frame tileid="2115" duration="150"/>
    <frame tileid="2596" duration="150"/>
   </animation>
  </tile>
  <tile id="192">
   <animation>
    <frame tileid="192" duration="150"/>
    <frame tileid="673" duration="150"/>
    <frame tileid="1154" duration="150"/>
    <frame tileid="1635" duration="150"/>
    <frame tileid="2116" duration="150"/>
    <frame tileid="2597" duration="150"/>
   </animation>
  </tile>
  <tile id="193">
   <animation>
    <frame tileid="193" duration="150"/>
    <frame tileid="674" duration="150"/>
    <frame tileid="1155" duration="150"/>
    <frame tileid="1636" duration="150"/>
    <frame tileid="2117" duration="150"/>
    <frame tileid="2598" duration="150"/>
   </animation>
  </tile>
  <tile id="194">
   <animation>
    <frame tileid="194" duration="150"/>
    <frame tileid="675" duration="150"/>
    <frame tileid="1156" duration="150"/>
    <frame tileid="1637" duration="150"/>
    <frame tileid="2118" duration="150"/>
    <frame tileid="2599" duration="150"/>
   </animation>
  </tile>
  <tile id="201">
   <animation>
    <frame tileid="201" duration="150"/>
    <frame tileid="682" duration="150"/>
    <frame tileid="1163" duration="150"/>
    <frame tileid="1644" duration="150"/>
    <frame tileid="2125" duration="150"/>
    <frame tileid="2606" duration="150"/>
   </animation>
  </tile>
  <tile id="202">
   <animation>
    <frame tileid="202" duration="150"/>
    <frame tileid="683" duration="150"/>
    <frame tileid="1164" duration="150"/>
    <frame tileid="1645" duration="150"/>
    <frame tileid="2126" duration="150"/>
    <frame tileid="2607" duration="150"/>
   </animation>
  </tile>
  <tile id="203">
   <animation>
    <frame tileid="203" duration="150"/>
    <frame tileid="684" duration="150"/>
    <frame tileid="1165" duration="150"/>
    <frame tileid="1646" duration="150"/>
    <frame tileid="2127" duration="150"/>
    <frame tileid="2608" duration="150"/>
   </animation>
  </tile>
  <tile id="204">
   <animation>
    <frame tileid="204" duration="150"/>
    <frame tileid="685" duration="150"/>
    <frame tileid="1166" duration="150"/>
    <frame tileid="1647" duration="150"/>
    <frame tileid="2128" duration="150"/>
    <frame tileid="2609" duration="150"/>
   </animation>
  </tile>
  <tile id="205">
   <animation>
    <frame tileid="205" duration="150"/>
    <frame tileid="686" duration="150"/>
    <frame tileid="1167" duration="150"/>
    <frame tileid="1648" duration="150"/>
    <frame tileid="2129" duration="150"/>
    <frame tileid="2610" duration="150"/>
   </animation>
  </tile>
  <tile id="206">
   <animation>
    <frame tileid="206" duration="150"/>
    <frame tileid="687" duration="150"/>
    <frame tileid="1168" duration="150"/>
    <frame tileid="1649" duration="150"/>
    <frame tileid="2130" duration="150"/>
    <frame tileid="2611" duration="150"/>
   </animation>
  </tile>
  <tile id="207">
   <animation>
    <frame tileid="207" duration="150"/>
    <frame tileid="688" duration="150"/>
    <frame tileid="1169" duration="150"/>
    <frame tileid="1650" duration="150"/>
    <frame tileid="2131" duration="150"/>
    <frame tileid="2612" duration="150"/>
   </animation>
  </tile>
  <tile id="208">
   <animation>
    <frame tileid="208" duration="150"/>
    <frame tileid="689" duration="150"/>
    <frame tileid="1170" duration="150"/>
    <frame tileid="1651" duration="150"/>
    <frame tileid="2132" duration="150"/>
    <frame tileid="2613" duration="150"/>
   </animation>
  </tile>
  <tile id="209">
   <animation>
    <frame tileid="209" duration="150"/>
    <frame tileid="690" duration="150"/>
    <frame tileid="1171" duration="150"/>
    <frame tileid="1652" duration="150"/>
    <frame tileid="2133" duration="150"/>
    <frame tileid="2614" duration="150"/>
   </animation>
  </tile>
  <tile id="210">
   <animation>
    <frame tileid="210" duration="150"/>
    <frame tileid="691" duration="150"/>
    <frame tileid="1172" duration="150"/>
    <frame tileid="1653" duration="150"/>
    <frame tileid="2134" duration="150"/>
    <frame tileid="2615" duration="150"/>
   </animation>
  </tile>
  <tile id="211">
   <animation>
    <frame tileid="211" duration="150"/>
    <frame tileid="692" duration="150"/>
    <frame tileid="1173" duration="150"/>
    <frame tileid="1654" duration="150"/>
    <frame tileid="2135" duration="150"/>
    <frame tileid="2616" duration="150"/>
   </animation>
  </tile>
  <tile id="212">
   <animation>
    <frame tileid="212" duration="150"/>
    <frame tileid="693" duration="150"/>
    <frame tileid="1174" duration="150"/>
    <frame tileid="1655" duration="150"/>
    <frame tileid="2136" duration="150"/>
    <frame tileid="2617" duration="150"/>
   </animation>
  </tile>
  <tile id="213">
   <animation>
    <frame tileid="213" duration="150"/>
    <frame tileid="694" duration="150"/>
    <frame tileid="1175" duration="150"/>
    <frame tileid="1656" duration="150"/>
    <frame tileid="2137" duration="150"/>
    <frame tileid="2618" duration="150"/>
   </animation>
  </tile>
  <tile id="214">
   <animation>
    <frame tileid="214" duration="150"/>
    <frame tileid="695" duration="150"/>
    <frame tileid="1176" duration="150"/>
    <frame tileid="1657" duration="150"/>
    <frame tileid="2138" duration="150"/>
    <frame tileid="2619" duration="150"/>
   </animation>
  </tile>
  <tile id="215">
   <animation>
    <frame tileid="215" duration="150"/>
    <frame tileid="696" duration="150"/>
    <frame tileid="1177" duration="150"/>
    <frame tileid="1658" duration="150"/>
    <frame tileid="2139" duration="150"/>
    <frame tileid="2620" duration="150"/>
   </animation>
  </tile>
  <tile id="223">
   <animation>
    <frame tileid="223" duration="150"/>
    <frame tileid="704" duration="150"/>
    <frame tileid="1185" duration="150"/>
    <frame tileid="1666" duration="150"/>
    <frame tileid="2147" duration="150"/>
    <frame tileid="2628" duration="150"/>
   </animation>
  </tile>
  <tile id="224">
   <animation>
    <frame tileid="224" duration="150"/>
    <frame tileid="705" duration="150"/>
    <frame tileid="1186" duration="150"/>
    <frame tileid="1667" duration="150"/>
    <frame tileid="2148" duration="150"/>
    <frame tileid="2629" duration="150"/>
   </animation>
  </tile>
  <tile id="225">
   <animation>
    <frame tileid="225" duration="150"/>
    <frame tileid="706" duration="150"/>
    <frame tileid="1187" duration="150"/>
    <frame tileid="1668" duration="150"/>
    <frame tileid="2149" duration="150"/>
    <frame tileid="2630" duration="150"/>
   </animation>
  </tile>
  <tile id="226">
   <animation>
    <frame tileid="226" duration="150"/>
    <frame tileid="707" duration="150"/>
    <frame tileid="1188" duration="150"/>
    <frame tileid="1669" duration="150"/>
    <frame tileid="2150" duration="150"/>
    <frame tileid="2631" duration="150"/>
   </animation>
  </tile>
  <tile id="227">
   <animation>
    <frame tileid="227" duration="150"/>
    <frame tileid="708" duration="150"/>
    <frame tileid="1189" duration="150"/>
    <frame tileid="1670" duration="150"/>
    <frame tileid="2151" duration="150"/>
    <frame tileid="2632" duration="150"/>
   </animation>
  </tile>
  <tile id="228">
   <animation>
    <frame tileid="228" duration="150"/>
    <frame tileid="709" duration="150"/>
    <frame tileid="1190" duration="150"/>
    <frame tileid="1671" duration="150"/>
    <frame tileid="2152" duration="150"/>
    <frame tileid="2633" duration="150"/>
   </animation>
  </tile>
  <tile id="229">
   <animation>
    <frame tileid="229" duration="150"/>
    <frame tileid="710" duration="150"/>
    <frame tileid="1191" duration="150"/>
    <frame tileid="1672" duration="150"/>
    <frame tileid="2153" duration="150"/>
    <frame tileid="2634" duration="150"/>
   </animation>
  </tile>
  <tile id="230">
   <animation>
    <frame tileid="230" duration="150"/>
    <frame tileid="711" duration="150"/>
    <frame tileid="1192" duration="150"/>
    <frame tileid="1673" duration="150"/>
    <frame tileid="2154" duration="150"/>
    <frame tileid="2635" duration="150"/>
   </animation>
  </tile>
  <tile id="231">
   <animation>
    <frame tileid="231" duration="150"/>
    <frame tileid="712" duration="150"/>
    <frame tileid="1193" duration="150"/>
    <frame tileid="1674" duration="150"/>
    <frame tileid="2155" duration="150"/>
    <frame tileid="2636" duration="150"/>
   </animation>
  </tile>
  <tile id="232">
   <animation>
    <frame tileid="232" duration="150"/>
    <frame tileid="713" duration="150"/>
    <frame tileid="1194" duration="150"/>
    <frame tileid="1675" duration="150"/>
    <frame tileid="2156" duration="150"/>
    <frame tileid="2637" duration="150"/>
   </animation>
  </tile>
  <tile id="233">
   <animation>
    <frame tileid="233" duration="150"/>
    <frame tileid="714" duration="150"/>
    <frame tileid="1195" duration="150"/>
    <frame tileid="1676" duration="150"/>
    <frame tileid="2157" duration="150"/>
    <frame tileid="2638" duration="150"/>
   </animation>
  </tile>
  <tile id="234">
   <animation>
    <frame tileid="234" duration="150"/>
    <frame tileid="715" duration="150"/>
    <frame tileid="1196" duration="150"/>
    <frame tileid="1677" duration="150"/>
    <frame tileid="2158" duration="150"/>
    <frame tileid="2639" duration="150"/>
   </animation>
  </tile>
  <tile id="235">
   <animation>
    <frame tileid="235" duration="150"/>
    <frame tileid="716" duration="150"/>
    <frame tileid="1197" duration="150"/>
    <frame tileid="1678" duration="150"/>
    <frame tileid="2159" duration="150"/>
    <frame tileid="2640" duration="150"/>
   </animation>
  </tile>
  <tile id="238">
   <animation>
    <frame tileid="238" duration="150"/>
    <frame tileid="719" duration="150"/>
    <frame tileid="1200" duration="150"/>
    <frame tileid="1681" duration="150"/>
    <frame tileid="2162" duration="150"/>
    <frame tileid="2643" duration="150"/>
   </animation>
  </tile>
  <tile id="239">
   <animation>
    <frame tileid="239" duration="150"/>
    <frame tileid="720" duration="150"/>
    <frame tileid="1201" duration="150"/>
    <frame tileid="1682" duration="150"/>
    <frame tileid="2163" duration="150"/>
    <frame tileid="2644" duration="150"/>
   </animation>
  </tile>
  <tile id="240">
   <animation>
    <frame tileid="240" duration="150"/>
    <frame tileid="721" duration="150"/>
    <frame tileid="1202" duration="150"/>
    <frame tileid="1683" duration="150"/>
    <frame tileid="2164" duration="150"/>
    <frame tileid="2645" duration="150"/>
   </animation>
  </tile>
  <tile id="241">
   <animation>
    <frame tileid="241" duration="150"/>
    <frame tileid="722" duration="150"/>
    <frame tileid="1203" duration="150"/>
    <frame tileid="1684" duration="150"/>
    <frame tileid="2165" duration="150"/>
    <frame tileid="2646" duration="150"/>
   </animation>
  </tile>
  <tile id="242">
   <animation>
    <frame tileid="242" duration="150"/>
    <frame tileid="723" duration="150"/>
    <frame tileid="1204" duration="150"/>
    <frame tileid="1685" duration="150"/>
    <frame tileid="2166" duration="150"/>
    <frame tileid="2647" duration="150"/>
   </animation>
  </tile>
  <tile id="243">
   <animation>
    <frame tileid="243" duration="150"/>
    <frame tileid="724" duration="150"/>
    <frame tileid="1205" duration="150"/>
    <frame tileid="1686" duration="150"/>
    <frame tileid="2167" duration="150"/>
    <frame tileid="2648" duration="150"/>
   </animation>
  </tile>
  <tile id="244">
   <animation>
    <frame tileid="244" duration="150"/>
    <frame tileid="725" duration="150"/>
    <frame tileid="1206" duration="150"/>
    <frame tileid="1687" duration="150"/>
    <frame tileid="2168" duration="150"/>
    <frame tileid="2649" duration="150"/>
   </animation>
  </tile>
  <tile id="245">
   <animation>
    <frame tileid="245" duration="150"/>
    <frame tileid="726" duration="150"/>
    <frame tileid="1207" duration="150"/>
    <frame tileid="1688" duration="150"/>
    <frame tileid="2169" duration="150"/>
    <frame tileid="2650" duration="150"/>
   </animation>
  </tile>
  <tile id="246">
   <animation>
    <frame tileid="246" duration="150"/>
    <frame tileid="727" duration="150"/>
    <frame tileid="1208" duration="150"/>
    <frame tileid="1689" duration="150"/>
    <frame tileid="2170" duration="150"/>
    <frame tileid="2651" duration="150"/>
   </animation>
  </tile>
  <tile id="247">
   <animation>
    <frame tileid="247" duration="150"/>
    <frame tileid="728" duration="150"/>
    <frame tileid="1209" duration="150"/>
    <frame tileid="1690" duration="150"/>
    <frame tileid="2171" duration="150"/>
    <frame tileid="2652" duration="150"/>
   </animation>
  </tile>
  <tile id="248">
   <animation>
    <frame tileid="248" duration="150"/>
    <frame tileid="729" duration="150"/>
    <frame tileid="1210" duration="150"/>
    <frame tileid="1691" duration="150"/>
    <frame tileid="2172" duration="150"/>
    <frame tileid="2653" duration="150"/>
   </animation>
  </tile>
  <tile id="249">
   <animation>
    <frame tileid="249" duration="150"/>
    <frame tileid="730" duration="150"/>
    <frame tileid="1211" duration="150"/>
    <frame tileid="1692" duration="150"/>
    <frame tileid="2173" duration="150"/>
    <frame tileid="2654" duration="150"/>
   </animation>
  </tile>
  <tile id="250">
   <animation>
    <frame tileid="250" duration="150"/>
    <frame tileid="731" duration="150"/>
    <frame tileid="1212" duration="150"/>
    <frame tileid="1693" duration="150"/>
    <frame tileid="2174" duration="150"/>
    <frame tileid="2655" duration="150"/>
   </animation>
  </tile>
  <tile id="251">
   <animation>
    <frame tileid="251" duration="150"/>
    <frame tileid="732" duration="150"/>
    <frame tileid="1213" duration="150"/>
    <frame tileid="1694" duration="150"/>
    <frame tileid="2175" duration="150"/>
    <frame tileid="2656" duration="150"/>
   </animation>
  </tile>
  <tile id="255">
   <animation>
    <frame tileid="255" duration="150"/>
    <frame tileid="736" duration="150"/>
    <frame tileid="1217" duration="150"/>
    <frame tileid="1698" duration="150"/>
    <frame tileid="2179" duration="150"/>
    <frame tileid="2660" duration="150"/>
   </animation>
  </tile>
  <tile id="256">
   <animation>
    <frame tileid="256" duration="150"/>
    <frame tileid="737" duration="150"/>
    <frame tileid="1218" duration="150"/>
    <frame tileid="1699" duration="150"/>
    <frame tileid="2180" duration="150"/>
    <frame tileid="2661" duration="150"/>
   </animation>
  </tile>
  <tile id="257">
   <animation>
    <frame tileid="257" duration="150"/>
    <frame tileid="738" duration="150"/>
    <frame tileid="1219" duration="150"/>
    <frame tileid="1700" duration="150"/>
    <frame tileid="2181" duration="150"/>
    <frame tileid="2662" duration="150"/>
   </animation>
  </tile>
  <tile id="264">
   <animation>
    <frame tileid="264" duration="150"/>
    <frame tileid="745" duration="150"/>
    <frame tileid="1226" duration="150"/>
    <frame tileid="1707" duration="150"/>
    <frame tileid="2188" duration="150"/>
    <frame tileid="2669" duration="150"/>
   </animation>
  </tile>
  <tile id="265">
   <animation>
    <frame tileid="265" duration="150"/>
    <frame tileid="746" duration="150"/>
    <frame tileid="1227" duration="150"/>
    <frame tileid="1708" duration="150"/>
    <frame tileid="2189" duration="150"/>
    <frame tileid="2670" duration="150"/>
   </animation>
  </tile>
  <tile id="266">
   <animation>
    <frame tileid="266" duration="150"/>
    <frame tileid="747" duration="150"/>
    <frame tileid="1228" duration="150"/>
    <frame tileid="1709" duration="150"/>
    <frame tileid="2190" duration="150"/>
    <frame tileid="2671" duration="150"/>
   </animation>
  </tile>
  <tile id="267">
   <animation>
    <frame tileid="267" duration="150"/>
    <frame tileid="748" duration="150"/>
    <frame tileid="1229" duration="150"/>
    <frame tileid="1710" duration="150"/>
    <frame tileid="2191" duration="150"/>
    <frame tileid="2672" duration="150"/>
   </animation>
  </tile>
  <tile id="268">
   <animation>
    <frame tileid="268" duration="150"/>
    <frame tileid="749" duration="150"/>
    <frame tileid="1230" duration="150"/>
    <frame tileid="1711" duration="150"/>
    <frame tileid="2192" duration="150"/>
    <frame tileid="2673" duration="150"/>
   </animation>
  </tile>
  <tile id="269">
   <animation>
    <frame tileid="269" duration="150"/>
    <frame tileid="750" duration="150"/>
    <frame tileid="1231" duration="150"/>
    <frame tileid="1712" duration="150"/>
    <frame tileid="2193" duration="150"/>
    <frame tileid="2674" duration="150"/>
   </animation>
  </tile>
  <tile id="313">
   <animation>
    <frame tileid="313" duration="150"/>
    <frame tileid="794" duration="150"/>
    <frame tileid="1275" duration="150"/>
    <frame tileid="1756" duration="150"/>
    <frame tileid="2237" duration="150"/>
    <frame tileid="2718" duration="150"/>
   </animation>
  </tile>
  <tile id="314">
   <animation>
    <frame tileid="314" duration="150"/>
    <frame tileid="795" duration="150"/>
    <frame tileid="1276" duration="150"/>
    <frame tileid="1757" duration="150"/>
    <frame tileid="2238" duration="150"/>
    <frame tileid="2719" duration="150"/>
   </animation>
  </tile>
  <tile id="315">
   <animation>
    <frame tileid="315" duration="150"/>
    <frame tileid="796" duration="150"/>
    <frame tileid="1277" duration="150"/>
    <frame tileid="1758" duration="150"/>
    <frame tileid="2239" duration="150"/>
    <frame tileid="2720" duration="150"/>
   </animation>
  </tile>
  <tile id="316">
   <animation>
    <frame tileid="316" duration="150"/>
    <frame tileid="797" duration="150"/>
    <frame tileid="1278" duration="150"/>
    <frame tileid="1759" duration="150"/>
    <frame tileid="2240" duration="150"/>
    <frame tileid="2721" duration="150"/>
   </animation>
  </tile>
  <tile id="317">
   <animation>
    <frame tileid="317" duration="150"/>
    <frame tileid="798" duration="150"/>
    <frame tileid="1279" duration="150"/>
    <frame tileid="1760" duration="150"/>
    <frame tileid="2241" duration="150"/>
    <frame tileid="2722" duration="150"/>
   </animation>
  </tile>
  <tile id="318">
   <animation>
    <frame tileid="318" duration="150"/>
    <frame tileid="799" duration="150"/>
    <frame tileid="1280" duration="150"/>
    <frame tileid="1761" duration="150"/>
    <frame tileid="2242" duration="150"/>
    <frame tileid="2723" duration="150"/>
   </animation>
  </tile>
  <tile id="319">
   <animation>
    <frame tileid="319" duration="150"/>
    <frame tileid="800" duration="150"/>
    <frame tileid="1281" duration="150"/>
    <frame tileid="1762" duration="150"/>
    <frame tileid="2243" duration="150"/>
    <frame tileid="2724" duration="150"/>
   </animation>
  </tile>
  <tile id="320">
   <animation>
    <frame tileid="320" duration="150"/>
    <frame tileid="801" duration="150"/>
    <frame tileid="1282" duration="150"/>
    <frame tileid="1763" duration="150"/>
    <frame tileid="2244" duration="150"/>
    <frame tileid="2725" duration="150"/>
   </animation>
  </tile>
  <tile id="323">
   <animation>
    <frame tileid="323" duration="150"/>
    <frame tileid="804" duration="150"/>
    <frame tileid="1285" duration="150"/>
    <frame tileid="1766" duration="150"/>
    <frame tileid="2247" duration="150"/>
    <frame tileid="2728" duration="150"/>
   </animation>
  </tile>
  <tile id="324">
   <animation>
    <frame tileid="324" duration="150"/>
    <frame tileid="805" duration="150"/>
    <frame tileid="1286" duration="150"/>
    <frame tileid="1767" duration="150"/>
    <frame tileid="2248" duration="150"/>
    <frame tileid="2729" duration="150"/>
   </animation>
  </tile>
  <tile id="325">
   <animation>
    <frame tileid="325" duration="150"/>
    <frame tileid="806" duration="150"/>
    <frame tileid="1287" duration="150"/>
    <frame tileid="1768" duration="150"/>
    <frame tileid="2249" duration="150"/>
    <frame tileid="2730" duration="150"/>
   </animation>
  </tile>
  <tile id="326">
   <animation>
    <frame tileid="326" duration="150"/>
    <frame tileid="807" duration="150"/>
    <frame tileid="1288" duration="150"/>
    <frame tileid="1769" duration="150"/>
    <frame tileid="2250" duration="150"/>
    <frame tileid="2731" duration="150"/>
   </animation>
  </tile>
  <tile id="327">
   <animation>
    <frame tileid="327" duration="150"/>
    <frame tileid="808" duration="150"/>
    <frame tileid="1289" duration="150"/>
    <frame tileid="1770" duration="150"/>
    <frame tileid="2251" duration="150"/>
    <frame tileid="2732" duration="150"/>
   </animation>
  </tile>
  <tile id="334">
   <animation>
    <frame tileid="334" duration="150"/>
    <frame tileid="815" duration="150"/>
    <frame tileid="1296" duration="150"/>
    <frame tileid="1777" duration="150"/>
    <frame tileid="2258" duration="150"/>
    <frame tileid="2739" duration="150"/>
   </animation>
  </tile>
  <tile id="335">
   <animation>
    <frame tileid="335" duration="150"/>
    <frame tileid="816" duration="150"/>
    <frame tileid="1297" duration="150"/>
    <frame tileid="1778" duration="150"/>
    <frame tileid="2259" duration="150"/>
    <frame tileid="2740" duration="150"/>
   </animation>
  </tile>
  <tile id="336">
   <animation>
    <frame tileid="336" duration="150"/>
    <frame tileid="817" duration="150"/>
    <frame tileid="1298" duration="150"/>
    <frame tileid="1779" duration="150"/>
    <frame tileid="2260" duration="150"/>
    <frame tileid="2741" duration="150"/>
   </animation>
  </tile>
  <tile id="337">
   <animation>
    <frame tileid="337" duration="150"/>
    <frame tileid="818" duration="150"/>
    <frame tileid="1299" duration="150"/>
    <frame tileid="1780" duration="150"/>
    <frame tileid="2261" duration="150"/>
    <frame tileid="2742" duration="150"/>
   </animation>
  </tile>
  <tile id="338">
   <animation>
    <frame tileid="338" duration="150"/>
    <frame tileid="819" duration="150"/>
    <frame tileid="1300" duration="150"/>
    <frame tileid="1781" duration="150"/>
    <frame tileid="2262" duration="150"/>
    <frame tileid="2743" duration="150"/>
   </animation>
  </tile>
  <tile id="339">
   <animation>
    <frame tileid="339" duration="150"/>
    <frame tileid="820" duration="150"/>
    <frame tileid="1301" duration="150"/>
    <frame tileid="1782" duration="150"/>
    <frame tileid="2263" duration="150"/>
    <frame tileid="2744" duration="150"/>
   </animation>
  </tile>
  <tile id="340">
   <animation>
    <frame tileid="340" duration="150"/>
    <frame tileid="821" duration="150"/>
    <frame tileid="1302" duration="150"/>
    <frame tileid="1783" duration="150"/>
    <frame tileid="2264" duration="150"/>
    <frame tileid="2745" duration="150"/>
   </animation>
  </tile>
  <tile id="341">
   <animation>
    <frame tileid="341" duration="150"/>
    <frame tileid="822" duration="150"/>
    <frame tileid="1303" duration="150"/>
    <frame tileid="1784" duration="150"/>
    <frame tileid="2265" duration="150"/>
    <frame tileid="2746" duration="150"/>
   </animation>
  </tile>
  <tile id="342">
   <animation>
    <frame tileid="342" duration="150"/>
    <frame tileid="823" duration="150"/>
    <frame tileid="1304" duration="150"/>
    <frame tileid="1785" duration="150"/>
    <frame tileid="2266" duration="150"/>
    <frame tileid="2747" duration="150"/>
   </animation>
  </tile>
  <tile id="343">
   <animation>
    <frame tileid="343" duration="150"/>
    <frame tileid="824" duration="150"/>
    <frame tileid="1305" duration="150"/>
    <frame tileid="1786" duration="150"/>
    <frame tileid="2267" duration="150"/>
    <frame tileid="2748" duration="150"/>
   </animation>
  </tile>
  <tile id="344">
   <animation>
    <frame tileid="344" duration="150"/>
    <frame tileid="825" duration="150"/>
    <frame tileid="1306" duration="150"/>
    <frame tileid="1787" duration="150"/>
    <frame tileid="2268" duration="150"/>
    <frame tileid="2749" duration="150"/>
   </animation>
  </tile>
  <tile id="345">
   <animation>
    <frame tileid="345" duration="150"/>
    <frame tileid="826" duration="150"/>
    <frame tileid="1307" duration="150"/>
    <frame tileid="1788" duration="150"/>
    <frame tileid="2269" duration="150"/>
    <frame tileid="2750" duration="150"/>
   </animation>
  </tile>
  <tile id="346">
   <animation>
    <frame tileid="346" duration="150"/>
    <frame tileid="827" duration="150"/>
    <frame tileid="1308" duration="150"/>
    <frame tileid="1789" duration="150"/>
    <frame tileid="2270" duration="150"/>
    <frame tileid="2750" duration="150"/>
   </animation>
  </tile>
  <tile id="347">
   <animation>
    <frame tileid="347" duration="150"/>
    <frame tileid="828" duration="150"/>
    <frame tileid="1309" duration="150"/>
    <frame tileid="1790" duration="150"/>
    <frame tileid="2271" duration="150"/>
    <frame tileid="2752" duration="150"/>
   </animation>
  </tile>
  <tile id="350">
   <animation>
    <frame tileid="350" duration="150"/>
    <frame tileid="831" duration="150"/>
    <frame tileid="1312" duration="150"/>
    <frame tileid="1793" duration="150"/>
    <frame tileid="2274" duration="150"/>
    <frame tileid="2755" duration="150"/>
   </animation>
  </tile>
  <tile id="351">
   <animation>
    <frame tileid="351" duration="150"/>
    <frame tileid="832" duration="150"/>
    <frame tileid="1313" duration="150"/>
    <frame tileid="1794" duration="150"/>
    <frame tileid="2275" duration="150"/>
    <frame tileid="2756" duration="150"/>
   </animation>
  </tile>
  <tile id="352">
   <animation>
    <frame tileid="352" duration="150"/>
    <frame tileid="833" duration="150"/>
    <frame tileid="1314" duration="150"/>
    <frame tileid="1795" duration="150"/>
    <frame tileid="2276" duration="150"/>
    <frame tileid="2757" duration="150"/>
   </animation>
  </tile>
  <tile id="353">
   <animation>
    <frame tileid="353" duration="150"/>
    <frame tileid="834" duration="150"/>
    <frame tileid="1315" duration="150"/>
    <frame tileid="1796" duration="150"/>
    <frame tileid="2277" duration="150"/>
    <frame tileid="2758" duration="150"/>
   </animation>
  </tile>
  <tile id="354">
   <animation>
    <frame tileid="354" duration="150"/>
    <frame tileid="835" duration="150"/>
    <frame tileid="1316" duration="150"/>
    <frame tileid="1797" duration="150"/>
    <frame tileid="2278" duration="150"/>
    <frame tileid="2759" duration="150"/>
   </animation>
  </tile>
  <tile id="355">
   <animation>
    <frame tileid="355" duration="150"/>
    <frame tileid="836" duration="150"/>
    <frame tileid="1317" duration="150"/>
    <frame tileid="1798" duration="150"/>
    <frame tileid="2279" duration="150"/>
    <frame tileid="2760" duration="150"/>
   </animation>
  </tile>
  <tile id="356">
   <animation>
    <frame tileid="356" duration="150"/>
    <frame tileid="837" duration="150"/>
    <frame tileid="1318" duration="150"/>
    <frame tileid="1799" duration="150"/>
    <frame tileid="2280" duration="150"/>
    <frame tileid="2761" duration="150"/>
   </animation>
  </tile>
  <tile id="357">
   <animation>
    <frame tileid="357" duration="150"/>
    <frame tileid="838" duration="150"/>
    <frame tileid="1319" duration="150"/>
    <frame tileid="1800" duration="150"/>
    <frame tileid="2281" duration="150"/>
    <frame tileid="2762" duration="150"/>
   </animation>
  </tile>
  <tile id="360">
   <animation>
    <frame tileid="360" duration="150"/>
    <frame tileid="841" duration="150"/>
    <frame tileid="1322" duration="150"/>
    <frame tileid="1803" duration="150"/>
    <frame tileid="2284" duration="150"/>
    <frame tileid="2765" duration="150"/>
   </animation>
  </tile>
  <tile id="361">
   <animation>
    <frame tileid="361" duration="150"/>
    <frame tileid="842" duration="150"/>
    <frame tileid="1323" duration="150"/>
    <frame tileid="1804" duration="150"/>
    <frame tileid="2285" duration="150"/>
    <frame tileid="2766" duration="150"/>
   </animation>
  </tile>
  <tile id="362">
   <animation>
    <frame tileid="362" duration="150"/>
    <frame tileid="843" duration="150"/>
    <frame tileid="1324" duration="150"/>
    <frame tileid="1805" duration="150"/>
    <frame tileid="2286" duration="150"/>
    <frame tileid="2767" duration="150"/>
   </animation>
  </tile>
  <tile id="363">
   <animation>
    <frame tileid="363" duration="150"/>
    <frame tileid="844" duration="150"/>
    <frame tileid="1325" duration="150"/>
    <frame tileid="1806" duration="150"/>
    <frame tileid="2287" duration="150"/>
    <frame tileid="2768" duration="150"/>
   </animation>
  </tile>
  <tile id="370">
   <animation>
    <frame tileid="370" duration="150"/>
    <frame tileid="851" duration="150"/>
    <frame tileid="1332" duration="150"/>
    <frame tileid="1813" duration="150"/>
    <frame tileid="2294" duration="150"/>
    <frame tileid="2775" duration="150"/>
   </animation>
  </tile>
  <tile id="371">
   <animation>
    <frame tileid="371" duration="150"/>
    <frame tileid="852" duration="150"/>
    <frame tileid="1333" duration="150"/>
    <frame tileid="1814" duration="150"/>
    <frame tileid="2295" duration="150"/>
    <frame tileid="2776" duration="150"/>
   </animation>
  </tile>
  <tile id="372">
   <animation>
    <frame tileid="372" duration="150"/>
    <frame tileid="853" duration="150"/>
    <frame tileid="1334" duration="150"/>
    <frame tileid="1815" duration="150"/>
    <frame tileid="2296" duration="150"/>
    <frame tileid="2777" duration="150"/>
   </animation>
  </tile>
  <tile id="373">
   <animation>
    <frame tileid="373" duration="150"/>
    <frame tileid="854" duration="150"/>
    <frame tileid="1335" duration="150"/>
    <frame tileid="1816" duration="150"/>
    <frame tileid="2297" duration="150"/>
    <frame tileid="2778" duration="150"/>
   </animation>
  </tile>
  <tile id="374">
   <animation>
    <frame tileid="374" duration="150"/>
    <frame tileid="855" duration="150"/>
    <frame tileid="1336" duration="150"/>
    <frame tileid="1817" duration="150"/>
    <frame tileid="2298" duration="150"/>
    <frame tileid="2779" duration="150"/>
   </animation>
  </tile>
  <tile id="375">
   <animation>
    <frame tileid="375" duration="150"/>
    <frame tileid="856" duration="150"/>
    <frame tileid="1337" duration="150"/>
    <frame tileid="1818" duration="150"/>
    <frame tileid="2299" duration="150"/>
    <frame tileid="2780" duration="150"/>
   </animation>
  </tile>
  <tile id="376">
   <animation>
    <frame tileid="376" duration="150"/>
    <frame tileid="857" duration="150"/>
    <frame tileid="1338" duration="150"/>
    <frame tileid="1819" duration="150"/>
    <frame tileid="2300" duration="150"/>
    <frame tileid="2781" duration="150"/>
   </animation>
  </tile>
  <tile id="377">
   <animation>
    <frame tileid="377" duration="150"/>
    <frame tileid="858" duration="150"/>
    <frame tileid="1339" duration="150"/>
    <frame tileid="1820" duration="150"/>
    <frame tileid="2301" duration="150"/>
    <frame tileid="2782" duration="150"/>
   </animation>
  </tile>
  <tile id="378">
   <animation>
    <frame tileid="380" duration="150"/>
    <frame tileid="861" duration="150"/>
    <frame tileid="1342" duration="150"/>
    <frame tileid="1823" duration="150"/>
    <frame tileid="2304" duration="150"/>
    <frame tileid="2785" duration="150"/>
   </animation>
  </tile>
  <tile id="379">
   <animation>
    <frame tileid="379" duration="150"/>
    <frame tileid="860" duration="150"/>
    <frame tileid="1341" duration="150"/>
    <frame tileid="1822" duration="150"/>
    <frame tileid="2303" duration="150"/>
    <frame tileid="2784" duration="150"/>
   </animation>
  </tile>
  <tile id="380">
   <animation>
    <frame tileid="380" duration="150"/>
    <frame tileid="861" duration="150"/>
    <frame tileid="1342" duration="150"/>
    <frame tileid="1823" duration="150"/>
    <frame tileid="2304" duration="150"/>
    <frame tileid="2785" duration="150"/>
   </animation>
  </tile>
  <tile id="381">
   <animation>
    <frame tileid="381" duration="150"/>
    <frame tileid="862" duration="150"/>
    <frame tileid="1343" duration="150"/>
    <frame tileid="1824" duration="150"/>
    <frame tileid="2305" duration="150"/>
    <frame tileid="2786" duration="150"/>
   </animation>
  </tile>
  <tile id="382">
   <animation>
    <frame tileid="382" duration="150"/>
    <frame tileid="863" duration="150"/>
    <frame tileid="1344" duration="150"/>
    <frame tileid="1825" duration="150"/>
    <frame tileid="2306" duration="150"/>
    <frame tileid="2787" duration="150"/>
   </animation>
  </tile>
  <tile id="383">
   <animation>
    <frame tileid="383" duration="150"/>
    <frame tileid="864" duration="150"/>
    <frame tileid="1345" duration="150"/>
    <frame tileid="1826" duration="150"/>
    <frame tileid="2307" duration="150"/>
    <frame tileid="2788" duration="150"/>
   </animation>
  </tile>
 </tileset>
 <tileset firstgid="2887" source="WaterDetilazation2.tsx"/>
 <tileset firstgid="5773" name="Water_coasts" tilewidth="16" tileheight="16" tilecount="1470" columns="30">
  <image source="WaterCoasts.png" width="480" height="784"/>
  <tile id="30">
   <animation>
    <frame tileid="30" duration="150"/>
    <frame tileid="270" duration="150"/>
    <frame tileid="510" duration="150"/>
    <frame tileid="750" duration="150"/>
    <frame tileid="990" duration="150"/>
    <frame tileid="1230" duration="150"/>
   </animation>
  </tile>
  <tile id="31">
   <animation>
    <frame tileid="31" duration="150"/>
    <frame tileid="271" duration="150"/>
    <frame tileid="511" duration="150"/>
    <frame tileid="751" duration="150"/>
    <frame tileid="991" duration="150"/>
    <frame tileid="1231" duration="150"/>
   </animation>
  </tile>
  <tile id="32">
   <animation>
    <frame tileid="32" duration="150"/>
    <frame tileid="272" duration="150"/>
    <frame tileid="512" duration="150"/>
    <frame tileid="752" duration="150"/>
    <frame tileid="992" duration="150"/>
    <frame tileid="1232" duration="150"/>
   </animation>
  </tile>
  <tile id="33">
   <animation>
    <frame tileid="33" duration="150"/>
    <frame tileid="273" duration="150"/>
    <frame tileid="513" duration="150"/>
    <frame tileid="753" duration="150"/>
    <frame tileid="993" duration="150"/>
    <frame tileid="1233" duration="150"/>
   </animation>
  </tile>
  <tile id="34">
   <animation>
    <frame tileid="34" duration="150"/>
    <frame tileid="274" duration="150"/>
    <frame tileid="514" duration="150"/>
    <frame tileid="754" duration="150"/>
    <frame tileid="994" duration="150"/>
    <frame tileid="1234" duration="150"/>
   </animation>
  </tile>
  <tile id="36">
   <animation>
    <frame tileid="36" duration="150"/>
    <frame tileid="276" duration="150"/>
    <frame tileid="516" duration="150"/>
    <frame tileid="756" duration="150"/>
    <frame tileid="996" duration="150"/>
    <frame tileid="1236" duration="150"/>
   </animation>
  </tile>
  <tile id="37">
   <animation>
    <frame tileid="37" duration="150"/>
    <frame tileid="277" duration="150"/>
    <frame tileid="517" duration="150"/>
    <frame tileid="757" duration="150"/>
    <frame tileid="997" duration="150"/>
    <frame tileid="1237" duration="150"/>
   </animation>
  </tile>
  <tile id="39">
   <animation>
    <frame tileid="39" duration="150"/>
    <frame tileid="279" duration="150"/>
    <frame tileid="519" duration="150"/>
    <frame tileid="759" duration="150"/>
    <frame tileid="999" duration="150"/>
    <frame tileid="1239" duration="150"/>
   </animation>
  </tile>
  <tile id="40">
   <animation>
    <frame tileid="40" duration="150"/>
    <frame tileid="280" duration="150"/>
    <frame tileid="520" duration="150"/>
    <frame tileid="760" duration="150"/>
    <frame tileid="1000" duration="150"/>
    <frame tileid="1240" duration="150"/>
   </animation>
  </tile>
  <tile id="42">
   <animation>
    <frame tileid="42" duration="150"/>
    <frame tileid="282" duration="150"/>
    <frame tileid="522" duration="150"/>
    <frame tileid="762" duration="150"/>
    <frame tileid="1002" duration="150"/>
    <frame tileid="1242" duration="150"/>
   </animation>
  </tile>
  <tile id="43">
   <animation>
    <frame tileid="43" duration="150"/>
    <frame tileid="283" duration="150"/>
    <frame tileid="523" duration="150"/>
    <frame tileid="763" duration="150"/>
    <frame tileid="1003" duration="150"/>
    <frame tileid="1243" duration="150"/>
   </animation>
  </tile>
  <tile id="45">
   <animation>
    <frame tileid="45" duration="150"/>
    <frame tileid="285" duration="150"/>
    <frame tileid="525" duration="150"/>
    <frame tileid="765" duration="150"/>
    <frame tileid="1005" duration="150"/>
    <frame tileid="1245" duration="150"/>
   </animation>
  </tile>
  <tile id="46">
   <animation>
    <frame tileid="46" duration="150"/>
    <frame tileid="286" duration="150"/>
    <frame tileid="526" duration="150"/>
    <frame tileid="766" duration="150"/>
    <frame tileid="1006" duration="150"/>
    <frame tileid="1246" duration="150"/>
   </animation>
  </tile>
  <tile id="48">
   <animation>
    <frame tileid="48" duration="150"/>
    <frame tileid="288" duration="150"/>
    <frame tileid="528" duration="150"/>
    <frame tileid="768" duration="150"/>
    <frame tileid="1008" duration="150"/>
    <frame tileid="1248" duration="150"/>
   </animation>
  </tile>
  <tile id="49">
   <animation>
    <frame tileid="49" duration="150"/>
    <frame tileid="289" duration="150"/>
    <frame tileid="529" duration="150"/>
    <frame tileid="769" duration="150"/>
    <frame tileid="1009" duration="150"/>
    <frame tileid="1249" duration="150"/>
   </animation>
  </tile>
  <tile id="51">
   <animation>
    <frame tileid="51" duration="150"/>
    <frame tileid="291" duration="150"/>
    <frame tileid="531" duration="150"/>
    <frame tileid="771" duration="150"/>
    <frame tileid="1011" duration="150"/>
    <frame tileid="1251" duration="150"/>
   </animation>
  </tile>
  <tile id="52">
   <animation>
    <frame tileid="52" duration="150"/>
    <frame tileid="292" duration="150"/>
    <frame tileid="532" duration="150"/>
    <frame tileid="772" duration="150"/>
    <frame tileid="1012" duration="150"/>
    <frame tileid="1252" duration="150"/>
   </animation>
  </tile>
  <tile id="54">
   <animation>
    <frame tileid="54" duration="150"/>
    <frame tileid="294" duration="150"/>
    <frame tileid="534" duration="150"/>
    <frame tileid="774" duration="150"/>
    <frame tileid="1014" duration="150"/>
    <frame tileid="1254" duration="150"/>
   </animation>
  </tile>
  <tile id="55">
   <animation>
    <frame tileid="55" duration="150"/>
    <frame tileid="295" duration="150"/>
    <frame tileid="535" duration="150"/>
    <frame tileid="775" duration="150"/>
    <frame tileid="1015" duration="150"/>
    <frame tileid="1255" duration="150"/>
   </animation>
  </tile>
  <tile id="57">
   <animation>
    <frame tileid="57" duration="150"/>
    <frame tileid="297" duration="150"/>
    <frame tileid="537" duration="150"/>
    <frame tileid="777" duration="150"/>
    <frame tileid="1017" duration="150"/>
    <frame tileid="1257" duration="150"/>
   </animation>
  </tile>
  <tile id="58">
   <animation>
    <frame tileid="58" duration="150"/>
    <frame tileid="298" duration="150"/>
    <frame tileid="538" duration="150"/>
    <frame tileid="778" duration="150"/>
    <frame tileid="1018" duration="150"/>
    <frame tileid="1258" duration="150"/>
   </animation>
  </tile>
  <tile id="60">
   <animation>
    <frame tileid="60" duration="150"/>
    <frame tileid="300" duration="150"/>
    <frame tileid="540" duration="150"/>
    <frame tileid="780" duration="150"/>
    <frame tileid="1020" duration="150"/>
    <frame tileid="1260" duration="150"/>
   </animation>
  </tile>
  <tile id="62">
   <animation>
    <frame tileid="62" duration="150"/>
    <frame tileid="302" duration="150"/>
    <frame tileid="542" duration="150"/>
    <frame tileid="782" duration="150"/>
    <frame tileid="1022" duration="150"/>
    <frame tileid="1262" duration="150"/>
   </animation>
  </tile>
  <tile id="63">
   <animation>
    <frame tileid="63" duration="150"/>
    <frame tileid="303" duration="150"/>
    <frame tileid="543" duration="150"/>
    <frame tileid="783" duration="150"/>
    <frame tileid="1023" duration="150"/>
    <frame tileid="1263" duration="150"/>
   </animation>
  </tile>
  <tile id="64">
   <animation>
    <frame tileid="64" duration="150"/>
    <frame tileid="304" duration="150"/>
    <frame tileid="544" duration="150"/>
    <frame tileid="784" duration="150"/>
    <frame tileid="1024" duration="150"/>
    <frame tileid="1264" duration="150"/>
   </animation>
  </tile>
  <tile id="66">
   <animation>
    <frame tileid="66" duration="150"/>
    <frame tileid="306" duration="150"/>
    <frame tileid="546" duration="150"/>
    <frame tileid="786" duration="150"/>
    <frame tileid="1026" duration="150"/>
    <frame tileid="1266" duration="150"/>
   </animation>
  </tile>
  <tile id="67">
   <animation>
    <frame tileid="67" duration="150"/>
    <frame tileid="307" duration="150"/>
    <frame tileid="547" duration="150"/>
    <frame tileid="787" duration="150"/>
    <frame tileid="1027" duration="150"/>
    <frame tileid="1267" duration="150"/>
   </animation>
  </tile>
  <tile id="69">
   <animation>
    <frame tileid="69" duration="150"/>
    <frame tileid="309" duration="150"/>
    <frame tileid="549" duration="150"/>
    <frame tileid="789" duration="150"/>
    <frame tileid="1029" duration="150"/>
    <frame tileid="1269" duration="150"/>
   </animation>
  </tile>
  <tile id="70">
   <animation>
    <frame tileid="70" duration="150"/>
    <frame tileid="310" duration="150"/>
    <frame tileid="550" duration="150"/>
    <frame tileid="790" duration="150"/>
    <frame tileid="1030" duration="150"/>
    <frame tileid="1270" duration="150"/>
   </animation>
  </tile>
  <tile id="72">
   <animation>
    <frame tileid="72" duration="150"/>
    <frame tileid="312" duration="150"/>
    <frame tileid="552" duration="150"/>
    <frame tileid="792" duration="150"/>
    <frame tileid="1032" duration="150"/>
    <frame tileid="1272" duration="150"/>
   </animation>
  </tile>
  <tile id="73">
   <animation>
    <frame tileid="73" duration="150"/>
    <frame tileid="313" duration="150"/>
    <frame tileid="553" duration="150"/>
    <frame tileid="793" duration="150"/>
    <frame tileid="1033" duration="150"/>
    <frame tileid="1273" duration="150"/>
   </animation>
  </tile>
  <tile id="75">
   <animation>
    <frame tileid="75" duration="150"/>
    <frame tileid="315" duration="150"/>
    <frame tileid="555" duration="150"/>
    <frame tileid="795" duration="150"/>
    <frame tileid="1035" duration="150"/>
    <frame tileid="1275" duration="150"/>
   </animation>
  </tile>
  <tile id="76">
   <animation>
    <frame tileid="76" duration="150"/>
    <frame tileid="316" duration="150"/>
    <frame tileid="556" duration="150"/>
    <frame tileid="796" duration="150"/>
    <frame tileid="1036" duration="150"/>
    <frame tileid="1276" duration="150"/>
   </animation>
  </tile>
  <tile id="78">
   <animation>
    <frame tileid="78" duration="150"/>
    <frame tileid="318" duration="150"/>
    <frame tileid="558" duration="150"/>
    <frame tileid="798" duration="150"/>
    <frame tileid="1038" duration="150"/>
    <frame tileid="1278" duration="150"/>
   </animation>
  </tile>
  <tile id="79">
   <animation>
    <frame tileid="79" duration="150"/>
    <frame tileid="319" duration="150"/>
    <frame tileid="559" duration="150"/>
    <frame tileid="799" duration="150"/>
    <frame tileid="1039" duration="150"/>
    <frame tileid="1279" duration="150"/>
   </animation>
  </tile>
  <tile id="81">
   <animation>
    <frame tileid="81" duration="150"/>
    <frame tileid="321" duration="150"/>
    <frame tileid="561" duration="150"/>
    <frame tileid="801" duration="150"/>
    <frame tileid="1041" duration="150"/>
    <frame tileid="1281" duration="150"/>
   </animation>
  </tile>
  <tile id="82">
   <animation>
    <frame tileid="82" duration="150"/>
    <frame tileid="322" duration="150"/>
    <frame tileid="562" duration="150"/>
    <frame tileid="802" duration="150"/>
    <frame tileid="1042" duration="150"/>
    <frame tileid="1282" duration="150"/>
   </animation>
  </tile>
  <tile id="84">
   <animation>
    <frame tileid="84" duration="150"/>
    <frame tileid="324" duration="150"/>
    <frame tileid="564" duration="150"/>
    <frame tileid="804" duration="150"/>
    <frame tileid="1044" duration="150"/>
    <frame tileid="1284" duration="150"/>
   </animation>
  </tile>
  <tile id="85">
   <animation>
    <frame tileid="85" duration="150"/>
    <frame tileid="325" duration="150"/>
    <frame tileid="565" duration="150"/>
    <frame tileid="805" duration="150"/>
    <frame tileid="1045" duration="150"/>
    <frame tileid="1285" duration="150"/>
   </animation>
  </tile>
  <tile id="87">
   <animation>
    <frame tileid="87" duration="150"/>
    <frame tileid="327" duration="150"/>
    <frame tileid="567" duration="150"/>
    <frame tileid="807" duration="150"/>
    <frame tileid="1047" duration="150"/>
    <frame tileid="1287" duration="150"/>
   </animation>
  </tile>
  <tile id="88">
   <animation>
    <frame tileid="88" duration="150"/>
    <frame tileid="328" duration="150"/>
    <frame tileid="568" duration="150"/>
    <frame tileid="808" duration="150"/>
    <frame tileid="1048" duration="150"/>
    <frame tileid="1288" duration="150"/>
   </animation>
  </tile>
  <tile id="90">
   <animation>
    <frame tileid="90" duration="150"/>
    <frame tileid="330" duration="150"/>
    <frame tileid="570" duration="150"/>
    <frame tileid="810" duration="150"/>
    <frame tileid="1050" duration="150"/>
    <frame tileid="1290" duration="150"/>
   </animation>
  </tile>
  <tile id="91">
   <animation>
    <frame tileid="91" duration="150"/>
    <frame tileid="331" duration="150"/>
    <frame tileid="571" duration="150"/>
    <frame tileid="811" duration="150"/>
    <frame tileid="1051" duration="150"/>
    <frame tileid="1291" duration="150"/>
   </animation>
  </tile>
  <tile id="92">
   <animation>
    <frame tileid="92" duration="150"/>
    <frame tileid="332" duration="150"/>
    <frame tileid="572" duration="150"/>
    <frame tileid="812" duration="150"/>
    <frame tileid="1052" duration="150"/>
    <frame tileid="1292" duration="150"/>
   </animation>
  </tile>
  <tile id="93">
   <animation>
    <frame tileid="93" duration="150"/>
    <frame tileid="333" duration="150"/>
    <frame tileid="573" duration="150"/>
    <frame tileid="813" duration="150"/>
    <frame tileid="1053" duration="150"/>
    <frame tileid="1293" duration="150"/>
   </animation>
  </tile>
  <tile id="97">
   <animation>
    <frame tileid="97" duration="150"/>
    <frame tileid="337" duration="150"/>
    <frame tileid="577" duration="150"/>
    <frame tileid="817" duration="150"/>
    <frame tileid="1057" duration="150"/>
    <frame tileid="1297" duration="150"/>
   </animation>
  </tile>
  <tile id="99">
   <animation>
    <frame tileid="99" duration="150"/>
    <frame tileid="339" duration="150"/>
    <frame tileid="579" duration="150"/>
    <frame tileid="819" duration="150"/>
    <frame tileid="1059" duration="150"/>
    <frame tileid="1299" duration="150"/>
   </animation>
  </tile>
  <tile id="100">
   <animation>
    <frame tileid="100" duration="150"/>
    <frame tileid="340" duration="150"/>
    <frame tileid="580" duration="150"/>
    <frame tileid="820" duration="150"/>
    <frame tileid="1060" duration="150"/>
    <frame tileid="1300" duration="150"/>
   </animation>
  </tile>
  <tile id="102">
   <animation>
    <frame tileid="102" duration="150"/>
    <frame tileid="342" duration="150"/>
    <frame tileid="582" duration="150"/>
    <frame tileid="822" duration="150"/>
    <frame tileid="1062" duration="150"/>
    <frame tileid="1302" duration="150"/>
   </animation>
  </tile>
  <tile id="103">
   <animation>
    <frame tileid="103" duration="150"/>
    <frame tileid="343" duration="150"/>
    <frame tileid="583" duration="150"/>
    <frame tileid="823" duration="150"/>
    <frame tileid="1063" duration="150"/>
    <frame tileid="1303" duration="150"/>
   </animation>
  </tile>
  <tile id="108">
   <animation>
    <frame tileid="108" duration="150"/>
    <frame tileid="348" duration="150"/>
    <frame tileid="588" duration="150"/>
    <frame tileid="828" duration="150"/>
    <frame tileid="1068" duration="150"/>
    <frame tileid="1308" duration="150"/>
   </animation>
  </tile>
  <tile id="109">
   <animation>
    <frame tileid="109" duration="150"/>
    <frame tileid="349" duration="150"/>
    <frame tileid="589" duration="150"/>
    <frame tileid="829" duration="150"/>
    <frame tileid="1069" duration="150"/>
    <frame tileid="1309" duration="150"/>
   </animation>
  </tile>
  <tile id="111">
   <animation>
    <frame tileid="111" duration="150"/>
    <frame tileid="351" duration="150"/>
    <frame tileid="591" duration="150"/>
    <frame tileid="831" duration="150"/>
    <frame tileid="1071" duration="150"/>
    <frame tileid="1311" duration="150"/>
   </animation>
  </tile>
  <tile id="112">
   <animation>
    <frame tileid="112" duration="150"/>
    <frame tileid="352" duration="150"/>
    <frame tileid="592" duration="150"/>
    <frame tileid="832" duration="150"/>
    <frame tileid="1072" duration="150"/>
    <frame tileid="1312" duration="150"/>
   </animation>
  </tile>
  <tile id="114">
   <animation>
    <frame tileid="114" duration="150"/>
    <frame tileid="354" duration="150"/>
    <frame tileid="594" duration="150"/>
    <frame tileid="834" duration="150"/>
    <frame tileid="1074" duration="150"/>
    <frame tileid="1314" duration="150"/>
   </animation>
  </tile>
  <tile id="115">
   <animation>
    <frame tileid="115" duration="150"/>
    <frame tileid="355" duration="150"/>
    <frame tileid="595" duration="150"/>
    <frame tileid="835" duration="150"/>
    <frame tileid="1075" duration="150"/>
    <frame tileid="1315" duration="150"/>
   </animation>
  </tile>
  <tile id="117">
   <animation>
    <frame tileid="117" duration="150"/>
    <frame tileid="357" duration="150"/>
    <frame tileid="597" duration="150"/>
    <frame tileid="837" duration="150"/>
    <frame tileid="1077" duration="150"/>
    <frame tileid="1317" duration="150"/>
   </animation>
  </tile>
  <tile id="118">
   <animation>
    <frame tileid="118" duration="150"/>
    <frame tileid="358" duration="150"/>
    <frame tileid="598" duration="150"/>
    <frame tileid="838" duration="150"/>
    <frame tileid="1078" duration="150"/>
    <frame tileid="1318" duration="150"/>
   </animation>
  </tile>
  <tile id="120">
   <animation>
    <frame tileid="120" duration="150"/>
    <frame tileid="360" duration="150"/>
    <frame tileid="600" duration="150"/>
    <frame tileid="840" duration="150"/>
    <frame tileid="1080" duration="150"/>
    <frame tileid="1320" duration="150"/>
   </animation>
  </tile>
  <tile id="121">
   <animation>
    <frame tileid="121" duration="150"/>
    <frame tileid="361" duration="150"/>
    <frame tileid="601" duration="150"/>
    <frame tileid="841" duration="150"/>
    <frame tileid="1081" duration="150"/>
    <frame tileid="1321" duration="150"/>
   </animation>
  </tile>
  <tile id="141">
   <animation>
    <frame tileid="141" duration="150"/>
    <frame tileid="381" duration="150"/>
    <frame tileid="621" duration="150"/>
    <frame tileid="861" duration="150"/>
    <frame tileid="1101" duration="150"/>
    <frame tileid="1341" duration="150"/>
   </animation>
  </tile>
  <tile id="142">
   <animation>
    <frame tileid="142" duration="150"/>
    <frame tileid="382" duration="150"/>
    <frame tileid="622" duration="150"/>
    <frame tileid="862" duration="150"/>
    <frame tileid="1102" duration="150"/>
    <frame tileid="1342" duration="150"/>
   </animation>
  </tile>
  <tile id="144">
   <animation>
    <frame tileid="144" duration="150"/>
    <frame tileid="384" duration="150"/>
    <frame tileid="624" duration="150"/>
    <frame tileid="864" duration="150"/>
    <frame tileid="1104" duration="150"/>
    <frame tileid="1344" duration="150"/>
   </animation>
  </tile>
  <tile id="145">
   <animation>
    <frame tileid="145" duration="150"/>
    <frame tileid="385" duration="150"/>
    <frame tileid="625" duration="150"/>
    <frame tileid="865" duration="150"/>
    <frame tileid="1105" duration="150"/>
    <frame tileid="1345" duration="150"/>
   </animation>
  </tile>
  <tile id="147">
   <animation>
    <frame tileid="147" duration="150"/>
    <frame tileid="387" duration="150"/>
    <frame tileid="627" duration="150"/>
    <frame tileid="867" duration="150"/>
    <frame tileid="1107" duration="150"/>
    <frame tileid="1347" duration="150"/>
   </animation>
  </tile>
  <tile id="148">
   <animation>
    <frame tileid="148" duration="150"/>
    <frame tileid="388" duration="150"/>
    <frame tileid="628" duration="150"/>
    <frame tileid="868" duration="150"/>
    <frame tileid="1108" duration="150"/>
    <frame tileid="1348" duration="150"/>
   </animation>
  </tile>
  <tile id="150">
   <animation>
    <frame tileid="150" duration="150"/>
    <frame tileid="390" duration="150"/>
    <frame tileid="630" duration="150"/>
    <frame tileid="870" duration="150"/>
    <frame tileid="1110" duration="150"/>
    <frame tileid="1350" duration="150"/>
   </animation>
  </tile>
  <tile id="151">
   <animation>
    <frame tileid="151" duration="150"/>
    <frame tileid="391" duration="150"/>
    <frame tileid="631" duration="150"/>
    <frame tileid="871" duration="150"/>
    <frame tileid="1111" duration="150"/>
    <frame tileid="1351" duration="150"/>
   </animation>
  </tile>
  <tile id="152">
   <animation>
    <frame tileid="152" duration="150"/>
    <frame tileid="392" duration="150"/>
    <frame tileid="632" duration="150"/>
    <frame tileid="872" duration="150"/>
    <frame tileid="1112" duration="150"/>
    <frame tileid="1352" duration="150"/>
   </animation>
  </tile>
  <tile id="153">
   <animation>
    <frame tileid="153" duration="150"/>
    <frame tileid="393" duration="150"/>
    <frame tileid="633" duration="150"/>
    <frame tileid="873" duration="150"/>
    <frame tileid="1113" duration="150"/>
    <frame tileid="1353" duration="150"/>
   </animation>
  </tile>
  <tile id="154">
   <animation>
    <frame tileid="154" duration="150"/>
    <frame tileid="394" duration="150"/>
    <frame tileid="634" duration="150"/>
    <frame tileid="874" duration="150"/>
    <frame tileid="1114" duration="150"/>
    <frame tileid="1354" duration="150"/>
   </animation>
  </tile>
  <tile id="156">
   <animation>
    <frame tileid="156" duration="150"/>
    <frame tileid="396" duration="150"/>
    <frame tileid="636" duration="150"/>
    <frame tileid="876" duration="150"/>
    <frame tileid="1116" duration="150"/>
    <frame tileid="1356" duration="150"/>
   </animation>
  </tile>
  <tile id="157">
   <animation>
    <frame tileid="157" duration="150"/>
    <frame tileid="397" duration="150"/>
    <frame tileid="637" duration="150"/>
    <frame tileid="877" duration="150"/>
    <frame tileid="1117" duration="150"/>
    <frame tileid="1357" duration="150"/>
   </animation>
  </tile>
  <tile id="159">
   <animation>
    <frame tileid="159" duration="150"/>
    <frame tileid="399" duration="150"/>
    <frame tileid="639" duration="150"/>
    <frame tileid="879" duration="150"/>
    <frame tileid="1119" duration="150"/>
    <frame tileid="1359" duration="150"/>
   </animation>
  </tile>
  <tile id="160">
   <animation>
    <frame tileid="160" duration="150"/>
    <frame tileid="400" duration="150"/>
    <frame tileid="640" duration="150"/>
    <frame tileid="880" duration="150"/>
    <frame tileid="1120" duration="150"/>
    <frame tileid="1360" duration="150"/>
   </animation>
  </tile>
  <tile id="162">
   <animation>
    <frame tileid="162" duration="150"/>
    <frame tileid="402" duration="150"/>
    <frame tileid="642" duration="150"/>
    <frame tileid="882" duration="150"/>
    <frame tileid="1122" duration="150"/>
    <frame tileid="1362" duration="150"/>
   </animation>
  </tile>
  <tile id="163">
   <animation>
    <frame tileid="163" duration="150"/>
    <frame tileid="403" duration="150"/>
    <frame tileid="643" duration="150"/>
    <frame tileid="883" duration="150"/>
    <frame tileid="1123" duration="150"/>
    <frame tileid="1363" duration="150"/>
   </animation>
  </tile>
  <tile id="165">
   <animation>
    <frame tileid="165" duration="150"/>
    <frame tileid="405" duration="150"/>
    <frame tileid="645" duration="150"/>
    <frame tileid="885" duration="150"/>
    <frame tileid="1125" duration="150"/>
    <frame tileid="1365" duration="150"/>
   </animation>
  </tile>
  <tile id="166">
   <animation>
    <frame tileid="166" duration="150"/>
    <frame tileid="406" duration="150"/>
    <frame tileid="646" duration="150"/>
    <frame tileid="886" duration="150"/>
    <frame tileid="1126" duration="150"/>
    <frame tileid="1366" duration="150"/>
   </animation>
  </tile>
  <tile id="168">
   <animation>
    <frame tileid="168" duration="150"/>
    <frame tileid="408" duration="150"/>
    <frame tileid="648" duration="150"/>
    <frame tileid="888" duration="150"/>
    <frame tileid="1128" duration="150"/>
    <frame tileid="1368" duration="150"/>
   </animation>
  </tile>
  <tile id="169">
   <animation>
    <frame tileid="169" duration="150"/>
    <frame tileid="409" duration="150"/>
    <frame tileid="649" duration="150"/>
    <frame tileid="889" duration="150"/>
    <frame tileid="1129" duration="150"/>
    <frame tileid="1369" duration="150"/>
   </animation>
  </tile>
  <tile id="171">
   <animation>
    <frame tileid="171" duration="150"/>
    <frame tileid="411" duration="150"/>
    <frame tileid="651" duration="150"/>
    <frame tileid="891" duration="150"/>
    <frame tileid="1131" duration="150"/>
    <frame tileid="1371" duration="150"/>
   </animation>
  </tile>
  <tile id="172">
   <animation>
    <frame tileid="172" duration="150"/>
    <frame tileid="412" duration="150"/>
    <frame tileid="652" duration="150"/>
    <frame tileid="892" duration="150"/>
    <frame tileid="1132" duration="150"/>
    <frame tileid="1372" duration="150"/>
   </animation>
  </tile>
  <tile id="174">
   <animation>
    <frame tileid="174" duration="150"/>
    <frame tileid="414" duration="150"/>
    <frame tileid="654" duration="150"/>
    <frame tileid="894" duration="150"/>
    <frame tileid="1134" duration="150"/>
    <frame tileid="1374" duration="150"/>
   </animation>
  </tile>
  <tile id="175">
   <animation>
    <frame tileid="175" duration="150"/>
    <frame tileid="415" duration="150"/>
    <frame tileid="655" duration="150"/>
    <frame tileid="895" duration="150"/>
    <frame tileid="1135" duration="150"/>
    <frame tileid="1375" duration="150"/>
   </animation>
  </tile>
  <tile id="177">
   <animation>
    <frame tileid="177" duration="150"/>
    <frame tileid="417" duration="150"/>
    <frame tileid="657" duration="150"/>
    <frame tileid="897" duration="150"/>
    <frame tileid="1137" duration="150"/>
    <frame tileid="1377" duration="150"/>
   </animation>
  </tile>
  <tile id="178">
   <animation>
    <frame tileid="178" duration="150"/>
    <frame tileid="418" duration="150"/>
    <frame tileid="658" duration="150"/>
    <frame tileid="898" duration="150"/>
    <frame tileid="1138" duration="150"/>
    <frame tileid="1378" duration="150"/>
   </animation>
  </tile>
  <tile id="180">
   <animation>
    <frame tileid="180" duration="150"/>
    <frame tileid="420" duration="150"/>
    <frame tileid="660" duration="150"/>
    <frame tileid="900" duration="150"/>
    <frame tileid="1140" duration="150"/>
    <frame tileid="1380" duration="150"/>
   </animation>
  </tile>
  <tile id="182">
   <animation>
    <frame tileid="182" duration="150"/>
    <frame tileid="422" duration="150"/>
    <frame tileid="662" duration="150"/>
    <frame tileid="902" duration="150"/>
    <frame tileid="1142" duration="150"/>
    <frame tileid="1382" duration="150"/>
   </animation>
  </tile>
  <tile id="183">
   <animation>
    <frame tileid="183" duration="150"/>
    <frame tileid="423" duration="150"/>
    <frame tileid="663" duration="150"/>
    <frame tileid="903" duration="150"/>
    <frame tileid="1143" duration="150"/>
    <frame tileid="1383" duration="150"/>
   </animation>
  </tile>
  <tile id="184">
   <animation>
    <frame tileid="184" duration="150"/>
    <frame tileid="424" duration="150"/>
    <frame tileid="664" duration="150"/>
    <frame tileid="904" duration="150"/>
    <frame tileid="1144" duration="150"/>
    <frame tileid="1384" duration="150"/>
   </animation>
  </tile>
  <tile id="186">
   <animation>
    <frame tileid="186" duration="150"/>
    <frame tileid="426" duration="150"/>
    <frame tileid="666" duration="150"/>
    <frame tileid="906" duration="150"/>
    <frame tileid="1146" duration="150"/>
    <frame tileid="1386" duration="150"/>
   </animation>
  </tile>
  <tile id="187">
   <animation>
    <frame tileid="187" duration="150"/>
    <frame tileid="427" duration="150"/>
    <frame tileid="667" duration="150"/>
    <frame tileid="907" duration="150"/>
    <frame tileid="1387" duration="150"/>
   </animation>
  </tile>
  <tile id="189">
   <animation>
    <frame tileid="189" duration="150"/>
    <frame tileid="429" duration="150"/>
    <frame tileid="669" duration="150"/>
    <frame tileid="909" duration="150"/>
    <frame tileid="1149" duration="150"/>
    <frame tileid="1389" duration="150"/>
   </animation>
  </tile>
  <tile id="190">
   <animation>
    <frame tileid="190" duration="150"/>
    <frame tileid="430" duration="150"/>
    <frame tileid="670" duration="150"/>
    <frame tileid="910" duration="150"/>
    <frame tileid="1150" duration="150"/>
    <frame tileid="1390" duration="150"/>
   </animation>
  </tile>
  <tile id="192">
   <animation>
    <frame tileid="192" duration="150"/>
    <frame tileid="432" duration="150"/>
    <frame tileid="672" duration="150"/>
    <frame tileid="912" duration="150"/>
    <frame tileid="1152" duration="150"/>
    <frame tileid="1392" duration="150"/>
   </animation>
  </tile>
  <tile id="193">
   <animation>
    <frame tileid="193" duration="150"/>
    <frame tileid="433" duration="150"/>
    <frame tileid="673" duration="150"/>
    <frame tileid="913" duration="150"/>
    <frame tileid="1153" duration="150"/>
    <frame tileid="1393" duration="150"/>
   </animation>
  </tile>
  <tile id="195">
   <animation>
    <frame tileid="195" duration="150"/>
    <frame tileid="435" duration="150"/>
    <frame tileid="675" duration="150"/>
    <frame tileid="915" duration="150"/>
    <frame tileid="1155" duration="150"/>
    <frame tileid="1395" duration="150"/>
   </animation>
  </tile>
  <tile id="196">
   <animation>
    <frame tileid="196" duration="150"/>
    <frame tileid="436" duration="150"/>
    <frame tileid="676" duration="150"/>
    <frame tileid="916" duration="150"/>
    <frame tileid="1156" duration="150"/>
    <frame tileid="1396" duration="150"/>
   </animation>
  </tile>
  <tile id="210">
   <animation>
    <frame tileid="210" duration="150"/>
    <frame tileid="450" duration="150"/>
    <frame tileid="690" duration="150"/>
    <frame tileid="930" duration="150"/>
    <frame tileid="1170" duration="150"/>
    <frame tileid="1410" duration="150"/>
   </animation>
  </tile>
  <tile id="211">
   <animation>
    <frame tileid="211" duration="150"/>
    <frame tileid="451" duration="150"/>
    <frame tileid="691" duration="150"/>
    <frame tileid="931" duration="150"/>
    <frame tileid="1171" duration="150"/>
    <frame tileid="1411" duration="150"/>
   </animation>
  </tile>
  <tile id="212">
   <animation>
    <frame tileid="212" duration="150"/>
    <frame tileid="452" duration="150"/>
    <frame tileid="692" duration="150"/>
    <frame tileid="932" duration="150"/>
    <frame tileid="1172" duration="150"/>
    <frame tileid="1412" duration="150"/>
   </animation>
  </tile>
  <tile id="213">
   <animation>
    <frame tileid="213" duration="150"/>
    <frame tileid="453" duration="150"/>
    <frame tileid="693" duration="150"/>
    <frame tileid="933" duration="150"/>
    <frame tileid="1173" duration="150"/>
    <frame tileid="1413" duration="150"/>
   </animation>
  </tile>
  <tile id="217">
   <animation>
    <frame tileid="217" duration="150"/>
    <frame tileid="457" duration="150"/>
    <frame tileid="697" duration="150"/>
    <frame tileid="937" duration="150"/>
    <frame tileid="1177" duration="150"/>
    <frame tileid="1417" duration="150"/>
   </animation>
  </tile>
  <tile id="219">
   <animation>
    <frame tileid="219" duration="150"/>
    <frame tileid="459" duration="150"/>
    <frame tileid="699" duration="150"/>
    <frame tileid="939" duration="150"/>
    <frame tileid="1179" duration="150"/>
    <frame tileid="1419" duration="150"/>
   </animation>
  </tile>
  <tile id="220">
   <animation>
    <frame tileid="220" duration="150"/>
    <frame tileid="460" duration="150"/>
    <frame tileid="700" duration="150"/>
    <frame tileid="940" duration="150"/>
    <frame tileid="1180" duration="150"/>
    <frame tileid="1420" duration="150"/>
   </animation>
  </tile>
  <tile id="222">
   <animation>
    <frame tileid="222" duration="150"/>
    <frame tileid="462" duration="150"/>
    <frame tileid="702" duration="150"/>
    <frame tileid="942" duration="150"/>
    <frame tileid="1182" duration="150"/>
    <frame tileid="1422" duration="150"/>
   </animation>
  </tile>
  <tile id="223">
   <animation>
    <frame tileid="223" duration="150"/>
    <frame tileid="463" duration="150"/>
    <frame tileid="703" duration="150"/>
    <frame tileid="943" duration="150"/>
    <frame tileid="1183" duration="150"/>
    <frame tileid="1423" duration="150"/>
   </animation>
  </tile>
  <tile id="228">
   <animation>
    <frame tileid="228" duration="150"/>
    <frame tileid="468" duration="150"/>
    <frame tileid="708" duration="150"/>
    <frame tileid="948" duration="150"/>
    <frame tileid="1188" duration="150"/>
    <frame tileid="1428" duration="150"/>
   </animation>
  </tile>
  <tile id="229">
   <animation>
    <frame tileid="229" duration="150"/>
    <frame tileid="469" duration="150"/>
    <frame tileid="709" duration="150"/>
    <frame tileid="949" duration="150"/>
    <frame tileid="1189" duration="150"/>
    <frame tileid="1429" duration="150"/>
   </animation>
  </tile>
  <tile id="240">
   <animation>
    <frame tileid="240" duration="150"/>
    <frame tileid="480" duration="150"/>
    <frame tileid="720" duration="150"/>
    <frame tileid="960" duration="150"/>
    <frame tileid="1200" duration="150"/>
    <frame tileid="1440" duration="150"/>
   </animation>
  </tile>
  <tile id="241">
   <animation>
    <frame tileid="241" duration="150"/>
    <frame tileid="481" duration="150"/>
    <frame tileid="721" duration="150"/>
    <frame tileid="961" duration="150"/>
    <frame tileid="1201" duration="150"/>
    <frame tileid="1441" duration="150"/>
   </animation>
  </tile>
 </tileset>
 <tileset firstgid="7243" name="Ground_grass" tilewidth="16" tileheight="16" tilecount="651" columns="21">
  <image source="GroundGrass.png" width="336" height="496"/>
 </tileset>
 <tileset firstgid="7894" name="spots" tilewidth="16" tileheight="16" tilecount="336" columns="21">
  <image source="Spots.png" width="336" height="256"/>
 </tileset>
 <tileset firstgid="8230" name="stairs_grass" tilewidth="16" tileheight="16" tilecount="357" columns="21">
  <image source="StairsGrass.png" width="336" height="272"/>
 </tileset>
 <tileset firstgid="8587" name="spots_rock" tilewidth="16" tileheight="16" tilecount="483" columns="21">
  <image source="SpotsRock.png" width="336" height="368"/>
 </tileset>
 <tileset firstgid="9070" name="lianas" tilewidth="16" tileheight="16" tilecount="260" columns="26">
  <image source="Lianas.png" width="416" height="160"/>
 </tileset>
 <tileset firstgid="9330" name="Objects" tilewidth="16" tileheight="16" tilecount="1056" columns="32">
  <image source="Objects.png" width="512" height="528"/>
 </tileset>
 <tileset firstgid="10386" name="water_lilis" tilewidth="16" tileheight="16" tilecount="301" columns="7">
  <image source="WaterLilis.png" width="112" height="688"/>
  <tile id="2">
   <animation>
    <frame tileid="2" duration="150"/>
    <frame tileid="51" duration="150"/>
    <frame tileid="100" duration="150"/>
    <frame tileid="149" duration="150"/>
    <frame tileid="198" duration="150"/>
    <frame tileid="247" duration="150"/>
   </animation>
  </tile>
  <tile id="3">
   <animation>
    <frame tileid="3" duration="150"/>
    <frame tileid="52" duration="150"/>
    <frame tileid="101" duration="150"/>
    <frame tileid="150" duration="150"/>
    <frame tileid="199" duration="150"/>
    <frame tileid="248" duration="150"/>
   </animation>
  </tile>
  <tile id="4">
   <animation>
    <frame tileid="4" duration="150"/>
    <frame tileid="53" duration="150"/>
    <frame tileid="102" duration="150"/>
    <frame tileid="151" duration="150"/>
    <frame tileid="200" duration="150"/>
    <frame tileid="249" duration="150"/>
   </animation>
  </tile>
  <tile id="5">
   <animation>
    <frame tileid="5" duration="150"/>
    <frame tileid="54" duration="150"/>
    <frame tileid="103" duration="150"/>
    <frame tileid="152" duration="150"/>
    <frame tileid="201" duration="150"/>
    <frame tileid="250" duration="150"/>
   </animation>
  </tile>
  <tile id="6">
   <animation>
    <frame tileid="6" duration="150"/>
    <frame tileid="55" duration="150"/>
    <frame tileid="104" duration="150"/>
    <frame tileid="153" duration="150"/>
    <frame tileid="202" duration="150"/>
    <frame tileid="251" duration="150"/>
   </animation>
  </tile>
  <tile id="9">
   <animation>
    <frame tileid="9" duration="150"/>
    <frame tileid="58" duration="150"/>
    <frame tileid="107" duration="150"/>
    <frame tileid="156" duration="150"/>
    <frame tileid="205" duration="150"/>
    <frame tileid="254" duration="150"/>
   </animation>
  </tile>
  <tile id="10">
   <animation>
    <frame tileid="10" duration="150"/>
    <frame tileid="59" duration="150"/>
    <frame tileid="108" duration="150"/>
    <frame tileid="157" duration="150"/>
    <frame tileid="206" duration="150"/>
    <frame tileid="255" duration="150"/>
   </animation>
  </tile>
  <tile id="11">
   <animation>
    <frame tileid="11" duration="150"/>
    <frame tileid="60" duration="150"/>
    <frame tileid="109" duration="150"/>
    <frame tileid="158" duration="150"/>
    <frame tileid="207" duration="150"/>
    <frame tileid="256" duration="150"/>
   </animation>
  </tile>
  <tile id="12">
   <animation>
    <frame tileid="12" duration="150"/>
    <frame tileid="61" duration="150"/>
    <frame tileid="110" duration="150"/>
    <frame tileid="159" duration="150"/>
    <frame tileid="208" duration="150"/>
    <frame tileid="257" duration="150"/>
   </animation>
  </tile>
  <tile id="13">
   <animation>
    <frame tileid="13" duration="150"/>
    <frame tileid="62" duration="150"/>
    <frame tileid="111" duration="150"/>
    <frame tileid="160" duration="150"/>
    <frame tileid="209" duration="150"/>
    <frame tileid="258" duration="150"/>
   </animation>
  </tile>
  <tile id="14">
   <animation>
    <frame tileid="14" duration="150"/>
    <frame tileid="63" duration="150"/>
    <frame tileid="112" duration="150"/>
    <frame tileid="161" duration="150"/>
    <frame tileid="210" duration="150"/>
    <frame tileid="259" duration="150"/>
   </animation>
  </tile>
  <tile id="15">
   <animation>
    <frame tileid="15" duration="150"/>
    <frame tileid="64" duration="150"/>
    <frame tileid="113" duration="150"/>
    <frame tileid="162" duration="150"/>
    <frame tileid="211" duration="150"/>
    <frame tileid="260" duration="150"/>
   </animation>
  </tile>
  <tile id="17">
   <animation>
    <frame tileid="17" duration="150"/>
    <frame tileid="66" duration="150"/>
    <frame tileid="115" duration="150"/>
    <frame tileid="164" duration="150"/>
    <frame tileid="213" duration="150"/>
    <frame tileid="262" duration="150"/>
   </animation>
  </tile>
  <tile id="18">
   <animation>
    <frame tileid="18" duration="150"/>
    <frame tileid="67" duration="150"/>
    <frame tileid="116" duration="150"/>
    <frame tileid="165" duration="150"/>
    <frame tileid="214" duration="150"/>
    <frame tileid="263" duration="150"/>
   </animation>
  </tile>
  <tile id="19">
   <animation>
    <frame tileid="19" duration="150"/>
    <frame tileid="68" duration="150"/>
    <frame tileid="117" duration="150"/>
    <frame tileid="166" duration="150"/>
    <frame tileid="215" duration="150"/>
    <frame tileid="264" duration="150"/>
   </animation>
  </tile>
  <tile id="20">
   <animation>
    <frame tileid="20" duration="150"/>
    <frame tileid="69" duration="150"/>
    <frame tileid="118" duration="150"/>
    <frame tileid="167" duration="150"/>
    <frame tileid="216" duration="150"/>
    <frame tileid="265" duration="150"/>
   </animation>
  </tile>
  <tile id="22">
   <animation>
    <frame tileid="22" duration="150"/>
    <frame tileid="71" duration="150"/>
    <frame tileid="120" duration="150"/>
    <frame tileid="169" duration="150"/>
    <frame tileid="218" duration="150"/>
    <frame tileid="267" duration="150"/>
   </animation>
  </tile>
  <tile id="24">
   <animation>
    <frame tileid="24" duration="150"/>
    <frame tileid="73" duration="150"/>
    <frame tileid="122" duration="150"/>
    <frame tileid="171" duration="150"/>
    <frame tileid="220" duration="150"/>
    <frame tileid="269" duration="150"/>
   </animation>
  </tile>
  <tile id="25">
   <animation>
    <frame tileid="25" duration="150"/>
    <frame tileid="74" duration="150"/>
    <frame tileid="123" duration="150"/>
    <frame tileid="172" duration="150"/>
    <frame tileid="221" duration="150"/>
    <frame tileid="270" duration="150"/>
   </animation>
  </tile>
  <tile id="29">
   <animation>
    <frame tileid="29" duration="150"/>
    <frame tileid="78" duration="150"/>
    <frame tileid="127" duration="150"/>
    <frame tileid="176" duration="150"/>
    <frame tileid="225" duration="150"/>
    <frame tileid="274" duration="150"/>
   </animation>
  </tile>
  <tile id="31">
   <animation>
    <frame tileid="31" duration="150"/>
    <frame tileid="80" duration="150"/>
    <frame tileid="129" duration="150"/>
    <frame tileid="178" duration="150"/>
    <frame tileid="227" duration="150"/>
    <frame tileid="276" duration="150"/>
   </animation>
  </tile>
  <tile id="32">
   <animation>
    <frame tileid="32" duration="150"/>
    <frame tileid="81" duration="150"/>
    <frame tileid="130" duration="150"/>
    <frame tileid="179" duration="150"/>
    <frame tileid="228" duration="150"/>
    <frame tileid="277" duration="150"/>
   </animation>
  </tile>
  <tile id="36">
   <animation>
    <frame tileid="36" duration="150"/>
    <frame tileid="85" duration="150"/>
    <frame tileid="134" duration="150"/>
    <frame tileid="183" duration="150"/>
    <frame tileid="232" duration="150"/>
    <frame tileid="281" duration="150"/>
   </animation>
  </tile>
  <tile id="37">
   <animation>
    <frame tileid="37" duration="150"/>
    <frame tileid="86" duration="150"/>
    <frame tileid="135" duration="150"/>
    <frame tileid="184" duration="150"/>
    <frame tileid="233" duration="150"/>
    <frame tileid="282" duration="150"/>
   </animation>
  </tile>
  <tile id="38">
   <animation>
    <frame tileid="38" duration="150"/>
    <frame tileid="87" duration="150"/>
    <frame tileid="136" duration="150"/>
    <frame tileid="185" duration="150"/>
    <frame tileid="234" duration="150"/>
    <frame tileid="283" duration="150"/>
   </animation>
  </tile>
  <tile id="39">
   <animation>
    <frame tileid="39" duration="150"/>
    <frame tileid="88" duration="150"/>
    <frame tileid="137" duration="150"/>
    <frame tileid="186" duration="150"/>
    <frame tileid="235" duration="150"/>
    <frame tileid="284" duration="150"/>
   </animation>
  </tile>
  <tile id="42">
   <animation>
    <frame tileid="42" duration="150"/>
    <frame tileid="91" duration="150"/>
    <frame tileid="140" duration="150"/>
    <frame tileid="189" duration="150"/>
    <frame tileid="238" duration="150"/>
    <frame tileid="287" duration="150"/>
   </animation>
  </tile>
  <tile id="43">
   <animation>
    <frame tileid="43" duration="150"/>
    <frame tileid="92" duration="150"/>
    <frame tileid="141" duration="150"/>
    <frame tileid="190" duration="150"/>
    <frame tileid="239" duration="150"/>
    <frame tileid="288" duration="150"/>
   </animation>
  </tile>
  <tile id="44">
   <animation>
    <frame tileid="44" duration="150"/>
    <frame tileid="93" duration="150"/>
    <frame tileid="142" duration="150"/>
    <frame tileid="191" duration="150"/>
    <frame tileid="240" duration="150"/>
    <frame tileid="289" duration="150"/>
   </animation>
  </tile>
  <tile id="296">
   <animation>
    <frame tileid="9" duration="150"/>
    <frame tileid="58" duration="150"/>
    <frame tileid="107" duration="150"/>
    <frame tileid="156" duration="150"/>
    <frame tileid="205" duration="150"/>
    <frame tileid="254" duration="150"/>
   </animation>
  </tile>
 </tileset>
 <tileset firstgid="10687" source="ground_grass_bricks.tsx"/>
 <tileset firstgid="11193" source="house.tsx"/>
 <tileset firstgid="11782" source="Water_coasts.tsx"/>
 <tileset firstgid="12046" source="ground_grass_details.tsx"/>
 <tileset firstgid="12340" source="wicket_animation.tsx"/>
 <tileset firstgid="12420" source="Plant.tsx"/>
 <tileset firstgid="13540" source="Barn_interior.tsx"/>
 <tileset firstgid="13820" source="Exterior_tiles.tsx"/>
 <tileset firstgid="14156" source="Interior_walls_floor.tsx"/>
 <tileset firstgid="14256" source="piles.tsx"/>
 <tileset firstgid="14292" source="Exterior_objects.tsx"/>
 <tileset firstgid="14565" source="Exterior_objetcts2.tsx"/>
 <tileset firstgid="15105" source="boat.tsx"/>
 <tileset firstgid="16161" source="Small_boat2.tsx"/>
 <tileset firstgid="16377" source="Plants2.tsx"/>
 <layer id="164" name="water" width="46" height="32">
  <data encoding="csv">
   <chunk x="-16" y="-16" width="16" height="16">
1,1,1,1,1,1,1,1,1,1,1,1,1,1,1,1,
1,1,1,1,1,1,1,1,1,1,1,1,1,1,1,1,
1,1,1,1,1,1,1,1,1,1,1,1,1,1,1,1,
1,1,1,1,1,1,1,1,1,1,1,1,1,1,1,1,
1,1,1,1,1,1,1,1,1,1,1,1,1,1,1,1,
1,1,1,1,1,1,1,1,1,1,1,1,1,1,1,1,
1,1,1,1,1,1,1,1,1,1,1,1,1,1,1,1,
1,1,1,1,1,1,1,1,1,1,1,1,1,1,1,1,
1,1,1,1,1,1,1,1,1,1,1,1,1,1,1,1,
1,1,1,1,1,1,1,1,1,1,1,1,1,1,1,1,
1,1,1,1,1,1,1,1,1,1,1,1,1,1,1,1,
1,1,1,1,1,1,1,1,1,1,1,1,1,1,1,1,
1,1,1,1,1,1,1,1,1,1,1,1,1,1,1,1,
1,1,1,1,1,1,1,1,1,1,1,1,1,1,1,1,
1,1,1,1,1,1,1,1,1,1,1,1,1,1,1,1,
1,1,1,1,1,1,1,1,1,1,1,1,1,1,1,1
</chunk>
   <chunk x="0" y="-16" width="16" height="16">
1,1,1,1,1,1,1,1,1,1,1,1,1,1,1,1,
1,1,1,1,1,1,1,1,1,1,1,1,1,1,1,1,
1,1,1,1,1,1,1,1,1,1,1,1,1,1,1,1,
1,1,1,1,1,1,1,1,1,1,1,1,1,1,1,1,
1,1,1,1,1,1,1,1,1,1,1,1,1,1,1,1,
1,1,1,1,1,1,1,1,1,1,1,1,1,1,1,1,
1,1,1,1,1,1,1,1,1,1,1,1,1,1,1,1,
1,1,1,1,1,1,1,1,1,1,1,1,1,1,1,1,
1,1,1,1,1,1,1,1,1,1,1,1,1,1,1,1,
1,1,1,1,1,1,1,1,1,1,1,1,1,1,1,1,
1,1,1,1,1,1,1,1,1,1,1,1,1,1,1,1,
1,1,1,1,1,1,1,1,1,1,1,1,1,1,1,1,
1,1,1,1,1,1,1,1,1,1,1,1,1,1,1,1,
1,1,1,1,1,1,1,1,1,1,1,1,1,1,1,1,
1,1,1,1,1,1,1,1,1,1,1,1,1,1,1,1,
1,1,1,1,1,1,1,1,1,1,1,1,1,1,1,1
</chunk>
   <chunk x="16" y="-16" width="16" height="16">
1,1,1,1,1,1,1,1,1,1,1,1,1,1,1,1,
1,1,1,1,1,1,1,1,1,1,1,1,1,1,1,1,
1,1,1,1,1,1,1,1,1,1,1,1,1,1,1,1,
1,1,1,1,1,1,1,1,1,1,1,1,1,1,1,1,
1,1,1,1,1,1,1,1,1,1,1,1,1,1,1,1,
1,1,1,1,1,1,1,1,1,1,1,1,1,1,1,1,
1,1,1,1,1,1,1,1,1,1,1,1,1,1,1,1,
1,1,1,1,1,1,1,1,1,1,1,1,1,1,1,1,
1,1,1,1,1,1,1,1,1,1,1,1,1,1,1,1,
1,1,1,1,1,1,1,1,1,1,1,1,1,1,1,1,
1,1,1,1,1,1,1,1,1,1,1,1,1,1,1,1,
1,1,1,1,1,1,1,1,1,1,1,1,1,1,1,1,
1,1,1,1,1,1,1,1,1,1,1,1,1,1,1,1,
1,1,1,1,1,1,1,1,1,1,1,1,1,1,1,1,
1,1,1,1,1,1,1,1,1,1,1,1,1,1,1,1,
1,1,1,1,1,1,1,1,1,1,1,1,1,1,1,1
</chunk>
   <chunk x="32" y="-16" width="16" height="16">
1,1,1,1,1,1,1,1,1,1,1,1,1,1,1,1,
1,1,1,1,1,1,1,1,1,1,1,1,1,1,1,1,
1,1,1,1,1,1,1,1,1,1,1,1,1,1,1,1,
1,1,1,1,1,1,1,1,1,1,1,1,1,1,1,1,
1,1,1,1,1,1,1,1,1,1,1,1,1,1,1,1,
1,1,1,1,1,1,1,1,1,1,1,1,1,1,1,1,
1,1,1,1,1,1,1,1,1,1,1,1,1,1,1,1,
1,1,1,1,1,1,1,1,1,1,1,1,1,1,1,1,
1,1,1,1,1,1,1,1,1,1,1,1,1,1,1,1,
1,1,1,1,1,1,1,1,1,1,1,1,1,1,1,1,
1,1,1,1,1,1,1,1,1,1,1,1,1,1,1,1,
1,1,1,1,1,1,1,1,1,1,1,1,1,1,1,1,
1,1,1,1,1,1,1,1,1,1,1,1,1,1,1,1,
1,1,1,1,1,1,1,1,1,1,1,1,1,1,1,1,
1,1,1,1,1,1,1,1,1,1,1,1,1,1,1,1,
1,1,1,1,1,1,1,1,1,1,1,1,1,1,1,1
</chunk>
   <chunk x="48" y="-16" width="16" height="16">
1,1,1,1,1,1,1,1,1,1,0,0,0,0,0,0,
1,1,1,1,1,1,1,1,1,1,0,0,0,0,0,0,
1,1,1,1,1,1,1,1,1,1,0,0,0,0,0,0,
1,1,1,1,1,1,1,1,1,1,0,0,0,0,0,0,
1,1,1,1,1,1,1,1,1,1,0,0,0,0,0,0,
1,1,1,1,1,1,1,1,1,1,0,0,0,0,0,0,
1,1,1,1,1,1,1,1,1,1,0,0,0,0,0,0,
1,1,1,1,1,1,1,1,1,1,0,0,0,0,0,0,
1,1,1,1,1,1,1,1,1,1,0,0,0,0,0,0,
1,1,1,1,1,1,1,1,1,1,0,0,0,0,0,0,
1,1,1,1,1,1,1,1,1,1,0,0,0,0,0,0,
1,1,1,1,1,1,1,1,1,1,0,0,0,0,0,0,
1,1,1,1,1,1,1,1,1,1,0,0,0,0,0,0,
1,1,1,1,1,1,1,1,1,1,0,0,0,0,0,0,
1,1,1,1,1,1,1,1,1,1,0,0,0,0,0,0,
1,1,1,1,1,1,1,1,1,1,0,0,0,0,0,0
</chunk>
   <chunk x="-16" y="0" width="16" height="16">
1,1,1,1,1,1,1,1,1,1,1,1,1,1,1,1,
1,1,1,1,1,1,1,1,1,1,1,1,1,1,1,1,
1,1,1,1,1,1,1,1,1,1,1,1,1,1,1,1,
1,1,1,1,1,1,1,1,1,1,1,1,1,1,1,1,
1,1,1,1,1,1,1,1,1,1,1,1,1,1,1,1,
1,1,1,1,1,1,1,1,1,1,1,1,1,1,1,1,
1,1,1,1,1,1,1,1,1,1,1,1,1,1,1,1,
1,1,1,1,1,1,1,1,1,1,1,1,1,1,1,1,
1,1,1,1,1,1,1,1,1,1,1,1,1,1,1,1,
1,1,1,1,1,1,1,1,1,1,1,1,1,1,1,1,
1,1,1,1,1,1,1,1,1,1,1,1,1,1,1,1,
1,1,1,1,1,1,1,1,1,1,1,1,1,1,1,1,
1,1,1,1,1,1,1,1,1,1,1,1,1,1,1,1,
1,1,1,1,1,1,1,1,1,1,1,1,1,1,1,1,
1,1,1,1,1,1,1,1,1,1,1,1,1,1,1,1,
1,1,1,1,1,1,1,1,1,1,1,1,1,1,1,1
</chunk>
   <chunk x="0" y="0" width="16" height="16">
1,1,1,1,1,1,1,1,1,1,1,1,1,1,1,1,
1,1,1,1,1,1,1,1,1,1,1,1,1,1,1,1,
1,1,1,1,1,1,1,1,1,1,1,1,1,1,1,1,
1,1,1,1,1,1,1,1,1,1,1,1,1,1,1,1,
1,1,1,1,1,1,1,1,1,1,1,1,1,1,1,1,
1,1,1,1,1,1,1,1,1,1,1,1,1,1,1,1,
1,1,1,1,1,1,1,1,1,1,1,1,1,1,1,1,
1,1,1,1,1,1,1,1,1,1,1,1,1,1,1,1,
1,1,1,1,1,1,1,1,1,1,1,1,1,1,1,1,
1,1,1,1,1,1,1,1,1,1,1,1,1,1,1,1,
1,1,1,1,1,1,1,1,1,1,1,1,1,1,1,1,
1,1,1,1,1,1,1,1,1,1,1,1,1,1,1,1,
1,1,1,1,1,1,1,1,1,1,1,1,1,1,1,1,
1,1,1,1,1,1,1,1,1,1,1,1,1,1,1,1,
1,1,1,1,1,1,1,1,1,1,1,1,1,1,1,1,
1,1,1,1,1,1,1,1,1,1,1,1,1,1,1,1
</chunk>
   <chunk x="16" y="0" width="16" height="16">
1,1,1,1,1,1,1,1,1,1,1,1,1,1,1,1,
1,1,1,1,1,1,1,1,1,1,1,1,1,1,1,1,
1,1,1,1,1,1,1,1,1,1,1,1,1,1,1,1,
1,1,1,1,1,1,1,1,1,1,1,1,1,1,1,1,
1,1,1,1,1,1,1,1,1,1,1,1,1,1,1,1,
1,1,1,1,1,1,1,1,1,1,1,1,1,1,1,1,
1,1,1,1,1,1,1,1,1,1,1,1,1,1,1,1,
1,1,1,1,1,1,1,1,1,1,1,1,1,1,1,1,
1,1,1,1,1,1,1,1,1,1,1,1,1,1,1,1,
1,1,1,1,1,1,1,1,1,1,1,1,1,1,1,1,
1,1,1,1,1,1,1,1,1,1,1,1,1,1,1,1,
1,1,1,1,1,1,1,1,1,1,1,1,1,1,1,1,
1,1,1,1,1,1,1,1,1,1,1,1,1,1,1,1,
1,1,1,1,1,1,1,1,1,1,1,1,1,1,1,1,
1,1,1,1,1,1,1,1,1,1,1,1,1,1,1,1,
1,1,1,1,1,1,1,1,1,1,1,1,1,1,1,1
</chunk>
   <chunk x="32" y="0" width="16" height="16">
1,1,1,1,1,1,1,1,1,1,1,1,1,1,1,1,
1,1,1,1,1,1,1,1,1,1,1,1,1,1,1,1,
1,1,1,1,1,1,1,1,1,1,1,1,1,1,1,1,
1,1,1,1,1,1,1,1,1,1,1,1,1,1,1,1,
1,1,1,1,1,1,1,1,1,1,1,1,1,1,1,1,
1,1,1,1,1,1,1,1,1,1,1,1,1,1,1,1,
1,1,1,1,1,1,1,1,1,1,1,1,1,1,1,1,
1,1,1,1,1,1,1,1,1,1,1,1,1,1,1,1,
1,1,1,1,1,1,1,1,1,1,1,1,1,1,1,1,
1,1,1,1,1,1,1,1,1,1,1,1,1,1,1,1,
1,1,1,1,1,1,1,1,1,1,1,1,1,1,1,1,
1,1,1,1,1,1,1,1,1,1,1,1,1,1,1,1,
1,1,1,1,1,1,1,1,1,1,1,1,1,1,1,1,
1,1,1,1,1,1,1,1,1,1,1,1,1,1,1,1,
1,1,1,1,1,1,1,1,1,1,1,1,1,1,1,1,
1,1,1,1,1,1,1,1,1,1,1,1,1,1,1,1
</chunk>
   <chunk x="48" y="0" width="16" height="16">
1,1,1,1,1,1,1,1,1,1,0,0,0,0,0,0,
1,1,1,1,1,1,1,1,1,1,0,0,0,0,0,0,
1,1,1,1,1,1,1,1,1,1,0,0,0,0,0,0,
1,1,1,1,1,1,1,1,1,1,0,0,0,0,0,0,
1,1,1,1,1,1,1,1,1,1,0,0,0,0,0,0,
1,1,1,1,1,1,1,1,1,1,0,0,0,0,0,0,
1,1,1,1,1,1,1,1,1,1,0,0,0,0,0,0,
1,1,1,1,1,1,1,1,1,1,0,0,0,0,0,0,
1,1,1,1,1,1,1,1,1,1,0,0,0,0,0,0,
1,1,1,1,1,1,1,1,1,1,0,0,0,0,0,0,
1,1,1,1,1,1,1,1,1,1,0,0,0,0,0,0,
1,1,1,1,1,1,1,1,1,1,0,0,0,0,0,0,
1,1,1,1,1,1,1,1,1,1,0,0,0,0,0,0,
1,1,1,1,1,1,1,1,1,1,0,0,0,0,0,0,
1,1,1,1,1,1,1,1,1,1,0,0,0,0,0,0,
1,1,1,1,1,1,1,1,1,1,0,0,0,0,0,0
</chunk>
   <chunk x="-16" y="16" width="16" height="16">
1,1,1,1,1,1,1,1,1,1,1,1,1,1,1,1,
1,1,1,1,1,1,1,1,1,1,1,1,1,1,1,1,
1,1,1,1,1,1,1,1,1,1,1,1,1,1,1,1,
1,1,1,1,1,1,1,1,1,1,1,1,1,1,1,1,
1,1,1,1,1,1,1,1,1,1,1,1,1,1,1,1,
1,1,1,1,1,1,1,1,1,1,1,1,1,1,1,1,
1,1,1,1,1,1,1,1,1,1,1,1,1,1,1,1,
1,1,1,1,1,1,1,1,1,1,1,1,1,1,1,1,
1,1,1,1,1,1,1,1,1,1,1,1,1,1,1,1,
1,1,1,1,1,1,1,1,1,1,1,1,1,1,1,1,
1,1,1,1,1,1,1,1,1,1,1,1,1,1,1,1,
1,1,1,1,1,1,1,1,1,1,1,1,1,1,1,1,
1,1,1,1,1,1,1,1,1,1,1,1,1,1,1,1,
1,1,1,1,1,1,1,1,1,1,1,1,1,1,1,1,
1,1,1,1,1,1,1,1,1,1,1,1,1,1,1,1,
1,1,1,1,1,1,1,1,1,1,1,1,1,1,1,1
</chunk>
   <chunk x="0" y="16" width="16" height="16">
1,1,1,1,1,1,1,1,1,1,1,1,1,1,1,1,
1,1,1,1,1,1,1,1,1,1,1,1,1,1,1,1,
1,1,1,1,1,1,1,1,1,1,1,1,1,1,1,1,
1,1,1,1,1,1,1,1,1,1,1,1,1,1,1,1,
1,1,1,1,1,1,1,1,1,1,1,1,1,1,1,1,
1,1,1,1,1,1,1,1,1,1,1,1,1,1,1,1,
1,1,1,1,1,1,1,1,1,1,1,1,1,1,1,1,
1,1,1,1,1,1,1,1,1,1,1,1,1,1,1,1,
1,1,1,1,1,1,1,1,1,1,1,1,1,1,1,1,
1,1,1,1,1,1,1,1,1,1,1,1,1,1,1,1,
1,1,1,1,1,1,1,1,1,1,1,1,1,1,1,1,
1,1,1,1,1,1,1,1,1,1,1,1,1,1,1,1,
1,1,1,1,1,1,1,1,1,1,1,1,1,1,1,1,
1,1,1,1,1,1,1,1,1,1,1,1,1,1,1,1,
1,1,1,1,1,1,1,1,1,1,1,1,1,1,1,1,
1,1,1,1,1,1,1,1,1,1,1,1,1,1,1,1
</chunk>
   <chunk x="16" y="16" width="16" height="16">
1,1,1,1,1,1,1,1,1,1,1,1,1,1,1,1,
1,1,1,1,1,1,1,1,1,1,1,1,1,1,1,1,
1,1,1,1,1,1,1,1,1,1,1,1,1,1,1,1,
1,1,1,1,1,1,1,1,1,1,1,1,1,1,1,1,
1,1,1,1,1,1,1,1,1,1,1,1,1,1,1,1,
1,1,1,1,1,1,1,1,1,1,1,1,1,1,1,1,
1,1,1,1,1,1,1,1,1,1,1,1,1,1,1,1,
1,1,1,1,1,1,1,1,1,1,1,1,1,1,1,1,
1,1,1,1,1,1,1,1,1,1,1,1,1,1,1,1,
1,1,1,1,1,1,1,1,1,1,1,1,1,1,1,1,
1,1,1,1,1,1,1,1,1,1,1,1,1,1,1,1,
1,1,1,1,1,1,1,1,1,1,1,1,1,1,1,1,
1,1,1,1,1,1,1,1,1,1,1,1,1,1,1,1,
1,1,1,1,1,1,1,1,1,1,1,1,1,1,1,1,
1,1,1,1,1,1,1,1,1,1,1,1,1,1,1,1,
1,1,1,1,1,1,1,1,1,1,1,1,1,1,1,1
</chunk>
   <chunk x="32" y="16" width="16" height="16">
1,1,1,1,1,1,1,1,1,1,1,1,1,1,1,1,
1,1,1,1,1,1,1,1,1,1,1,1,1,1,1,1,
1,1,1,1,1,1,1,1,1,1,1,1,1,1,1,1,
1,1,1,1,1,1,1,1,1,1,1,1,1,1,1,1,
1,1,1,1,1,1,1,1,1,1,1,1,1,1,1,1,
1,1,1,1,1,1,1,1,1,1,1,1,1,1,1,1,
1,1,1,1,1,1,1,1,1,1,1,1,1,1,1,1,
1,1,1,1,1,1,1,1,1,1,1,1,1,1,1,1,
1,1,1,1,1,1,1,1,1,1,1,1,1,1,1,1,
1,1,1,1,1,1,1,1,1,1,1,1,1,1,1,1,
1,1,1,1,1,1,1,1,1,1,1,1,1,1,1,1,
1,1,1,1,1,1,1,1,1,1,1,1,1,1,1,1,
1,1,1,1,1,1,1,1,1,1,1,1,1,1,1,1,
1,1,1,1,1,1,1,1,1,1,1,1,1,1,1,1,
1,1,1,1,1,1,1,1,1,1,1,1,1,1,1,1,
1,1,1,1,1,1,1,1,1,1,1,1,1,1,1,1
</chunk>
   <chunk x="48" y="16" width="16" height="16">
1,1,1,1,1,1,1,1,1,1,0,0,0,0,0,0,
1,1,1,1,1,1,1,1,1,1,0,0,0,0,0,0,
1,1,1,1,1,1,1,1,1,1,0,0,0,0,0,0,
1,1,1,1,1,1,1,1,1,1,0,0,0,0,0,0,
1,1,1,1,1,1,1,1,1,1,0,0,0,0,0,0,
1,1,1,1,1,1,1,1,1,1,0,0,0,0,0,0,
1,1,1,1,1,1,1,1,1,1,0,0,0,0,0,0,
1,1,1,1,1,1,1,1,1,1,0,0,0,0,0,0,
1,1,1,1,1,1,1,1,1,1,0,0,0,0,0,0,
1,1,1,1,1,1,1,1,1,1,0,0,0,0,0,0,
1,1,1,1,1,1,1,1,1,1,0,0,0,0,0,0,
1,1,1,1,1,1,1,1,1,1,0,0,0,0,0,0,
1,1,1,1,1,1,1,1,1,1,0,0,0,0,0,0,
1,1,1,1,1,1,1,1,1,1,0,0,0,0,0,0,
1,1,1,1,1,1,1,1,1,1,0,0,0,0,0,0,
1,1,1,1,1,1,1,1,1,1,0,0,0,0,0,0
</chunk>
   <chunk x="-16" y="32" width="16" height="16">
1,1,1,1,1,1,1,1,1,1,1,1,1,1,1,1,
1,1,1,1,1,1,1,1,1,1,1,1,1,1,1,1,
1,1,1,1,1,1,1,1,1,1,1,1,1,1,1,1,
1,1,1,1,1,1,1,1,1,1,1,1,1,1,1,1,
1,1,1,1,1,1,1,1,1,1,1,1,1,1,1,1,
1,1,1,1,1,1,1,1,1,1,1,1,1,1,1,1,
1,1,1,1,1,1,1,1,1,1,1,1,1,1,1,1,
1,1,1,1,1,1,1,1,1,1,1,1,1,1,1,1,
1,1,1,1,1,1,1,1,1,1,1,1,1,1,1,1,
1,1,1,1,1,1,1,1,1,1,1,1,1,1,1,1,
1,1,1,1,1,1,1,1,1,1,1,1,1,1,1,1,
1,1,1,1,1,1,1,1,1,1,1,1,1,1,1,1,
1,1,1,1,1,1,1,1,1,1,1,1,1,1,1,1,
1,1,1,1,1,1,1,1,1,1,1,1,1,1,1,1,
1,1,1,1,1,1,1,1,1,1,1,1,1,1,1,1,
1,1,1,1,1,1,1,1,1,1,1,1,1,1,1,1
</chunk>
   <chunk x="0" y="32" width="16" height="16">
1,1,1,1,1,1,1,1,1,1,1,1,1,1,1,1,
1,1,1,1,1,1,1,1,1,1,1,1,1,1,1,1,
1,1,1,1,1,1,1,1,1,1,1,1,1,1,1,1,
1,1,1,1,1,1,1,1,1,1,1,1,1,1,1,1,
1,1,1,1,1,1,1,1,1,1,1,1,1,1,1,1,
1,1,1,1,1,1,1,1,1,1,1,1,1,1,1,1,
1,1,1,1,1,1,1,1,1,1,1,1,1,1,1,1,
1,1,1,1,1,1,1,1,1,1,1,1,1,1,1,1,
1,1,1,1,1,1,1,1,1,1,1,1,1,1,1,1,
1,1,1,1,1,1,1,1,1,1,1,1,1,1,1,1,
1,1,1,1,1,1,1,1,1,1,1,1,1,1,1,1,
1,1,1,1,1,1,1,1,1,1,1,1,1,1,1,1,
1,1,1,1,1,1,1,1,1,1,1,1,1,1,1,1,
1,1,1,1,1,1,1,1,1,1,1,1,1,1,1,1,
1,1,1,1,1,1,1,1,1,1,1,1,1,1,1,1,
1,1,1,1,1,1,1,1,1,1,1,1,1,1,1,1
</chunk>
   <chunk x="16" y="32" width="16" height="16">
1,1,1,1,1,1,1,1,1,1,1,1,1,1,1,1,
1,1,1,1,1,1,1,1,1,1,1,1,1,1,1,1,
1,1,1,1,1,1,1,1,1,1,1,1,1,1,1,1,
1,1,1,1,1,1,1,1,1,1,1,1,1,1,1,1,
1,1,1,1,1,1,1,1,1,1,1,1,1,1,1,1,
1,1,1,1,1,1,1,1,1,1,1,1,1,1,1,1,
1,1,1,1,1,1,1,1,1,1,1,1,1,1,1,1,
1,1,1,1,1,1,1,1,1,1,1,1,1,1,1,1,
1,1,1,1,1,1,1,1,1,1,1,1,1,1,1,1,
1,1,1,1,1,1,1,1,1,1,1,1,1,1,1,1,
1,1,1,1,1,1,1,1,1,1,1,1,1,1,1,1,
1,1,1,1,1,1,1,1,1,1,1,1,1,1,1,1,
1,1,1,1,1,1,1,1,1,1,1,1,1,1,1,1,
1,1,1,1,1,1,1,1,1,1,1,1,1,1,1,1,
1,1,1,1,1,1,1,1,1,1,1,1,1,1,1,1,
1,1,1,1,1,1,1,1,1,1,1,1,1,1,1,1
</chunk>
   <chunk x="32" y="32" width="16" height="16">
1,1,1,1,1,1,1,1,1,1,1,1,1,1,1,1,
1,1,1,1,1,1,1,1,1,1,1,1,1,1,1,1,
1,1,1,1,1,1,1,1,1,1,1,1,1,1,1,1,
1,1,1,1,1,1,1,1,1,1,1,1,1,1,1,1,
1,1,1,1,1,1,1,1,1,1,1,1,1,1,1,1,
1,1,1,1,1,1,1,1,1,1,1,1,1,1,1,1,
1,1,1,1,1,1,1,1,1,1,1,1,1,1,1,1,
1,1,1,1,1,1,1,1,1,1,1,1,1,1,1,1,
1,1,1,1,1,1,1,1,1,1,1,1,1,1,1,1,
1,1,1,1,1,1,1,1,1,1,1,1,1,1,1,1,
1,1,1,1,1,1,1,1,1,1,1,1,1,1,1,1,
1,1,1,1,1,1,1,1,1,1,1,1,1,1,1,1,
1,1,1,1,1,1,1,1,1,1,1,1,1,1,1,1,
1,1,1,1,1,1,1,1,1,1,1,1,1,1,1,1,
1,1,1,1,1,1,1,1,1,1,1,1,1,1,1,1,
1,1,1,1,1,1,1,1,1,1,1,1,1,1,1,1
</chunk>
   <chunk x="48" y="32" width="16" height="16">
1,1,1,1,1,1,1,1,1,1,0,0,0,0,0,0,
1,1,1,1,1,1,1,1,1,1,0,0,0,0,0,0,
1,1,1,1,1,1,1,1,1,1,0,0,0,0,0,0,
1,1,1,1,1,1,1,1,1,1,0,0,0,0,0,0,
1,1,1,1,1,1,1,1,1,1,0,0,0,0,0,0,
1,1,1,1,1,1,1,1,1,1,0,0,0,0,0,0,
1,1,1,1,1,1,1,1,1,1,0,0,0,0,0,0,
1,1,1,1,1,1,1,1,1,1,0,0,0,0,0,0,
1,1,1,1,1,1,1,1,1,1,0,0,0,0,0,0,
1,1,1,1,1,1,1,1,1,1,0,0,0,0,0,0,
1,1,1,1,1,1,1,1,1,1,0,0,0,0,0,0,
1,1,1,1,1,1,1,1,1,1,0,0,0,0,0,0,
1,1,1,1,1,1,1,1,1,1,0,0,0,0,0,0,
1,1,1,1,1,1,1,1,1,1,0,0,0,0,0,0,
1,1,1,1,1,1,1,1,1,1,0,0,0,0,0,0,
1,1,1,1,1,1,1,1,1,1,0,0,0,0,0,0
</chunk>
   <chunk x="-16" y="48" width="16" height="16">
1,1,1,1,1,1,1,1,1,1,1,1,1,1,1,1,
1,1,1,1,1,1,1,1,1,1,1,1,1,1,1,1,
1,1,1,1,1,1,1,1,1,1,1,1,1,1,1,1,
1,1,1,1,1,1,1,1,1,1,1,1,1,1,1,1,
1,1,1,1,1,1,1,1,1,1,1,1,1,1,1,1,
1,1,1,1,1,1,1,1,1,1,1,1,1,1,1,1,
1,1,1,1,1,1,1,1,1,1,1,1,1,1,1,1,
1,1,1,1,1,1,1,1,1,1,1,1,1,1,1,1,
1,1,1,1,1,1,1,1,1,1,1,1,1,1,1,1,
1,1,1,1,1,1,1,1,1,1,1,1,1,1,1,1,
1,1,1,1,1,1,1,1,1,1,1,1,1,1,1,1,
1,1,1,1,1,1,1,1,1,1,1,1,1,1,1,1,
1,1,1,1,1,1,1,1,1,1,1,1,1,1,1,1,
1,1,1,1,1,1,1,1,1,1,1,1,1,1,1,1,
1,1,1,1,1,1,1,1,1,1,1,1,1,1,1,1,
1,1,1,1,1,1,1,1,1,1,1,1,1,1,1,1
</chunk>
   <chunk x="0" y="48" width="16" height="16">
1,1,1,1,1,1,1,1,1,1,1,1,1,1,1,1,
1,1,1,1,1,1,1,1,1,1,1,1,1,1,1,1,
1,1,1,1,1,1,1,1,1,1,1,1,1,1,1,1,
1,1,1,1,1,1,1,1,1,1,1,1,1,1,1,1,
1,1,1,1,1,1,1,1,1,1,1,1,1,1,1,1,
1,1,1,1,1,1,1,1,1,1,1,1,1,1,1,1,
1,1,1,1,1,1,1,1,1,1,1,1,1,1,1,1,
1,1,1,1,1,1,1,1,1,1,1,1,1,1,1,1,
1,1,1,1,1,1,1,1,1,1,1,1,1,1,1,1,
1,1,1,1,1,1,1,1,1,1,1,1,1,1,1,1,
1,1,1,1,1,1,1,1,1,1,1,1,1,1,1,1,
1,1,1,1,1,1,1,1,1,1,1,1,1,1,1,1,
1,1,1,1,1,1,1,1,1,1,1,1,1,1,1,1,
1,1,1,1,1,1,1,1,1,1,1,1,1,1,1,1,
1,1,1,1,1,1,1,1,1,1,1,1,1,1,1,1,
1,1,1,1,1,1,1,1,1,1,1,1,1,1,1,1
</chunk>
   <chunk x="16" y="48" width="16" height="16">
1,1,1,1,1,1,1,1,1,1,1,1,1,1,1,1,
1,1,1,1,1,1,1,1,1,1,1,1,1,1,1,1,
1,1,1,1,1,1,1,1,1,1,1,1,1,1,1,1,
1,1,1,1,1,1,1,1,1,1,1,1,1,1,1,1,
1,1,1,1,1,1,1,1,1,1,1,1,1,1,1,1,
1,1,1,1,1,1,1,1,1,1,1,1,1,1,1,1,
1,1,1,1,1,1,1,1,1,1,1,1,1,1,1,1,
1,1,1,1,1,1,1,1,1,1,1,1,1,1,1,1,
1,1,1,1,1,1,1,1,1,1,1,1,1,1,1,1,
1,1,1,1,1,1,1,1,1,1,1,1,1,1,1,1,
1,1,1,1,1,1,1,1,1,1,1,1,1,1,1,1,
1,1,1,1,1,1,1,1,1,1,1,1,1,1,1,1,
1,1,1,1,1,1,1,1,1,1,1,1,1,1,1,1,
1,1,1,1,1,1,1,1,1,1,1,1,1,1,1,1,
1,1,1,1,1,1,1,1,1,1,1,1,1,1,1,1,
1,1,1,1,1,1,1,1,1,1,1,1,1,1,1,1
</chunk>
   <chunk x="32" y="48" width="16" height="16">
1,1,1,1,1,1,1,1,1,1,1,1,1,1,1,1,
1,1,1,1,1,1,1,1,1,1,1,1,1,1,1,1,
1,1,1,1,1,1,1,1,1,1,1,1,1,1,1,1,
1,1,1,1,1,1,1,1,1,1,1,1,1,1,1,1,
1,1,1,1,1,1,1,1,1,1,1,1,1,1,1,1,
1,1,1,1,1,1,1,1,1,1,1,1,1,1,1,1,
1,1,1,1,1,1,1,1,1,1,1,1,1,1,1,1,
1,1,1,1,1,1,1,1,1,1,1,1,1,1,1,1,
1,1,1,1,1,1,1,1,1,1,1,1,1,1,1,1,
1,1,1,1,1,1,1,1,1,1,1,1,1,1,1,1,
1,1,1,1,1,1,1,1,1,1,1,1,1,1,1,1,
1,1,1,1,1,1,1,1,1,1,1,1,1,1,1,1,
1,1,1,1,1,1,1,1,1,1,1,1,1,1,1,1,
1,1,1,1,1,1,1,1,1,1,1,1,1,1,1,1,
1,1,1,1,1,1,1,1,1,1,1,1,1,1,1,1,
1,1,1,1,1,1,1,1,1,1,1,1,1,1,1,1
</chunk>
   <chunk x="48" y="48" width="16" height="16">
1,1,1,1,1,1,1,1,1,1,0,0,0,0,0,0,
1,1,1,1,1,1,1,1,1,1,0,0,0,0,0,0,
1,1,1,1,1,1,1,1,1,1,0,0,0,0,0,0,
1,1,1,1,1,1,1,1,1,1,0,0,0,0,0,0,
1,1,1,1,1,1,1,1,1,1,0,0,0,0,0,0,
1,1,1,1,1,1,1,1,1,1,0,0,0,0,0,0,
1,1,1,1,1,1,1,1,1,1,0,0,0,0,0,0,
1,1,1,1,1,1,1,1,1,1,0,0,0,0,0,0,
1,1,1,1,1,1,1,1,1,1,0,0,0,0,0,0,
1,1,1,1,1,1,1,1,1,1,0,0,0,0,0,0,
1,1,1,1,1,1,1,1,1,1,0,0,0,0,0,0,
1,1,1,1,1,1,1,1,1,1,0,0,0,0,0,0,
1,1,1,1,1,1,1,1,1,1,0,0,0,0,0,0,
1,1,1,1,1,1,1,1,1,1,0,0,0,0,0,0,
1,1,1,1,1,1,1,1,1,1,0,0,0,0,0,0,
1,1,1,1,1,1,1,1,1,1,0,0,0,0,0,0
</chunk>
   <chunk x="16" y="64" width="16" height="16">
0,0,1,1,1,1,1,1,1,1,1,1,1,1,1,1,
0,0,0,0,0,0,0,0,0,0,0,1,1,1,1,1,
0,0,0,0,0,0,0,0,0,0,0,0,0,0,0,0,
0,0,0,0,0,0,0,0,0,0,0,0,0,0,0,0,
0,0,0,0,0,0,0,0,0,0,0,0,0,0,0,0,
0,0,0,0,0,0,0,0,0,0,0,0,0,0,0,0,
0,0,0,0,0,0,0,0,0,0,0,0,0,0,0,0,
0,0,0,0,0,0,0,0,0,0,0,0,0,0,0,0,
0,0,0,0,0,0,0,0,0,0,0,0,0,0,0,0,
0,0,0,0,0,0,0,0,0,0,0,0,0,0,0,0,
0,0,0,0,0,0,0,0,0,0,0,0,0,0,0,0,
0,0,0,0,0,0,0,0,0,0,0,0,0,0,0,0,
0,0,0,0,0,0,0,0,0,0,0,0,0,0,0,0,
0,0,0,0,0,0,0,0,0,0,0,0,0,0,0,0,
0,0,0,0,0,0,0,0,0,0,0,0,0,0,0,0,
0,0,0,0,0,0,0,0,0,0,0,0,0,0,0,0
</chunk>
   <chunk x="32" y="64" width="16" height="16">
1,1,1,1,1,1,1,1,1,1,1,1,1,1,1,1,
1,1,1,1,1,1,1,1,1,1,1,1,1,1,1,1,
0,0,0,0,0,0,0,0,0,0,0,0,0,0,0,0,
0,0,0,0,0,0,0,0,0,0,0,0,0,0,0,0,
0,0,0,0,0,0,0,0,0,0,0,0,0,0,0,0,
0,0,0,0,0,0,0,0,0,0,0,0,0,0,0,0,
0,0,0,0,0,0,0,0,0,0,0,0,0,0,0,0,
0,0,0,0,0,0,0,0,0,0,0,0,0,0,0,0,
0,0,0,0,0,0,0,0,0,0,0,0,0,0,0,0,
0,0,0,0,0,0,0,0,0,0,0,0,0,0,0,0,
0,0,0,0,0,0,0,0,0,0,0,0,0,0,0,0,
0,0,0,0,0,0,0,0,0,0,0,0,0,0,0,0,
0,0,0,0,0,0,0,0,0,0,0,0,0,0,0,0,
0,0,0,0,0,0,0,0,0,0,0,0,0,0,0,0,
0,0,0,0,0,0,0,0,0,0,0,0,0,0,0,0,
0,0,0,0,0,0,0,0,0,0,0,0,0,0,0,0
</chunk>
   <chunk x="48" y="64" width="16" height="16">
1,1,1,1,1,1,1,1,1,1,0,0,0,0,0,0,
1,1,1,1,1,1,1,1,1,1,0,0,0,0,0,0,
0,0,0,0,0,0,0,0,0,0,0,0,0,0,0,0,
0,0,0,0,0,0,0,0,0,0,0,0,0,0,0,0,
0,0,0,0,0,0,0,0,0,0,0,0,0,0,0,0,
0,0,0,0,0,0,0,0,0,0,0,0,0,0,0,0,
0,0,0,0,0,0,0,0,0,0,0,0,0,0,0,0,
0,0,0,0,0,0,0,0,0,0,0,0,0,0,0,0,
0,0,0,0,0,0,0,0,0,0,0,0,0,0,0,0,
0,0,0,0,0,0,0,0,0,0,0,0,0,0,0,0,
0,0,0,0,0,0,0,0,0,0,0,0,0,0,0,0,
0,0,0,0,0,0,0,0,0,0,0,0,0,0,0,0,
0,0,0,0,0,0,0,0,0,0,0,0,0,0,0,0,
0,0,0,0,0,0,0,0,0,0,0,0,0,0,0,0,
0,0,0,0,0,0,0,0,0,0,0,0,0,0,0,0,
0,0,0,0,0,0,0,0,0,0,0,0,0,0,0,0
</chunk>
  </data>
 </layer>
 <layer id="167" name="water_details" width="46" height="32">
  <data encoding="csv">
   <chunk x="-16" y="-16" width="16" height="16">
0,0,0,0,0,0,0,0,0,0,0,0,0,0,0,0,
0,38,39,40,41,42,43,44,45,46,47,48,49,50,51,52,
0,75,76,77,78,79,80,81,82,83,84,85,86,87,88,89,
0,112,113,114,115,116,117,118,119,120,121,122,123,124,125,126,
0,149,150,151,152,153,154,155,156,157,158,159,160,161,162,20,
0,0,211,212,213,214,215,0,211,212,213,214,215,0,0,57,
0,0,248,249,250,251,252,0,248,249,250,251,252,0,0,94,
0,0,0,0,0,0,0,0,0,0,0,0,0,0,0,131,
0,0,0,0,0,0,0,0,0,0,0,0,0,0,0,0,
0,0,0,0,0,0,0,0,0,0,0,0,0,0,0,0,
0,0,0,0,0,0,0,0,0,0,0,0,0,0,0,0,
0,0,0,0,0,0,0,0,0,0,0,0,0,0,0,0,
0,0,0,0,0,0,0,0,0,0,0,0,0,0,0,0,
0,0,0,0,0,0,0,0,0,0,0,0,0,0,0,0,
0,0,0,0,0,0,0,0,0,0,0,0,0,0,0,0,
0,0,0,0,0,0,0,0,0,0,0,0,0,0,0,0
</chunk>
   <chunk x="0" y="-16" width="16" height="16">
0,141,142,143,0,0,0,0,0,0,0,0,0,0,0,0,
53,178,179,180,165,166,167,38,39,40,41,42,43,44,45,46,
90,91,211,212,213,214,215,75,76,77,78,79,80,81,82,83,
127,128,248,249,250,251,252,112,113,114,115,116,117,118,119,120,
21,22,23,24,25,26,27,28,29,30,152,153,211,212,213,214,
58,59,60,61,62,63,64,65,66,67,0,0,248,249,250,251,
95,96,97,98,99,100,101,102,103,104,0,141,142,143,0,0,
132,133,134,135,136,137,138,139,140,141,0,178,179,180,0,0,
0,0,0,0,0,0,0,0,0,0,0,0,0,0,0,0,
0,0,0,0,0,0,0,0,0,0,0,0,0,0,0,0,
0,0,0,0,0,0,0,0,0,0,0,0,0,0,0,0,
0,0,0,0,0,0,0,0,0,0,0,0,0,0,0,0,
0,0,0,0,0,0,0,0,0,0,0,0,0,0,0,0,
0,0,0,0,0,0,0,0,0,0,0,0,0,0,0,0,
0,0,0,0,0,0,0,0,0,0,0,0,0,0,0,0,
0,0,0,0,0,0,0,0,0,0,0,0,0,0,0,0
</chunk>
   <chunk x="16" y="-16" width="16" height="16">
0,0,0,0,0,0,0,0,0,0,0,0,0,0,0,0,
47,48,49,50,51,52,53,54,0,0,20,21,22,23,24,25,
84,85,86,87,88,89,90,91,0,0,57,58,59,60,61,62,
121,122,123,124,125,126,127,128,0,0,94,95,96,97,98,99,
215,159,160,161,211,212,213,214,215,0,131,132,133,134,135,136,
252,0,0,0,248,249,250,251,252,0,0,0,0,0,202,0,
0,0,0,0,0,0,0,0,0,0,0,0,0,0,0,0,
0,0,0,0,0,0,0,0,0,0,0,0,0,0,0,0,
0,0,0,0,0,0,0,0,0,0,0,0,0,0,0,0,
0,0,0,0,0,0,0,0,0,0,0,0,0,0,0,0,
0,0,0,0,0,0,0,0,0,0,0,0,0,0,0,0,
0,0,0,0,0,0,0,0,0,0,0,0,0,0,0,0,
0,0,0,0,0,0,0,0,0,0,0,0,0,0,0,0,
0,0,0,0,0,0,0,0,0,0,0,0,0,0,0,0,
0,0,0,0,0,0,0,0,0,0,0,0,0,0,0,0,
0,0,0,0,0,0,0,0,0,0,0,0,0,0,0,0
</chunk>
   <chunk x="32" y="-16" width="16" height="16">
0,0,0,0,0,0,0,0,0,0,0,0,0,0,0,0,
26,27,28,29,211,212,213,214,215,0,0,0,0,0,0,0,
63,64,65,66,248,249,250,251,252,0,0,0,0,0,0,0,
100,101,102,103,104,0,38,39,40,41,42,43,44,45,46,47,
137,138,139,140,141,172,75,76,77,78,79,80,81,82,83,84,
0,0,0,0,0,0,112,113,114,115,116,117,118,119,120,121,
20,21,22,23,24,25,26,27,28,29,30,154,155,156,157,158,
57,58,59,60,61,62,63,64,65,66,67,0,0,0,211,212,
94,95,96,97,98,99,100,101,102,103,104,0,20,21,248,249,
131,132,133,134,135,136,137,138,139,140,141,0,57,58,59,60,
0,0,0,0,0,0,0,0,141,142,143,0,94,95,96,97,
0,0,0,0,0,0,0,0,178,179,180,0,131,132,133,134,
0,0,0,0,0,0,0,0,0,0,0,114,0,0,0,0,
0,0,0,0,0,0,0,0,0,0,0,0,0,0,0,0,
0,0,0,0,0,0,0,0,0,0,0,0,0,0,0,0,
0,0,0,0,0,0,0,0,0,0,0,0,0,0,0,0
</chunk>
   <chunk x="48" y="-16" width="16" height="16">
0,0,168,169,0,0,0,0,0,0,0,0,0,0,0,0,
0,0,0,0,0,0,0,0,0,0,0,0,0,0,0,0,
0,0,0,0,0,0,0,0,0,0,0,0,0,0,0,0,
48,49,50,51,52,53,54,0,0,0,0,0,0,0,0,0,
85,86,87,88,89,90,91,0,0,0,0,0,0,0,0,0,
122,123,124,125,126,127,128,0,0,0,0,0,0,0,0,0,
159,160,161,162,163,211,212,213,214,215,0,0,0,0,0,0,
213,214,215,0,126,248,249,250,251,252,0,0,0,0,0,0,
250,251,252,27,28,29,30,0,0,0,0,0,0,0,0,0,
61,62,63,64,65,66,67,0,0,0,0,0,0,0,0,0,
98,99,100,101,102,103,104,0,0,0,0,0,0,0,0,0,
135,136,137,138,139,140,141,0,0,0,0,0,0,0,0,0,
0,0,0,0,0,0,125,126,0,0,0,0,0,0,0,0,
0,0,0,211,212,213,214,215,0,0,0,0,0,0,0,0,
0,0,0,248,249,250,251,252,0,0,0,0,0,0,0,0,
0,0,0,0,0,0,0,0,0,0,0,0,0,0,0,0
</chunk>
   <chunk x="-16" y="0" width="16" height="16">
0,0,0,0,0,0,0,0,0,0,0,0,0,0,0,0,
0,0,0,0,0,0,0,0,0,0,0,0,0,0,0,0,
0,0,0,0,0,0,0,0,0,0,0,0,0,0,0,0,
0,0,0,0,0,0,0,0,0,0,0,0,0,0,0,0,
4516,4517,4518,4519,4520,4521,4522,4523,4524,4525,4526,4527,0,0,0,0,
4553,4554,4555,4556,4557,4558,4559,4560,4561,4562,4563,4564,0,0,0,0,
4590,4591,4592,4593,4594,4595,4596,4597,4598,4599,4600,4601,0,0,0,0,
4664,4665,4666,4667,4668,4669,4670,4671,4672,4673,4674,4675,4676,0,0,0,
4701,4702,4703,4704,4705,4706,4707,4708,4709,4710,4711,4712,4713,0,0,0,
4738,4739,4740,4741,4742,4743,4664,4665,4666,4667,4668,4669,4670,4671,4672,4673,
0,0,0,0,0,0,4701,4702,4703,4704,4705,4706,4707,4708,4709,4710,
0,0,0,0,3554,3555,4738,4739,4740,4741,4742,4743,4744,4745,4746,4747,
0,0,0,0,3591,3592,3593,3594,3595,3596,3597,3598,3599,3600,3601,3602,
0,0,0,0,3628,3629,3630,3631,3632,3633,3634,3635,3636,3637,3638,3639,
0,0,0,0,3665,3666,3667,4516,4517,4518,4519,4520,4521,4522,4523,4524,
0,0,0,0,0,0,0,4553,4554,4555,4556,4557,4558,4559,4560,4561
</chunk>
   <chunk x="0" y="0" width="16" height="16">
0,0,0,0,0,0,0,0,0,0,0,0,0,0,0,0,
0,0,0,0,0,0,0,0,0,0,0,0,0,0,0,0,
0,0,0,0,0,0,0,0,0,0,0,0,0,0,0,0,
0,0,0,0,0,0,0,0,0,0,0,0,0,0,0,0,
0,0,0,0,0,0,0,0,0,0,0,0,0,0,0,0,
0,0,0,0,0,0,0,0,0,0,0,0,0,0,0,0,
0,0,0,0,0,0,0,0,0,0,0,0,0,0,0,0,
0,0,0,0,0,0,0,0,0,0,0,0,0,0,0,0,
0,0,0,0,0,0,0,0,0,0,0,0,0,0,0,0,
4674,4675,0,0,0,0,0,0,0,0,0,0,0,0,0,0,
4711,4712,0,0,0,0,0,0,0,0,0,0,0,0,0,0,
4748,4749,4750,0,0,0,0,0,0,0,0,0,0,0,0,0,
2936,0,0,0,0,0,0,0,0,0,0,0,0,0,0,0,
0,0,0,0,0,0,0,0,0,0,0,0,0,0,0,0,
4525,4526,4527,0,0,0,0,0,0,0,0,0,0,0,0,0,
4562,4563,4564,0,0,0,0,0,0,0,0,0,0,0,0,0
</chunk>
   <chunk x="16" y="0" width="16" height="16">
0,0,0,0,0,0,0,0,0,0,0,0,0,0,0,0,
0,0,0,0,0,0,0,0,0,0,0,0,0,0,0,0,
0,0,0,0,0,0,0,0,0,0,0,0,0,0,0,0,
0,0,0,0,0,0,0,0,0,0,0,0,0,0,0,0,
0,0,0,0,0,0,0,0,3210,3211,3212,3213,0,0,0,0,
0,0,0,0,0,0,0,0,3247,3248,3249,3250,0,0,0,0,
0,0,0,0,0,0,0,0,0,0,0,0,0,0,0,0,
0,0,0,0,0,0,0,0,0,0,0,0,0,0,0,0,
0,0,0,0,0,0,0,0,0,0,0,0,0,0,0,0,
0,0,0,0,0,0,0,0,0,0,0,0,0,0,0,0,
0,0,0,0,0,0,0,0,0,0,0,0,0,0,0,3064,
0,0,0,0,0,0,0,0,0,0,0,0,0,0,0,0,
0,0,0,0,0,0,0,0,0,0,0,0,0,0,0,0,
0,0,0,0,0,0,0,0,0,0,0,0,0,0,0,0,
0,0,0,0,0,0,0,0,0,0,0,0,0,0,0,0,
0,0,0,0,0,0,0,0,0,0,0,0,0,0,0,0
</chunk>
   <chunk x="32" y="0" width="16" height="16">
0,0,0,0,0,0,0,0,0,0,0,0,0,0,0,0,
0,0,0,0,0,0,0,0,0,0,0,0,0,0,0,0,
0,0,0,0,0,0,0,0,0,0,0,0,0,0,0,0,
0,0,0,0,0,0,0,0,0,0,0,0,0,0,0,0,
0,0,0,0,0,0,0,0,0,0,0,0,0,0,0,0,
0,0,0,0,0,0,0,0,0,0,0,0,0,0,0,0,
0,0,0,0,0,0,0,0,0,0,0,0,0,0,0,0,
0,0,0,0,0,0,0,0,0,0,0,0,0,0,0,0,
0,0,0,0,0,0,0,0,0,0,0,0,0,0,0,0,
0,0,0,0,0,0,3064,3065,3066,0,0,0,0,0,0,0,
3065,3066,2926,2927,2928,2929,2930,2931,2932,2933,2934,2935,2936,0,0,0,
2961,2962,2963,2964,2965,2966,2967,2968,2969,2970,2971,2972,2973,0,0,0,
2998,2999,3000,3001,3002,3003,3004,3005,3006,3007,3008,3009,3010,0,0,0,
0,0,0,0,0,0,0,0,0,0,0,0,0,0,0,0,
0,0,0,0,0,0,0,0,0,0,0,0,0,0,0,0,
0,0,0,0,0,0,0,0,0,0,0,0,0,0,0,0
</chunk>
   <chunk x="-16" y="16" width="16" height="16">
0,0,0,0,0,0,0,4590,4591,4592,4593,4594,4595,4596,4597,4598,
0,0,0,0,0,0,0,0,0,0,0,0,0,0,0,0,
0,0,0,0,0,0,0,0,0,0,0,0,0,0,0,0,
0,0,0,0,0,0,0,0,0,0,0,0,0,0,0,0,
0,0,0,0,0,0,0,0,0,0,0,0,0,0,0,0,
0,0,0,0,0,0,0,0,0,0,0,0,0,0,0,0,
0,0,0,0,0,0,0,0,0,0,0,0,0,0,0,0,
0,0,0,0,0,0,0,0,0,0,0,0,0,0,0,0,
0,0,0,0,0,0,0,0,0,0,0,0,0,0,0,0,
0,0,0,0,0,0,0,0,0,0,0,0,0,0,0,0,
0,0,0,0,0,0,0,0,0,0,0,0,0,0,0,0,
0,0,0,0,0,0,0,0,0,0,0,0,0,0,0,0,
0,0,0,0,0,0,0,0,0,0,0,0,0,0,0,0,
0,0,0,0,0,0,0,0,0,0,0,0,0,0,0,0,
0,0,0,0,0,0,0,0,0,0,0,0,0,0,0,0,
0,0,0,0,0,0,0,0,0,0,0,0,0,0,0,0
</chunk>
   <chunk x="0" y="16" width="16" height="16">
4599,4600,4601,0,0,0,0,0,0,0,0,0,0,0,0,0,
0,0,0,0,0,0,0,0,0,0,0,0,0,0,0,0,
0,0,0,0,0,0,0,0,0,0,0,0,0,0,0,0,
0,0,0,0,0,0,0,0,0,0,0,0,0,0,0,0,
0,0,0,0,0,0,0,0,0,0,0,0,0,0,0,0,
0,0,0,0,0,0,0,0,0,0,0,0,0,0,0,0,
0,0,0,0,0,0,0,0,0,0,0,0,0,0,0,0,
0,0,0,0,0,0,0,0,0,0,0,0,0,0,0,0,
0,0,0,0,0,0,0,0,0,0,0,0,0,0,0,0,
0,0,0,0,0,0,0,0,0,0,0,0,0,0,0,0,
0,0,0,0,0,0,0,0,0,0,0,0,0,0,0,0,
0,0,0,0,0,0,0,0,0,0,0,0,0,0,0,0,
0,0,0,0,0,0,0,0,0,0,0,0,0,0,0,0,
0,0,0,0,0,0,0,0,0,0,0,0,0,0,256,257,
0,0,0,0,0,0,0,0,0,0,0,0,0,0,0,0,
0,0,0,0,0,0,0,0,0,0,0,0,0,0,0,0
</chunk>
   <chunk x="16" y="16" width="16" height="16">
0,0,0,0,0,0,0,0,0,0,0,0,0,0,0,0,
0,0,0,0,0,0,0,0,0,0,0,0,0,0,0,0,
0,0,0,0,0,0,0,0,0,0,0,0,0,0,0,0,
0,0,0,0,0,0,0,0,0,0,0,0,0,0,0,0,
0,0,0,0,0,0,0,0,0,0,0,0,0,0,0,0,
0,0,0,0,0,0,0,0,0,0,0,0,0,0,0,0,
0,0,0,0,0,0,0,0,0,0,0,0,0,0,0,0,
0,0,0,0,0,0,0,0,0,0,0,0,0,0,0,0,
0,0,0,0,0,0,0,0,0,0,0,0,0,0,0,0,
0,0,0,0,0,0,0,187,188,189,190,191,192,193,194,195,
0,0,0,0,0,0,0,224,225,226,227,228,229,230,231,232,
0,0,0,0,0,0,0,261,262,263,264,265,266,267,268,269,
0,0,0,0,0,0,0,0,0,0,0,0,0,0,0,0,
258,0,0,0,0,0,0,0,0,0,0,0,0,0,0,0,
0,0,0,0,0,0,0,0,0,0,0,0,0,0,0,0,
0,0,0,0,0,0,0,0,0,0,0,0,0,0,0,0
</chunk>
   <chunk x="32" y="16" width="16" height="16">
0,0,0,0,0,0,0,0,0,0,0,0,0,0,0,0,
0,0,0,0,0,0,0,0,0,0,0,0,0,0,0,0,
0,0,0,0,0,0,0,0,0,0,0,0,0,0,0,0,
0,0,0,0,0,0,0,0,212,213,214,215,0,0,0,0,
0,0,0,0,0,0,0,0,249,250,251,252,0,0,0,0,
0,0,0,0,0,0,0,0,0,0,0,0,0,0,0,0,
0,0,0,0,0,0,324,325,326,327,328,0,0,0,0,0,
0,0,0,0,0,0,361,362,363,364,365,0,0,0,0,0,
0,0,0,211,212,213,214,215,216,0,0,0,0,0,0,0,
196,197,198,248,249,250,251,252,253,0,0,0,0,0,0,0,
233,234,235,236,0,0,0,0,0,0,0,0,0,0,0,0,
270,271,272,273,0,0,0,0,0,0,0,0,0,0,0,0,
0,0,0,0,0,0,0,0,0,0,0,0,0,0,0,0,
0,0,0,0,0,0,0,0,0,0,0,0,0,0,0,0,
0,0,0,0,0,0,0,0,0,0,0,0,0,0,0,0,
0,0,0,0,0,0,0,0,0,0,0,0,0,0,0,0
</chunk>
   <chunk x="48" y="16" width="16" height="16">
0,0,0,0,0,0,0,0,0,0,0,0,0,0,0,0,
0,0,0,0,39,40,41,42,43,44,0,0,0,0,0,0,
0,0,0,0,76,77,78,79,80,81,0,0,0,0,0,0,
0,0,0,0,113,114,115,116,117,118,0,0,0,0,0,0,
0,0,0,0,0,0,0,0,0,0,0,0,0,0,0,0,
0,0,0,0,0,0,0,0,0,0,0,0,0,0,0,0,
0,0,0,0,0,0,0,0,0,0,0,0,0,0,0,0,
0,0,0,0,0,0,0,0,0,0,0,0,0,0,0,0,
0,0,0,0,0,0,0,0,0,0,0,0,0,0,0,0,
0,0,0,0,0,0,0,0,0,0,0,0,0,0,0,0,
0,0,0,0,0,0,0,0,0,0,0,0,0,0,0,0,
0,0,0,0,0,0,0,0,0,0,0,0,0,0,0,0,
0,0,0,0,0,0,0,0,0,0,0,0,0,0,0,0,
0,0,0,0,0,0,0,0,0,0,0,0,0,0,0,0,
0,0,0,0,0,0,0,0,0,0,0,0,0,0,0,0,
0,0,0,0,0,0,0,0,0,0,0,0,0,0,0,0
</chunk>
   <chunk x="16" y="32" width="16" height="16">
0,0,0,0,0,0,0,0,0,0,0,0,0,0,0,0,
0,0,0,0,0,0,0,0,0,0,0,0,0,0,0,0,
0,0,0,0,0,0,0,0,0,0,0,0,0,0,0,0,
0,0,0,0,0,0,0,0,0,0,0,0,0,0,0,0,
0,0,0,0,0,0,0,0,0,0,0,0,0,0,0,0,
0,0,0,0,0,0,0,0,0,0,0,0,0,0,0,0,
0,0,0,0,0,0,0,0,0,0,0,0,0,0,0,0,
0,0,0,0,0,0,0,0,0,0,0,0,0,0,0,0,
0,0,0,0,0,0,0,0,0,0,0,0,0,0,0,0,
0,0,0,0,0,0,0,0,0,0,0,0,0,0,0,0,
0,0,0,0,0,0,0,0,0,0,0,0,0,0,0,0,
0,0,0,0,0,0,0,0,0,0,0,0,0,0,0,0,
0,0,0,0,0,0,0,0,0,0,0,0,0,0,0,0,
0,0,0,0,0,0,0,0,0,0,0,0,0,0,0,0,
0,0,0,0,0,0,0,0,0,0,0,0,0,0,0,0,
0,0,0,0,0,0,0,0,0,0,0,0,0,0,0,39
</chunk>
   <chunk x="32" y="32" width="16" height="16">
0,0,0,0,0,0,0,0,0,0,0,0,0,0,0,0,
0,0,0,0,0,0,0,0,0,0,0,0,0,0,0,0,
0,0,0,0,0,0,0,0,0,141,142,143,0,0,0,0,
0,0,0,0,0,0,0,0,0,178,179,180,0,0,0,0,
0,0,0,0,0,0,0,0,0,39,40,41,42,43,44,45,
0,0,0,0,0,0,0,0,0,76,77,78,79,80,81,82,
0,0,0,0,0,0,0,0,0,113,114,115,116,117,118,119,
0,0,0,0,0,0,0,0,0,0,0,0,0,0,0,0,
0,0,0,0,0,0,0,0,0,0,0,0,0,0,0,0,
0,0,0,0,0,0,0,0,0,0,0,0,0,0,0,0,
0,0,0,0,0,0,0,0,0,0,0,0,0,0,0,0,
0,0,0,0,0,0,0,0,0,0,0,0,0,0,0,0,
0,0,0,0,2720,2721,2722,2723,2724,2725,0,0,0,0,0,0,
0,0,0,0,2757,2758,2759,2760,2761,2762,0,0,0,0,0,0,
0,0,0,0,0,0,0,0,0,0,0,0,0,0,0,0,
47,41,42,43,44,45,46,47,48,49,50,51,52,0,0,0
</chunk>
   <chunk x="48" y="32" width="16" height="16">
0,0,0,0,0,0,0,0,0,0,0,0,0,0,0,0,
0,0,0,0,0,0,0,0,0,0,0,0,0,0,0,0,
0,0,0,0,0,0,0,0,0,0,0,0,0,0,0,0,
0,0,0,0,0,0,0,0,0,0,0,0,0,0,0,0,
46,47,48,49,50,51,52,0,0,0,0,0,0,0,0,0,
83,84,85,86,87,88,89,0,0,0,0,0,0,0,0,0,
120,121,122,123,124,125,126,0,0,0,0,0,0,0,0,0,
0,0,0,0,0,0,0,0,0,0,0,0,0,0,0,0,
0,0,0,0,0,0,0,0,0,0,0,0,0,0,0,0,
0,0,0,0,0,0,0,0,0,0,0,0,0,0,0,0,
0,0,0,0,0,0,0,0,0,0,0,0,0,0,0,0,
0,0,0,0,0,0,0,0,0,0,0,0,0,0,0,0,
0,0,0,0,2720,2721,2722,2723,2724,2725,0,0,0,0,0,0,
0,0,0,0,2757,2758,2759,2760,2761,2762,0,0,0,0,0,0,
0,0,0,0,0,0,0,0,0,0,0,0,0,0,0,0,
0,0,0,0,0,0,0,0,0,0,0,0,0,0,0,0
</chunk>
   <chunk x="-16" y="48" width="16" height="16">
0,0,0,0,0,0,0,0,0,0,0,0,0,0,0,0,
0,0,0,0,0,0,0,0,0,0,0,0,0,0,0,0,
0,0,0,0,0,0,0,0,0,0,0,0,0,0,0,0,
0,0,0,0,0,0,0,0,0,0,0,0,0,0,0,0,
0,0,0,0,0,0,0,0,0,0,0,0,0,0,0,0,
0,0,0,0,0,0,0,0,0,0,0,0,0,0,0,0,
0,0,0,0,0,0,0,0,0,0,0,0,0,0,0,0,
0,0,0,0,0,0,0,0,0,0,0,0,0,0,0,0,
0,0,0,0,0,0,0,0,0,0,0,0,0,0,0,0,
0,0,0,0,0,0,0,0,0,0,0,0,0,0,0,0,
0,0,0,0,0,0,0,0,0,0,0,0,0,0,0,0,
0,0,256,257,279,256,257,282,283,284,0,0,0,0,0,0,
0,0,314,315,316,317,318,319,320,321,0,0,0,0,0,0,
0,0,351,324,325,326,327,356,357,358,0,0,0,0,0,0,
0,0,0,361,362,363,364,0,0,0,0,0,0,0,0,0,
0,0,0,0,0,0,0,0,0,0,0,0,0,0,0,0
</chunk>
   <chunk x="16" y="48" width="16" height="16">
0,0,0,0,0,0,0,0,0,0,0,0,0,0,0,76,
0,0,0,0,0,0,0,0,0,0,0,0,0,0,0,113,
0,0,0,0,0,0,0,0,0,0,0,0,0,0,0,0,
0,0,0,0,0,0,0,0,0,0,0,0,0,0,0,0,
0,0,0,0,0,0,0,0,0,0,0,0,0,0,0,0,
0,0,0,0,0,0,0,0,0,0,0,0,0,0,0,0,
0,0,0,0,0,0,0,0,0,0,0,0,0,0,0,0,
0,0,0,0,0,0,0,0,0,0,0,0,0,0,0,0,
0,0,0,0,0,0,0,0,0,0,0,0,0,0,0,0,
0,0,0,0,0,0,0,0,0,0,0,0,0,0,0,0,
0,0,0,0,0,0,0,0,0,0,0,0,0,0,0,0,
0,0,0,0,0,0,0,0,0,0,0,0,0,0,0,0,
0,0,0,0,0,0,0,0,0,0,0,0,0,0,0,0,
0,0,0,0,0,0,0,0,0,0,0,0,0,0,0,0,
0,0,0,0,0,0,0,0,0,0,0,0,0,0,0,0,
0,0,0,0,0,0,0,0,0,0,0,0,0,0,0,0
</chunk>
   <chunk x="32" y="48" width="16" height="16">
77,78,79,80,81,82,83,84,85,86,87,88,89,0,0,0,
114,115,116,117,118,119,120,121,122,123,124,125,126,0,0,0,
0,0,0,0,0,0,0,0,0,0,0,0,0,0,0,0,
0,0,0,0,0,0,0,2720,2721,2722,2723,2724,2725,0,0,0,
0,0,0,0,0,0,0,2757,2758,2759,2760,2761,2762,0,0,0,
0,0,0,0,0,0,0,0,0,0,0,0,0,0,0,0,
0,0,0,0,0,0,0,0,0,0,0,0,0,0,0,0,
0,0,0,0,0,0,0,0,0,0,0,0,0,0,0,0,
0,0,0,0,0,0,0,0,0,0,0,0,0,0,0,0,
0,0,0,0,0,0,0,0,0,0,0,0,0,0,0,0,
0,0,0,0,0,0,0,0,0,0,0,0,0,0,0,0,
0,0,0,0,0,0,0,0,0,0,0,0,0,0,0,0,
0,0,0,0,0,0,0,0,0,0,0,0,0,0,0,0,
0,0,0,0,0,0,0,0,0,0,0,0,0,0,2720,2721,
0,0,0,0,0,0,0,0,0,0,0,0,0,0,2757,2758,
0,0,0,0,0,0,0,0,0,0,0,0,0,0,0,0
</chunk>
   <chunk x="48" y="48" width="16" height="16">
0,0,0,0,0,0,0,0,0,0,0,0,0,0,0,0,
0,0,0,0,0,0,0,0,0,0,0,0,0,0,0,0,
0,0,0,0,0,0,0,0,0,0,0,0,0,0,0,0,
0,0,0,0,0,0,0,0,0,0,0,0,0,0,0,0,
0,0,0,0,0,0,0,0,0,0,0,0,0,0,0,0,
0,0,0,39,40,41,42,43,44,45,0,0,0,0,0,0,
0,0,0,76,77,78,79,80,81,82,0,0,0,0,0,0,
0,0,0,113,114,115,116,117,118,119,0,0,0,0,0,0,
0,0,0,0,0,0,0,0,0,0,0,0,0,0,0,0,
0,0,0,0,0,0,0,0,0,0,0,0,0,0,0,0,
0,0,0,0,0,0,0,0,0,0,0,0,0,0,0,0,
0,0,0,0,0,0,0,0,0,0,0,0,0,0,0,0,
0,0,0,0,0,0,0,0,0,0,0,0,0,0,0,0,
2722,2723,2724,2725,0,0,0,2720,2721,2722,0,0,0,0,0,0,
2759,2760,2761,2762,0,0,0,2757,2758,2759,0,0,0,0,0,0,
0,0,0,0,0,0,0,0,0,0,0,0,0,0,0,0
</chunk>
   <chunk x="64" y="48" width="16" height="16">
0,0,0,0,0,0,0,0,0,0,0,0,0,0,0,0,
0,0,0,0,0,0,0,0,0,0,0,0,0,0,0,0,
0,0,0,0,0,0,0,0,0,0,0,0,0,0,0,0,
0,0,0,0,0,0,0,0,0,0,0,0,0,0,0,0,
0,0,0,0,0,0,0,0,0,0,0,0,0,0,0,0,
0,0,0,0,0,0,0,0,0,0,0,0,0,0,0,0,
0,0,0,0,0,0,0,0,0,0,0,0,0,0,0,0,
126,0,0,0,0,0,0,0,0,0,0,0,0,0,0,0,
0,0,0,0,0,0,0,0,0,0,0,0,0,0,0,0,
0,0,0,0,0,0,0,0,0,0,0,0,0,0,0,0,
0,0,0,0,0,0,0,0,0,0,0,0,0,0,0,0,
0,0,0,0,0,0,0,0,0,0,0,0,0,0,0,0,
0,0,0,0,0,0,0,0,0,0,0,0,0,0,0,0,
0,0,0,0,0,0,0,0,0,0,0,0,0,0,0,0,
0,0,0,0,0,0,0,0,0,0,0,0,0,0,0,0,
0,0,0,0,0,0,0,0,0,0,0,0,0,0,0,0
</chunk>
  </data>
 </layer>
 <layer id="171" name="water_details2" width="46" height="32">
  <data encoding="csv">
   <chunk x="0" y="0" width="16" height="16">
0,0,0,0,0,0,0,0,0,0,0,0,0,0,0,0,
0,0,0,0,0,0,0,0,0,0,0,0,0,0,0,0,
0,0,0,0,0,0,0,0,0,0,0,0,0,0,0,0,
0,0,0,0,0,0,0,0,0,0,0,0,0,0,0,0,
0,0,0,0,0,0,0,0,0,0,0,0,0,0,0,0,
0,0,0,0,0,0,0,0,0,0,0,0,0,0,0,0,
0,0,0,0,0,0,0,0,0,0,0,0,0,0,0,0,
0,0,0,0,0,0,0,0,0,0,0,0,0,0,0,0,
0,0,0,0,0,0,0,0,0,0,0,0,0,0,0,0,
0,0,0,0,0,0,0,0,0,0,0,0,0,0,0,0,
0,0,0,0,0,0,0,0,0,0,0,0,0,0,0,0,
0,0,0,0,0,0,0,0,0,0,0,3210,3211,3212,3213,3214,
0,0,3073,3074,3075,3076,3077,3078,3079,3080,3081,3247,3248,3249,3250,3251,
0,0,3110,3111,3112,3113,3114,3115,3116,3117,3118,3119,3120,3121,3122,0,
0,0,3147,3148,3149,3150,3151,3152,3153,3154,3155,3156,3157,3158,3159,0,
0,0,0,0,0,0,0,0,0,0,0,0,0,0,0,0
</chunk>
   <chunk x="16" y="0" width="16" height="16">
0,0,0,0,0,0,0,0,0,0,0,0,0,0,0,0,
0,0,0,0,0,0,0,0,0,0,0,0,0,0,0,0,
0,0,0,0,0,0,0,0,0,0,0,0,0,0,0,0,
0,0,0,0,0,0,0,0,0,0,0,0,0,0,0,0,
0,0,0,0,0,0,0,0,0,0,0,0,0,0,0,0,
0,0,0,0,0,0,0,0,0,0,0,0,0,0,0,0,
0,0,0,0,0,0,0,0,0,0,0,0,0,0,0,0,
0,0,0,0,0,0,0,0,2924,2925,2926,2927,2928,2929,2930,2931,
0,0,0,0,0,0,0,0,2961,2962,2963,2964,2965,2966,2967,2968,
0,0,0,0,0,0,0,0,2998,2999,3000,3001,3002,3003,3004,3005,
0,0,0,0,0,0,0,0,0,0,0,0,0,0,0,0,
0,0,0,0,0,0,0,0,0,0,0,0,0,0,0,0,
0,0,0,0,0,0,0,0,0,0,0,0,0,0,0,0,
0,0,3097,3098,3099,3100,3101,3102,0,0,0,0,0,0,0,0,
0,0,3134,3135,3136,3137,3138,3139,0,0,0,0,0,0,0,0,
0,0,0,0,0,0,0,0,0,0,0,0,0,0,0,0
</chunk>
   <chunk x="32" y="0" width="16" height="16">
0,0,0,0,0,0,0,0,0,0,0,0,0,0,0,0,
0,0,0,0,0,0,0,0,0,0,0,0,0,0,0,0,
0,0,0,0,0,0,0,0,0,0,0,0,0,0,0,0,
0,0,0,0,0,0,0,0,0,0,0,0,0,0,0,0,
0,0,0,0,0,0,0,0,0,0,0,0,0,0,0,0,
0,0,0,0,0,0,0,0,0,0,0,0,0,0,0,0,
0,0,0,0,0,0,0,0,0,0,0,0,0,0,0,0,
2932,2933,2934,2935,2936,2937,2938,2939,2940,0,0,0,0,0,0,0,
2969,2970,2971,2972,2973,2974,2975,2976,2977,0,0,0,0,0,0,0,
3006,3007,3008,3009,3010,3011,3012,3013,3014,0,0,0,0,0,0,0,
0,0,0,0,0,0,0,0,0,0,0,0,0,0,0,0,
0,0,0,0,0,0,0,0,0,0,0,0,0,0,0,0,
0,0,0,0,0,0,0,0,0,0,0,0,0,0,0,0,
0,0,0,0,0,0,0,0,0,0,0,0,0,0,0,0,
0,0,0,0,0,0,0,0,0,0,0,0,0,0,0,0,
0,0,0,0,0,0,0,0,0,0,0,0,0,0,0,0
</chunk>
   <chunk x="0" y="16" width="16" height="16">
0,0,2993,2994,2995,2996,0,0,0,0,0,0,0,0,0,0,
0,0,3093,3094,3095,0,3088,3089,3090,3091,3092,3093,3094,3095,0,0,
0,0,3130,3131,3132,0,3125,3126,3127,3128,3129,3130,3131,3132,0,0,
0,0,0,0,0,0,0,0,0,0,0,0,0,0,0,0,
0,0,0,0,0,0,0,0,0,0,0,0,0,0,0,0,
0,0,0,0,0,0,0,0,0,0,0,0,0,0,0,0,
0,0,0,0,0,0,0,0,0,0,0,0,0,0,0,0,
0,0,0,0,0,0,0,0,0,0,0,0,0,0,0,0,
0,0,0,0,0,0,0,0,0,0,0,0,0,0,0,0,
0,0,0,0,0,0,0,0,0,0,0,0,0,0,0,0,
0,0,0,0,0,0,0,0,0,0,0,0,0,0,0,0,
0,0,0,0,0,0,0,0,0,0,0,0,0,0,0,324,
0,0,0,0,0,0,0,0,0,0,0,0,0,0,0,361,
0,0,0,0,0,0,0,0,0,0,0,0,0,0,0,0,
0,0,0,0,0,0,0,0,0,0,0,0,0,0,0,0,
0,0,0,0,0,0,0,0,0,0,0,0,0,0,0,0
</chunk>
   <chunk x="16" y="16" width="16" height="16">
0,0,0,0,0,0,0,0,0,0,0,0,0,0,0,0,
0,0,0,0,0,0,0,0,0,0,0,0,0,0,0,0,
0,0,0,0,0,0,0,0,0,0,0,0,0,0,0,0,
0,0,0,0,0,0,0,0,0,0,0,0,0,0,0,0,
0,0,0,0,0,0,0,0,0,0,0,0,0,0,0,0,
0,0,0,0,0,0,0,0,0,0,0,0,0,0,0,0,
0,0,0,0,0,0,0,0,0,0,0,0,0,0,0,0,
0,0,0,0,0,0,0,0,0,0,0,0,0,0,0,0,
0,0,0,0,0,0,0,0,0,0,0,0,0,0,0,0,
0,0,0,202,203,204,205,206,207,208,209,210,0,0,0,0,
0,0,0,239,240,241,242,243,244,245,246,247,0,0,0,0,
325,326,327,328,277,278,279,280,281,282,283,284,0,0,0,0,
362,363,364,365,0,0,0,0,0,0,0,0,0,0,0,0,
0,0,0,0,0,0,0,0,0,0,0,0,0,0,0,0,
0,0,0,0,0,0,0,0,0,0,0,0,0,0,0,0,
0,0,0,0,0,0,0,0,0,0,0,0,0,0,0,0
</chunk>
   <chunk x="32" y="16" width="16" height="16">
0,0,0,0,0,0,0,0,0,0,0,0,0,0,0,0,
0,0,0,0,0,0,0,0,0,0,0,0,0,0,0,0,
0,0,0,0,0,0,0,0,0,0,0,256,257,0,0,0,
0,0,0,0,0,0,0,0,0,0,0,0,0,0,0,0,
0,0,0,0,0,0,0,0,0,0,0,0,0,0,0,0,
0,0,0,0,0,0,0,0,0,256,257,258,0,0,0,0,
0,0,0,0,0,0,0,0,0,0,0,0,0,0,0,0,
0,0,0,0,0,0,0,0,0,0,0,0,0,0,0,0,
0,0,0,0,0,0,0,0,0,0,0,0,0,0,0,0,
0,324,325,326,327,328,0,0,0,0,0,0,0,0,0,0,
0,361,362,363,364,365,0,0,0,0,0,0,0,0,0,0,
0,0,0,0,0,0,0,0,0,0,0,0,757,758,759,760,
0,0,0,0,0,0,0,0,0,0,0,0,794,795,796,797,
0,0,0,0,0,0,0,0,0,0,0,0,831,832,833,834,
0,0,0,0,0,0,0,0,0,0,757,758,759,760,761,762,
0,0,0,0,0,0,0,0,0,0,794,795,796,797,798,799
</chunk>
   <chunk x="48" y="16" width="16" height="16">
0,0,0,0,0,0,0,0,0,0,0,0,0,0,0,0,
0,0,0,0,0,0,0,0,0,0,0,0,0,0,0,0,
0,0,0,0,0,0,0,0,0,0,0,0,0,0,0,0,
0,0,0,0,0,0,0,0,0,0,0,0,0,0,0,0,
0,0,0,0,0,0,0,0,0,0,0,0,0,0,0,0,
0,757,758,759,760,761,762,763,764,0,0,0,0,0,0,0,
0,794,795,796,797,798,799,800,801,0,0,0,0,0,0,0,
0,831,832,833,834,835,836,837,838,0,0,0,0,0,0,0,
0,794,795,796,797,798,799,800,801,0,0,0,0,0,0,0,
0,831,832,833,834,835,836,837,838,0,0,0,0,0,0,0,
0,0,0,0,0,0,0,0,0,0,0,0,0,0,0,0,
761,762,763,764,0,0,0,0,0,0,0,0,0,0,0,0,
798,799,800,801,0,0,0,0,0,0,0,0,0,0,0,0,
835,836,837,838,0,0,0,0,0,0,0,0,0,0,0,0,
763,764,0,0,0,0,0,0,0,0,0,0,0,0,0,0,
800,801,0,0,0,0,0,0,0,0,0,0,0,0,0,0
</chunk>
   <chunk x="32" y="32" width="16" height="16">
0,0,0,0,0,0,0,0,0,0,831,832,833,834,835,836,
0,0,0,0,0,0,0,0,0,0,0,0,0,0,0,0,
0,0,0,0,0,0,0,0,0,0,0,0,0,0,0,0,
0,0,0,0,0,0,0,0,0,0,0,0,0,0,0,0,
0,0,0,0,0,0,0,0,0,0,0,0,0,0,0,0,
0,0,0,0,0,0,0,0,0,0,0,0,0,0,0,0,
0,0,0,0,0,0,0,0,0,0,0,0,0,0,0,0,
0,0,0,0,0,0,0,0,0,0,0,0,0,0,0,0,
0,0,0,0,0,0,0,0,0,0,0,0,0,0,0,0,
0,0,0,0,0,0,0,0,0,0,0,0,0,0,0,0,
0,0,0,0,0,0,0,0,0,0,0,0,0,0,0,0,
0,0,0,0,0,0,0,0,0,0,0,0,0,0,0,0,
0,0,0,0,0,0,0,0,0,0,0,0,0,0,0,0,
0,0,0,0,0,0,0,0,0,0,0,0,0,0,0,0,
0,0,0,0,0,0,0,0,0,0,0,0,0,0,0,0,
0,0,0,0,0,0,0,0,0,0,0,0,0,0,0,0
</chunk>
   <chunk x="48" y="32" width="16" height="16">
837,838,0,0,0,0,0,0,0,0,0,0,0,0,0,0,
0,0,0,0,0,0,0,0,0,0,0,0,0,0,0,0,
0,0,0,0,0,0,0,0,0,0,0,0,0,0,0,0,
0,0,0,0,0,0,0,0,0,0,0,0,0,0,0,0,
0,0,0,0,0,0,0,0,0,0,0,0,0,0,0,0,
0,0,0,0,0,0,0,0,0,0,0,0,0,0,0,0,
0,0,0,0,0,0,0,0,0,0,0,0,0,0,0,0,
0,0,0,0,0,0,0,0,0,0,0,0,0,0,0,0,
0,0,0,0,0,0,0,0,0,0,0,0,0,0,0,0,
0,0,0,0,0,0,0,0,0,0,0,0,0,0,0,0,
0,0,0,0,0,0,0,0,0,0,0,0,0,0,0,0,
0,0,0,0,0,0,0,0,0,0,0,0,0,0,0,0,
0,0,0,0,0,0,0,0,0,0,0,0,0,0,0,0,
0,0,0,0,0,0,0,0,0,0,0,0,0,0,0,0,
0,0,0,0,0,0,0,0,0,0,0,0,0,0,0,0,
0,0,0,0,0,0,0,0,0,0,0,0,0,0,0,0
</chunk>
  </data>
 </layer>
 <layer id="168" name="ground1" width="46" height="32">
  <data encoding="csv">
   <chunk x="-16" y="-16" width="16" height="16">
0,0,0,0,0,0,0,0,0,0,0,0,0,0,0,0,
0,0,0,0,0,0,0,0,0,0,0,0,0,0,0,0,
0,0,0,0,0,0,0,0,0,0,0,0,0,0,0,0,
0,0,0,0,0,0,0,0,0,0,0,0,0,0,0,0,
0,0,0,0,0,0,0,0,0,0,0,0,0,0,0,0,
0,0,0,0,0,0,0,0,0,0,0,0,0,0,0,0,
0,0,0,0,0,0,0,0,0,0,0,0,0,0,0,0,
0,0,0,0,0,0,0,0,0,0,0,0,0,0,0,0,
0,0,0,0,0,0,0,0,0,0,0,0,0,0,0,0,
0,0,0,0,0,0,0,0,0,0,0,0,0,6314,6314,6314,
0,0,0,0,0,0,0,0,0,0,0,0,0,6314,6314,6314,
0,0,0,0,0,0,0,0,0,0,0,0,0,6314,6314,6314,
0,0,0,0,0,0,0,0,0,0,0,0,0,6314,6314,6314,
0,0,0,0,0,0,0,0,0,0,0,0,0,0,0,0,
0,0,0,0,0,0,0,0,0,0,0,0,0,0,0,0,
0,0,0,0,0,0,0,0,0,0,0,0,0,0,0,0
</chunk>
   <chunk x="0" y="-16" width="16" height="16">
0,0,0,0,0,0,0,0,0,0,0,0,0,0,0,0,
0,0,0,0,0,0,0,0,0,0,0,0,0,0,0,0,
0,0,0,0,0,0,0,0,0,0,0,0,0,0,0,0,
0,0,0,0,0,0,0,0,0,0,0,0,0,0,0,0,
0,0,0,0,0,0,0,0,0,0,0,0,0,0,0,0,
0,0,0,0,0,0,0,0,0,0,0,0,0,0,0,0,
0,0,0,0,0,0,0,0,0,0,0,0,0,0,0,0,
0,0,0,0,0,0,0,0,0,0,0,0,0,0,0,0,
0,0,0,0,0,0,0,0,0,0,0,0,0,0,0,0,
6314,6314,0,0,0,0,0,0,0,0,0,0,0,0,0,6314,
6314,6314,6314,0,0,0,0,0,0,0,0,0,0,0,0,6314,
6314,6314,6314,6314,0,0,0,0,0,0,0,0,0,0,0,6314,
6314,6314,6314,6314,6314,0,0,0,0,0,0,0,0,0,0,0,
6314,6314,6314,6314,6314,0,0,0,0,0,0,0,0,0,0,0,
6314,6314,6314,6314,0,0,0,0,0,0,0,0,0,0,0,0,
6314,6314,6314,6314,0,0,0,0,0,0,0,0,0,0,0,0
</chunk>
   <chunk x="16" y="-16" width="16" height="16">
0,0,0,0,0,0,0,0,0,0,0,0,0,0,0,0,
0,0,0,0,0,0,0,0,0,0,0,0,0,0,0,0,
0,0,0,0,0,0,0,0,0,0,0,0,0,0,0,0,
0,0,0,0,0,0,0,0,0,0,0,0,0,0,0,0,
0,0,0,0,0,0,0,0,0,0,0,0,0,0,0,0,
0,0,0,0,0,0,0,0,0,0,0,0,0,0,0,0,
0,0,0,0,0,0,0,0,0,0,0,0,0,0,0,0,
0,0,0,0,0,0,0,0,0,6314,0,0,0,0,0,0,
0,0,0,0,0,6314,6314,6314,6314,6314,6314,6314,6314,0,0,0,
0,0,0,0,0,6314,6314,6314,6314,6314,6314,6314,6314,0,0,0,
6314,0,0,0,6314,6314,6314,6314,6314,6314,6314,6314,6314,0,0,0,
6314,6314,6314,6314,6314,6314,6314,6314,6314,6314,6314,6314,6314,0,0,0,
6314,6314,6314,6314,6314,6314,6314,6314,6314,6314,6314,6314,0,0,0,0,
0,6314,6314,6314,6314,6314,6314,6314,6314,6314,6314,6314,0,0,0,0,
0,0,6314,6314,6314,6314,6314,6314,6314,6314,6314,0,0,0,0,0,
0,0,6314,6314,6314,6314,6314,6314,6314,0,0,0,0,0,0,0
</chunk>
   <chunk x="0" y="0" width="16" height="16">
0,6314,6314,6314,0,0,0,0,0,0,0,0,0,0,0,0,
0,0,7665,7665,7665,7665,0,0,0,0,0,0,0,0,0,0,
0,0,0,7665,7665,7665,7665,0,0,0,0,0,0,0,0,0,
0,0,0,0,0,7665,7665,7665,0,0,0,0,0,0,0,0,
0,0,0,0,0,0,0,0,0,0,0,6314,6314,6314,6314,6314,
0,0,0,0,0,0,0,0,0,0,6314,6314,6314,6314,6314,6314,
0,0,0,0,0,0,0,0,0,6314,6314,6314,6314,0,0,0,
0,0,0,0,0,0,0,0,0,6314,6314,6314,0,0,0,0,
0,0,0,0,0,0,0,0,6314,6314,6314,6314,0,0,0,0,
0,0,0,0,0,0,0,6314,6314,6314,6314,0,0,0,0,0,
0,0,0,0,0,0,0,6314,6314,6314,0,0,0,0,0,0,
0,0,0,0,0,0,0,6314,6314,0,0,0,0,0,0,0,
0,0,0,0,0,0,0,6314,6314,0,0,0,0,0,0,0,
0,0,0,0,0,0,0,0,0,0,0,0,0,0,0,0,
0,0,0,0,0,0,0,0,0,0,0,0,0,0,0,0,
0,0,0,0,0,0,0,0,0,0,0,0,0,0,0,0
</chunk>
   <chunk x="16" y="0" width="16" height="16">
0,0,0,6314,6314,6314,6314,0,0,0,0,0,0,0,0,0,
0,0,6314,6314,6314,6314,0,0,0,0,0,0,0,0,6314,6314,
0,6314,6314,6314,6314,0,0,6314,6314,6314,6314,6314,6314,6314,6314,6314,
6314,6314,6314,6314,6314,0,6314,6314,6314,0,0,0,0,0,6314,6314,
6314,6314,6314,6314,0,0,6314,6314,0,0,0,0,0,0,6314,6314,
6314,6314,6314,0,0,0,6314,6314,0,0,0,0,0,6314,6314,6314,
0,6314,0,0,0,0,6314,6314,6314,6314,6314,6314,6314,6314,6314,6314,
0,0,0,0,0,0,6314,6314,6314,6314,6314,6314,6314,6314,6314,6314,
0,0,0,0,0,0,6314,6314,6314,6314,6314,6314,6314,6314,6314,6314,
0,0,0,0,0,0,6314,6314,6314,6314,6314,6314,0,0,6314,0,
0,0,0,0,0,0,6314,6314,0,0,6314,6314,0,0,6314,0,
0,0,0,0,0,0,0,0,6314,6314,6314,6314,6314,6314,6314,6314,
0,0,0,0,0,0,6314,6314,6314,6314,6314,6314,6314,6314,6314,6314,
0,0,0,0,0,0,0,0,0,0,0,0,6314,6314,6314,6314,
0,0,0,0,0,0,0,0,0,0,6314,6314,6314,6314,6314,6314,
0,0,0,0,0,0,6314,6314,6314,6314,6314,6314,6314,6314,6314,6314
</chunk>
   <chunk x="32" y="0" width="16" height="16">
0,0,0,0,0,0,0,0,0,0,0,0,0,0,0,0,
6314,6314,6314,6314,6314,6314,6314,6314,6314,6314,6314,6314,6314,0,0,0,
6314,6314,6314,6314,6109,6314,6314,6314,6314,6314,6314,6314,6314,0,0,0,
6314,6314,6314,6314,6314,6314,6314,6314,6314,6314,6314,6314,6314,0,0,0,
6314,6314,6314,6314,6314,6314,6314,6314,6314,6314,6314,6314,6314,0,0,6314,
6314,6314,6314,6314,6314,6314,6314,6314,6314,6314,6314,6314,6314,0,0,6314,
6314,6314,6314,6314,6314,6314,6314,6314,6314,6314,6314,6314,6314,0,0,6314,
6314,6314,0,0,0,0,0,6314,6314,6314,6314,6314,6314,6314,6314,6314,
6314,0,0,0,0,0,0,0,6314,6314,6314,6314,6314,6314,6314,6314,
0,0,0,0,0,0,0,0,0,6314,6314,6314,6314,6314,6314,6314,
0,0,0,0,0,0,0,0,0,6314,6314,6314,6314,6314,6314,6314,
0,0,0,0,0,0,0,0,6314,6314,6314,6314,6314,6314,6314,6314,
0,0,0,0,0,0,0,6314,6314,6314,6314,6314,6314,6314,0,6314,
6314,6314,6314,6314,6314,6314,0,0,6314,0,0,6314,0,0,0,6314,
6314,6314,6314,6314,6314,0,0,0,6314,0,0,0,0,0,0,6314,
6314,6314,0,0,0,0,0,0,0,0,0,0,0,0,6314,6314
</chunk>
   <chunk x="48" y="0" width="16" height="16">
0,0,0,0,0,0,0,0,0,0,0,0,0,0,0,0,
0,0,0,0,0,0,0,0,0,0,0,0,0,0,0,0,
0,0,0,0,0,0,0,0,0,0,0,0,0,0,0,0,
0,0,0,0,0,0,0,0,0,0,0,0,0,0,0,0,
6314,6314,0,0,0,0,0,0,0,0,0,0,0,0,0,0,
6314,6314,0,0,0,0,0,0,0,0,0,0,0,0,0,0,
6314,6314,0,0,0,0,0,0,0,0,0,0,0,0,0,0,
6314,6314,0,0,0,0,0,0,0,0,0,0,0,0,0,0,
6314,6314,0,0,0,0,0,0,0,0,0,0,0,0,0,0,
6314,6314,0,0,0,0,0,0,0,0,0,0,0,0,0,0,
6314,6314,0,0,0,0,0,0,0,0,0,0,0,0,0,0,
6314,6314,0,0,0,0,0,0,0,0,0,0,0,0,0,0,
6314,6314,0,0,0,0,0,0,0,0,0,0,0,0,0,0,
6314,6314,0,0,0,0,0,0,0,0,0,0,0,0,0,0,
6314,6314,0,0,0,0,0,0,0,0,0,0,0,0,0,0,
6314,6314,0,0,0,0,0,0,0,0,0,0,0,0,0,0
</chunk>
   <chunk x="0" y="16" width="16" height="16">
0,0,0,0,0,0,0,0,0,0,0,0,0,0,0,0,
0,0,0,0,0,0,0,0,0,0,7665,0,0,0,0,6314,
0,0,0,0,0,0,0,0,6314,7665,7665,0,0,0,6314,6314,
0,0,0,0,0,7665,7665,6314,6314,6314,6314,6314,6314,6314,6314,6314,
0,0,0,0,0,0,7665,7665,7665,6314,6314,6314,6314,6314,6314,6314,
0,0,0,0,0,0,0,0,0,0,0,0,0,6314,6314,7665,
0,0,0,0,0,0,0,0,0,0,0,0,0,0,7665,7665,
0,0,0,0,0,0,0,0,0,0,0,0,0,0,7665,7665,
0,0,0,0,0,0,0,0,0,0,0,0,0,0,0,7665,
0,0,0,0,0,0,0,0,0,0,0,0,0,0,0,0,
0,0,0,0,0,0,0,0,0,0,0,0,0,0,0,0,
0,0,0,0,0,0,0,0,0,0,0,0,0,0,0,0,
0,0,0,0,0,0,0,0,0,0,0,0,0,0,0,0,
0,0,0,0,0,0,0,0,0,0,0,0,0,0,0,0,
0,0,0,0,0,0,0,0,0,0,0,0,0,0,0,0,
0,0,0,0,0,0,0,0,0,0,0,0,0,0,0,0
</chunk>
   <chunk x="16" y="16" width="16" height="16">
0,0,0,0,0,0,6314,6314,6314,6314,6314,6314,6314,6314,6314,6314,
6314,6314,0,6314,6314,6314,6314,6314,6314,6314,6314,6314,6314,6314,6314,0,
6314,6314,6314,6314,6314,6314,6314,6314,6314,6314,6314,6314,6314,6314,0,0,
6314,6314,6314,6314,6314,6314,6314,6314,6314,6314,6314,6314,0,0,0,0,
6314,6314,6314,6314,6314,6314,6314,6314,6314,0,0,0,0,0,0,0,
6314,6314,6314,6314,6314,6314,6314,0,0,0,0,0,0,0,0,0,
6314,6314,6314,6314,0,0,0,0,0,0,0,0,0,0,0,0,
7665,7665,7665,7665,0,0,0,0,0,0,0,0,0,0,0,0,
7665,7665,7665,7665,0,0,0,0,0,0,0,0,0,0,0,0,
0,0,7665,7665,0,0,0,0,0,0,0,0,0,0,0,0,
0,0,0,0,0,0,0,0,0,0,0,0,0,0,0,0,
0,0,0,0,0,0,0,0,0,0,0,0,0,0,0,0,
0,0,7665,7665,7665,0,0,0,0,0,0,0,0,0,0,0,
0,0,0,7665,7665,7665,0,0,0,0,0,0,0,0,6314,6314,
0,0,0,6314,6314,6314,6314,0,0,0,0,6314,6314,6314,6314,6314,
0,0,0,6314,6314,6314,6314,6314,6314,6314,6314,6314,6314,6314,6314,6314
</chunk>
   <chunk x="32" y="16" width="16" height="16">
0,0,0,0,0,0,0,0,0,0,0,0,0,0,0,0,
0,0,0,0,0,0,0,0,0,0,0,0,0,0,0,0,
0,0,0,0,0,0,0,0,0,0,0,0,0,0,0,0,
0,0,0,0,0,0,0,0,0,0,0,0,0,0,0,0,
0,0,0,0,0,0,0,0,0,0,0,0,0,0,0,6314,
0,0,0,0,0,0,0,0,0,0,0,0,0,0,6314,6314,
0,0,0,0,0,0,0,0,0,0,0,0,0,6314,6314,6314,
0,0,0,0,0,0,0,0,0,0,0,0,6314,6314,6314,6314,
0,0,0,0,0,0,0,0,0,6314,6314,6314,6314,6314,6314,6314,
0,0,0,0,0,0,0,0,6314,6314,6314,6314,6314,6314,0,6314,
0,0,0,0,0,0,6314,6314,6314,6314,6314,6314,6314,0,0,0,
0,0,0,0,0,6314,6314,6314,6314,6314,6314,6314,6314,0,0,0,
0,0,0,6314,6314,6314,6314,6314,6314,6314,6314,6314,0,0,0,0,
6314,6314,6314,6314,6314,6314,6314,6314,6314,6314,6314,0,0,0,0,0,
6314,6314,6314,6314,6314,6314,6314,6314,6314,0,0,0,0,0,0,0,
6314,6314,6314,6314,6314,6314,6314,6314,0,0,0,0,0,0,0,0
</chunk>
   <chunk x="48" y="16" width="16" height="16">
0,0,0,0,0,0,0,0,0,0,0,0,0,0,0,0,
0,0,0,0,0,0,0,0,0,0,0,0,0,0,0,0,
0,0,0,0,0,0,0,0,0,0,0,0,0,0,0,0,
0,0,0,0,0,0,0,0,0,0,0,0,0,0,0,0,
6314,6314,0,0,0,0,0,0,0,0,0,0,0,0,0,0,
6314,6314,0,0,0,0,0,0,0,0,0,0,0,0,0,0,
6314,6314,0,0,0,0,0,0,0,0,0,0,0,0,0,0,
6314,6314,5969,0,0,0,0,0,0,0,0,0,0,0,0,0,
6314,6314,0,0,0,0,0,0,0,0,0,0,0,0,0,0,
6314,0,0,0,0,0,0,0,0,0,0,0,0,0,0,0,
0,0,0,0,0,0,0,0,0,0,0,0,0,0,0,0,
0,0,0,0,0,0,0,0,0,0,0,0,0,0,0,0,
0,0,0,0,0,0,0,0,0,0,0,0,0,0,0,0,
0,0,0,0,0,0,0,0,0,0,0,0,0,0,0,0,
0,0,0,0,0,0,0,0,0,0,0,0,0,0,0,0,
0,0,0,0,0,0,0,0,0,0,0,0,0,0,0,0
</chunk>
   <chunk x="-16" y="32" width="16" height="16">
0,0,0,0,0,0,0,0,0,0,0,0,0,0,0,0,
0,0,0,0,0,0,0,0,0,0,0,0,0,0,0,0,
0,0,0,0,0,0,0,0,0,0,0,0,0,0,0,0,
0,0,0,0,0,0,0,0,0,0,0,0,0,0,0,6314,
0,0,0,0,0,0,0,0,0,0,0,0,0,0,0,6314,
0,0,0,0,0,0,0,0,0,0,0,0,0,0,0,6314,
0,6314,6314,6314,6314,6314,6314,6314,6314,6314,6314,6314,6314,6314,6314,6314,
6314,6314,6314,6314,6314,6314,6314,6314,6314,6314,6314,6314,6314,6314,6314,6314,
6314,6314,6314,6314,6314,6314,6314,6314,6314,6314,6314,6314,6314,6314,6314,6314,
6314,6314,6314,6314,6314,6314,6314,6314,6314,6314,6314,6314,6314,6314,6314,6314,
6314,6314,6314,6314,6314,6314,6314,6314,6314,6314,6314,6314,6314,6314,6314,6314,
6314,6314,6314,6314,6314,6314,6314,6314,6314,6314,6314,6314,6314,6314,6314,6314,
6314,6314,6314,6314,6314,6314,6314,6314,6314,6314,6314,6314,6314,6314,6314,6314,
6314,6314,6314,6314,6314,6314,6314,6314,6314,6314,6314,6314,6314,6314,6314,6314,
6314,6314,6314,6314,6314,6314,6314,6314,6314,6314,6314,6314,6314,6314,6314,6314,
6314,6314,6314,6314,6314,6314,6314,6314,6314,6314,6314,6314,6314,6314,6314,6314
</chunk>
   <chunk x="0" y="32" width="16" height="16">
0,0,0,0,0,0,0,0,0,0,0,0,0,0,0,0,
0,0,0,0,0,0,0,0,0,0,0,0,0,0,0,0,
0,0,0,0,0,0,0,0,0,0,0,0,0,0,0,0,
6314,6314,6314,6314,0,0,0,0,0,0,0,0,0,0,0,0,
6314,6314,6314,0,0,0,0,0,0,6314,6314,0,0,0,0,0,
6314,6314,6314,0,0,0,0,0,0,6314,6314,0,0,0,0,6314,
6314,6314,6314,6314,6314,6314,6314,6314,6314,6314,6314,6314,6314,6314,6314,6314,
6314,6314,6314,6314,6314,6314,6314,6314,6314,6314,6314,6314,6314,6314,6314,6314,
6314,6314,6314,6314,6314,6314,6314,6314,6314,6314,6314,6314,6314,6314,6314,6314,
6314,6314,6314,6314,6314,6314,6314,6314,6314,6314,6314,6314,6314,6314,6314,6314,
6314,6314,6314,6314,6314,6314,6314,6314,6314,6314,6314,6314,6314,6314,6314,6314,
6314,6314,6314,6314,6314,6314,6314,6314,6314,6314,6314,6314,6314,6314,6314,6314,
6314,6314,6314,6314,6314,6314,6314,6314,6314,6314,6314,6314,6314,6314,6314,6314,
6314,6314,6314,6314,6314,6314,6314,6314,6314,6314,6314,6314,6314,6314,6314,6314,
6314,6314,6314,6314,6314,6314,6314,6314,6314,6314,6314,6314,6314,6314,6314,6314,
6314,6314,6314,6314,6314,6314,6314,6314,6314,6314,6314,6314,6314,6314,6314,6314
</chunk>
   <chunk x="16" y="32" width="16" height="16">
0,0,0,0,6314,6314,6314,6314,6314,6314,6314,6314,6314,6314,6314,6314,
0,0,0,0,0,6314,6314,6314,6314,6314,6314,6314,6314,6314,6314,6314,
0,0,0,0,6314,6314,6314,6314,6314,6314,6314,6314,6314,6314,6314,6314,
0,0,6314,6314,6314,6314,6314,6314,6314,6314,6314,6314,6314,6314,6314,6314,
0,6314,6314,6314,6314,6314,6314,6314,6314,6314,6314,6314,6314,6314,6314,6314,
6314,6314,6314,6314,6314,6314,6314,6314,6314,6314,6314,6314,6314,6314,6314,6314,
6314,6314,6314,6314,6314,6314,6314,6314,6314,6314,6314,6314,6314,6314,6314,6314,
6314,6314,6314,6314,6314,6314,6314,6314,6314,6314,6314,6314,6314,6314,6314,6314,
6314,6314,6314,6314,6314,6314,6314,6314,6314,6314,6314,6314,6314,6314,6314,6314,
6314,6314,6314,6314,6314,6314,6314,6314,6314,6314,6314,6314,6314,6314,6314,6314,
6314,6314,6314,6314,6314,6314,6314,6314,6314,6314,6314,6314,6314,6314,6314,6314,
6314,6314,6314,6314,6314,6314,6314,6314,6314,6314,6314,6314,6314,6314,6314,6314,
6314,6314,6314,6314,6314,6314,6314,6314,6314,6314,6314,6314,6314,6314,6314,6314,
6314,6314,6314,6314,6314,6314,6314,6314,6314,6314,6314,6314,6314,6314,6314,6314,
6314,6314,6314,6314,6314,6314,6314,6314,6314,6314,6314,6314,6314,6314,6314,0,
6314,6314,6314,6314,6314,6314,6314,6314,6314,6314,6314,6314,6314,6314,0,0
</chunk>
   <chunk x="32" y="32" width="16" height="16">
6314,6314,6314,6314,6314,6314,6314,6314,0,0,0,0,0,0,0,0,
6314,6314,6314,6314,6314,6314,6314,6314,0,0,0,0,0,0,0,0,
6314,6314,6314,6314,0,0,0,0,0,0,0,0,0,0,0,0,
6314,6314,6314,6314,0,0,0,0,0,0,0,0,0,0,0,0,
6314,6314,6314,6314,0,0,0,0,0,0,0,0,0,0,0,0,
6314,6314,6314,6314,0,0,0,0,0,0,0,0,0,0,0,0,
6314,6314,6314,0,0,0,0,0,0,0,0,0,0,0,0,0,
6314,6314,6314,0,0,0,0,0,0,0,0,0,0,0,0,0,
6314,6314,6314,0,0,0,0,0,0,0,0,0,0,0,0,0,
6314,6314,6314,0,0,0,0,0,0,0,0,0,0,0,0,0,
6314,6314,6314,0,0,0,0,0,0,0,0,0,0,0,0,0,
6314,0,0,0,0,0,0,0,0,0,0,0,0,0,0,0,
6314,0,0,0,0,0,0,0,0,0,0,0,0,0,0,0,
0,0,0,0,0,0,0,0,0,0,0,0,0,0,0,0,
0,0,0,0,0,0,0,0,0,0,0,0,0,0,0,0,
0,0,0,0,0,0,0,0,0,0,0,0,0,0,0,0
</chunk>
   <chunk x="-16" y="48" width="16" height="16">
6314,6314,6314,6314,6314,6314,6314,6314,6314,6314,6314,6314,6314,6314,6314,6314,
6314,6314,6314,6314,6314,6314,6314,6314,6314,6314,6314,6314,6314,6314,6314,6314,
6314,6314,6314,6314,6314,6314,6314,6314,6314,6314,6314,6314,6314,6314,6314,6314,
0,6314,6314,6314,6314,6314,6314,6314,6314,6314,6314,6314,6314,6314,6314,6314,
6314,6314,6314,6314,6314,6314,6314,6314,6314,6314,6314,6314,6314,6314,6314,6314,
6314,6314,6314,6314,6314,6314,6314,6314,6314,6314,6314,6314,6314,6314,6314,6314,
0,6314,6314,6314,6314,6314,6314,6314,6314,6314,6314,6314,6314,6314,6314,6314,
0,6314,6314,6314,6314,6314,6314,6314,6314,6314,6314,6314,6314,6314,6314,6314,
0,6314,6314,6314,6314,6314,6314,6314,6314,6314,6314,6314,6314,6314,6314,6314,
0,6314,6314,6314,6314,6314,6314,6314,6314,6314,6314,6314,6314,6314,6314,6314,
6314,6314,6314,6314,0,6314,6314,6314,6314,6314,6314,6314,6314,6314,6314,0,
6314,6314,0,0,0,0,0,0,0,6314,6314,6314,6314,6314,6314,6314,
6314,6314,0,0,0,0,0,0,0,6314,6314,6314,6314,0,0,0,
0,6314,0,0,0,0,0,0,0,0,0,0,0,0,0,0,
0,0,0,0,0,0,0,0,0,0,0,0,0,0,0,0,
0,0,0,0,0,0,0,0,0,0,0,0,0,0,0,0
</chunk>
   <chunk x="0" y="48" width="16" height="16">
6314,6314,6314,6314,6314,6314,6314,6314,6314,6314,6314,6314,6314,6314,6314,6314,
6314,6314,6314,6314,6314,6314,6314,6314,6314,6314,6314,6314,6314,6314,6314,6314,
6314,6314,6314,6314,6314,6314,6314,6314,6314,6314,6314,6314,6314,6314,6314,6314,
6314,6314,6314,6314,6314,6314,6314,6314,6314,6314,6314,6314,6314,6314,6314,6314,
6314,6314,6314,6314,6314,6314,6314,6314,6314,6314,6314,6314,6314,6314,6314,6314,
6314,6314,6314,6314,6314,6314,6314,6314,6314,6314,6314,6314,6314,6314,6314,6314,
6314,6314,6314,6314,6314,6314,6314,6314,6314,6314,6314,6314,6314,6314,6314,6314,
6314,6314,6314,6314,6314,6314,6314,6314,6314,6314,6314,6314,0,0,0,0,
6314,6314,6314,6314,6314,6314,6314,6314,6314,6314,6314,6314,0,0,0,0,
6314,6314,6314,6314,6314,6314,6314,6314,6314,6314,6314,6314,0,0,0,0,
0,6314,0,0,6314,6314,6314,0,0,0,0,0,0,0,0,0,
6314,6314,0,0,0,6314,6314,6314,0,0,0,0,0,0,0,0,
0,0,0,0,0,6314,6314,6314,0,0,0,0,0,0,0,0,
0,0,0,0,0,6314,6314,0,0,0,0,0,0,0,0,0,
0,0,0,0,0,0,0,0,0,0,0,0,0,0,0,0,
0,0,0,0,0,0,0,0,0,0,0,0,0,0,0,6314
</chunk>
   <chunk x="16" y="48" width="16" height="16">
6314,6314,6314,6314,6314,6314,6314,6314,6314,6314,6314,6314,6314,0,0,0,
6314,6314,6314,6314,6314,6314,6314,6314,6314,6314,6314,6314,6314,0,0,0,
6314,6314,6314,6314,6314,6314,6314,6314,6314,6314,6314,0,0,0,0,0,
6314,6314,6314,6314,6314,6314,6314,6314,6314,6314,6314,0,0,0,0,0,
6314,6314,6314,6314,6314,6314,6314,6314,6314,6314,6314,0,0,0,0,0,
6314,6314,6314,6314,6314,6314,6314,6314,6314,6314,6314,0,0,0,0,0,
0,0,0,6314,6314,6314,6314,6314,6314,6314,6314,0,0,0,0,0,
0,0,0,6314,6314,6314,6314,6314,6314,6314,6314,0,0,0,0,0,
0,0,0,6314,6314,6314,6314,6314,6314,6314,6314,0,0,0,0,0,
0,0,0,6314,6314,6314,6314,6314,6314,6314,6314,0,0,0,0,0,
0,0,0,6314,6314,6314,6314,6314,6314,6314,6314,0,0,0,0,0,
0,0,0,6314,6314,6314,6314,6314,6314,6314,6314,0,0,0,0,0,
0,0,0,6314,6314,6314,6314,6314,6314,6314,6314,0,0,0,0,0,
0,0,0,6314,6314,6314,6314,6314,6314,6314,6314,0,0,0,0,0,
0,6314,6314,6314,6314,6314,6314,6314,6314,6314,6314,0,0,0,0,0,
6314,6314,6314,6314,6314,6314,6314,6314,6314,6314,6314,0,0,0,0,0
</chunk>
   <chunk x="16" y="64" width="16" height="16">
6314,6314,6314,6314,6314,6314,6314,6314,6314,6314,6314,0,0,0,0,0,
0,0,0,0,0,0,0,0,0,0,6314,0,0,0,0,0,
0,0,0,0,0,0,0,0,0,0,0,0,0,0,0,0,
0,0,0,0,0,0,0,0,0,0,0,0,0,0,0,0,
0,0,0,0,0,0,0,0,0,0,0,0,0,0,0,0,
0,0,0,0,0,0,0,0,0,0,0,0,0,0,0,0,
0,0,0,0,0,0,0,0,0,0,0,0,0,0,0,0,
0,0,0,0,0,0,0,0,0,0,0,0,0,0,0,0,
0,0,0,0,0,0,0,0,0,0,0,0,0,0,0,0,
0,0,0,0,0,0,0,0,0,0,0,0,0,0,0,0,
0,0,0,0,0,0,0,0,0,0,0,0,0,0,0,0,
0,0,0,0,0,0,0,0,0,0,0,0,0,0,0,0,
0,0,0,0,0,0,0,0,0,0,0,0,0,0,0,0,
0,0,0,0,0,0,0,0,0,0,0,0,0,0,0,0,
0,0,0,0,0,0,0,0,0,0,0,0,0,0,0,0,
0,0,0,0,0,0,0,0,0,0,0,0,0,0,0,0
</chunk>
  </data>
 </layer>
 <layer id="213" name="ground3" width="46" height="32">
  <data encoding="csv">
   <chunk x="-16" y="32" width="16" height="16">
0,0,0,0,0,0,0,0,0,0,0,0,0,0,0,0,
0,0,0,0,0,0,0,0,0,0,0,0,0,0,0,0,
0,0,0,0,0,0,0,0,0,0,0,0,0,0,0,0,
0,0,0,0,0,0,0,0,0,0,0,0,0,0,0,0,
0,0,0,0,0,0,0,0,0,0,0,0,0,0,0,0,
0,0,0,0,0,0,0,0,0,0,0,0,0,0,0,0,
10891,10891,10891,10891,10891,10891,10891,10891,10891,10891,10891,10891,10891,10891,10891,10891,
10891,10891,10891,10891,10891,10891,10891,10891,10891,10891,10891,10891,10891,10891,10891,10891,
10891,10891,10891,10891,10891,10891,10891,10891,10891,10891,10891,10891,10891,10891,10891,10891,
10891,10891,10891,10891,10891,10891,10891,10891,10891,10891,10891,10891,10891,10891,10891,10891,
10891,10891,10891,10891,10891,10891,10891,10891,10891,10891,10891,10891,10891,10891,10891,10891,
10891,10891,10891,10891,10891,10891,10891,10891,10891,10891,10891,10891,10891,10891,10891,10891,
10891,10891,10891,10891,10891,10891,10891,10891,10891,10891,10891,10891,10891,10891,10891,10891,
10891,10891,10891,10891,10891,10891,10891,10891,10891,10891,10891,10891,10891,10891,10891,10891,
10891,10891,10891,10891,10891,10891,10891,10891,10891,10891,10891,10891,10891,10891,10891,10891,
10891,10891,10891,10891,10891,10891,0,10891,10891,10891,10891,10891,10891,10891,10891,10891
</chunk>
   <chunk x="0" y="32" width="16" height="16">
0,0,0,0,0,0,0,0,0,0,0,0,0,0,0,0,
0,0,0,0,0,0,0,0,0,0,0,0,0,0,0,0,
0,0,0,0,0,0,0,0,0,0,0,0,0,0,0,0,
0,0,0,0,0,0,0,0,0,0,0,0,0,0,0,0,
0,0,0,0,0,0,0,0,0,0,0,0,0,0,0,0,
0,0,0,0,0,0,0,0,0,0,0,0,0,0,0,0,
10891,10891,10891,10891,10891,10891,10891,10891,10891,10891,10891,10891,10891,10891,10891,10891,
10891,10891,10891,10891,10891,10891,10891,10891,10891,10891,10891,10891,10891,10891,10891,10891,
10891,10891,10891,10891,10891,10891,10891,10891,10891,10891,10891,10891,10891,10891,10891,10891,
10891,10891,10891,10891,10891,10891,10891,10891,10891,10891,10891,10891,10891,10891,10891,10891,
10891,10891,10891,10891,10891,10891,10891,10891,10891,10891,10891,10891,10891,10891,10891,10891,
10891,10891,10891,10891,10891,10891,10891,10891,10891,10891,10891,10891,10891,10891,10891,10891,
10891,10891,10891,10891,10891,10891,10891,10891,10891,10891,10891,10891,10891,10891,10891,10891,
10891,10891,10891,10891,10891,10891,10891,10891,10891,10891,10891,10891,10891,10891,10891,10891,
10891,10891,10891,10891,10891,10891,10891,10891,10891,10891,10891,10891,10891,10891,10891,10891,
10891,10891,10891,10891,10891,10891,10891,10891,10891,10891,10891,10891,10891,10891,10891,10891
</chunk>
   <chunk x="16" y="32" width="16" height="16">
0,0,0,0,0,0,0,0,0,0,0,0,0,0,0,0,
0,0,0,0,0,0,0,0,0,0,0,0,0,0,0,0,
0,0,0,0,0,0,0,0,0,0,0,0,0,0,0,0,
0,0,0,0,0,0,0,0,0,0,0,0,0,0,0,0,
0,0,0,0,0,0,0,0,0,0,0,0,0,0,0,0,
0,0,0,0,0,0,0,0,0,0,0,0,0,0,0,0,
10891,10891,10891,10891,0,0,0,0,0,0,0,0,0,0,0,0,
10891,10891,10891,10891,0,0,0,0,10891,10891,0,0,0,0,0,0,
10891,10891,10891,10891,0,0,0,0,10891,10891,10891,0,0,0,0,0,
10891,10891,10891,10891,0,0,0,0,10891,10891,0,0,0,0,0,0,
10891,10891,10891,10891,0,0,0,0,10891,10891,0,0,0,0,0,0,
10891,10891,10891,10891,0,0,0,0,0,10891,0,0,0,0,0,0,
10891,10891,10891,10891,0,0,0,0,0,0,0,0,0,0,0,0,
10891,10891,10891,10891,0,0,0,0,0,0,0,0,0,0,0,0,
10891,10891,10891,10891,0,0,0,0,0,0,0,0,0,0,0,0,
10891,10891,10891,10891,0,0,0,0,0,0,0,0,0,0,0,0
</chunk>
   <chunk x="-16" y="48" width="16" height="16">
10891,10891,10891,10891,10891,10891,0,0,10891,10891,10891,10891,10891,10891,10891,10891,
10891,10891,10891,10891,10891,10891,0,0,0,10891,10891,10891,10891,10891,10891,10891,
10891,10891,10891,10891,10891,10891,0,0,0,10891,10891,10891,10891,10891,10891,10891,
10891,10891,10891,10891,10891,10891,0,0,0,10891,10891,10891,10891,10891,10891,10891,
10891,10891,10891,10891,10891,10891,10891,10891,10891,10891,10891,10891,10891,10891,10891,10891,
10891,10891,10891,10891,10891,10891,10891,10891,10891,10891,10891,10891,10891,10891,10891,10891,
10891,10891,10891,10891,10891,10891,10891,10891,10891,10891,10891,10891,10891,10891,10891,10891,
10891,10891,10891,10891,10891,10891,10891,10891,10891,10891,10891,10891,10891,10891,10891,10891,
10891,10891,10891,10891,10891,10891,10891,10891,10891,10891,10891,10891,10891,10891,10891,10891,
10891,10891,10891,10891,10891,10891,10891,10891,10891,10891,10891,10891,10891,10891,10891,10891,
10891,10891,10891,10891,10891,10891,10891,10891,10891,10891,10891,10891,10891,10891,10891,10891,
10891,10891,0,0,0,0,0,0,0,10891,10891,10891,10891,10891,10891,10891,
10891,10891,0,0,0,0,0,0,0,10891,10891,10891,10891,10891,10891,10891,
10891,10891,0,0,0,0,0,0,0,10891,10891,10891,10891,10891,10891,10891,
10891,10891,0,0,0,0,0,0,0,10891,10891,10891,10891,10891,10891,10891,
10891,10891,10891,10891,10891,10891,10891,10891,10891,10891,10891,10891,10891,10891,10891,10891
</chunk>
   <chunk x="0" y="48" width="16" height="16">
10891,10891,10891,10891,10891,10891,10891,10891,10891,10891,10891,10891,10891,10891,10891,10891,
10891,10891,10891,10891,10891,10891,10891,10891,10891,10891,10891,10891,10891,10891,10891,10891,
10891,10891,10891,10891,10891,10891,10891,10891,10891,10891,10891,10891,10891,10891,10891,10891,
10891,10891,10891,10891,10891,10891,10891,10891,10891,10891,10891,10891,10891,10891,10891,10891,
10891,10891,10891,10891,10891,10891,10891,10891,10891,10891,10891,10891,10891,10891,10891,10891,
10891,10891,10891,10891,10891,10891,10891,10891,10891,10891,10891,10891,10891,10891,10891,10891,
10891,10891,10891,10891,10891,10891,10891,10891,10891,10891,10891,10891,10891,10891,10891,10891,
10891,10891,10891,10891,10891,10891,10891,10891,10891,10891,10891,10891,10891,10891,10891,10891,
10891,10891,10891,10891,10891,10891,10891,10891,10891,10891,10891,10891,10891,10891,10891,10891,
10891,10891,10891,10891,10891,10891,10891,10891,10891,10891,10891,10891,10891,10891,10891,10891,
10891,10891,10891,10891,10891,10891,10891,10891,10891,10891,10891,10891,10891,10891,10891,10891,
10891,10891,10891,10891,10891,10891,10891,10891,10891,10891,10891,10891,10891,10891,10891,10891,
10891,10891,10891,10891,10891,10891,10891,10891,10891,10891,10891,10891,10891,10891,10891,10891,
10891,10891,10891,10891,10891,10891,10891,10891,10891,10891,10891,10891,10891,10891,10891,10891,
10891,10891,10891,10891,10891,10891,10891,10891,10891,10891,10891,10891,10891,10891,10891,10891,
10891,10891,10891,10891,10891,10891,10891,10891,10891,10891,10891,10891,10891,10891,10891,0
</chunk>
   <chunk x="16" y="48" width="16" height="16">
10891,10891,10891,10891,0,0,0,0,0,0,0,0,0,0,0,0,
10891,10891,10891,10891,0,0,0,0,0,0,0,0,0,0,0,0,
10891,10891,10891,10891,0,0,0,0,0,0,0,0,0,0,0,0,
10891,10891,10891,10891,0,0,0,0,0,0,0,0,0,0,0,0,
10891,10891,10891,10891,0,0,0,0,0,0,0,0,0,0,0,0,
10891,10891,10891,10891,0,0,0,0,0,0,0,0,0,0,0,0,
10891,10891,10891,0,0,0,0,0,0,0,0,0,0,0,0,0,
10891,10891,10891,0,0,0,0,0,0,0,0,0,0,0,0,0,
10891,10891,10891,0,0,0,0,0,0,0,0,0,0,0,0,0,
10891,10891,10891,0,0,0,0,0,0,0,0,0,0,0,0,0,
10891,10891,10891,0,0,0,0,0,0,0,0,0,0,0,0,0,
10891,10891,10891,0,0,0,0,0,0,0,0,0,0,0,0,0,
10891,10891,10891,0,0,0,0,0,0,0,0,0,0,0,0,0,
10891,10891,10891,0,0,0,0,0,0,0,0,0,0,0,0,0,
10891,10891,10891,0,0,0,0,0,0,0,0,0,0,0,0,0,
0,0,0,0,0,0,0,0,0,0,0,0,0,0,0,0
</chunk>
   <chunk x="-16" y="64" width="16" height="16">
10891,10891,10891,10891,10891,10891,10891,10891,10891,10891,10891,10891,10891,10891,10891,10891,
0,0,0,0,0,0,0,0,0,0,0,0,0,0,0,0,
0,0,0,0,0,0,0,0,0,0,0,0,0,0,0,0,
0,0,0,0,0,0,0,0,0,0,0,0,0,0,0,0,
0,0,0,0,0,0,0,0,0,0,0,0,0,0,0,0,
0,0,0,0,0,0,0,0,0,0,0,0,0,0,0,0,
0,0,0,0,0,0,0,0,0,0,0,0,0,0,0,0,
0,0,0,0,0,0,0,0,0,0,0,0,0,0,0,0,
0,0,0,0,0,0,0,0,0,0,0,0,0,0,0,0,
0,0,0,0,0,0,0,0,0,0,0,0,0,0,0,0,
0,0,0,0,0,0,0,0,0,0,0,0,0,0,0,0,
0,0,0,0,0,0,0,0,0,0,0,0,0,0,0,0,
0,0,0,0,0,0,0,0,0,0,0,0,0,0,0,0,
0,0,0,0,0,0,0,0,0,0,0,0,0,0,0,0,
0,0,0,0,0,0,0,0,0,0,0,0,0,0,0,0,
0,0,0,0,0,0,0,0,0,0,0,0,0,0,0,0
</chunk>
   <chunk x="0" y="64" width="16" height="16">
10891,10891,10891,10891,10891,10891,10891,10891,10891,10891,10891,10891,10891,10891,10891,10891,
0,0,0,0,0,0,0,0,0,0,0,0,0,0,0,0,
0,0,0,0,0,0,0,0,0,0,0,0,0,0,0,0,
0,0,0,0,0,0,0,0,0,0,0,0,0,0,0,0,
0,0,0,0,0,0,0,0,0,0,0,0,0,0,0,0,
0,0,0,0,0,0,0,0,0,0,0,0,0,0,0,0,
0,0,0,0,0,0,0,0,0,0,0,0,0,0,0,0,
0,0,0,0,0,0,0,0,0,0,0,0,0,0,0,0,
0,0,0,0,0,0,0,0,0,0,0,0,0,0,0,0,
0,0,0,0,0,0,0,0,0,0,0,0,0,0,0,0,
0,0,0,0,0,0,0,0,0,0,0,0,0,0,0,0,
0,0,0,0,0,0,0,0,0,0,0,0,0,0,0,0,
0,0,0,0,0,0,0,0,0,0,0,0,0,0,0,0,
0,0,0,0,0,0,0,0,0,0,0,0,0,0,0,0,
0,0,0,0,0,0,0,0,0,0,0,0,0,0,0,0,
0,0,0,0,0,0,0,0,0,0,0,0,0,0,0,0
</chunk>
  </data>
 </layer>
 <layer id="207" name="ground2" width="46" height="32">
  <data encoding="csv">
   <chunk x="0" y="32" width="16" height="16">
0,0,0,0,0,0,0,0,0,0,0,0,0,0,0,0,
0,0,0,0,0,0,0,0,0,0,0,0,0,0,0,0,
0,0,0,0,0,0,0,0,0,0,0,0,0,0,0,0,
0,0,0,0,0,0,0,0,0,0,0,0,0,0,0,0,
0,0,0,0,0,0,0,0,0,0,0,0,0,0,0,0,
0,0,0,0,0,0,0,0,0,0,0,0,0,0,0,0,
0,0,0,0,0,0,0,0,0,0,0,0,0,0,0,0,
0,0,0,0,0,0,0,0,0,0,0,0,0,0,0,0,
0,0,10981,10982,10984,0,0,0,0,10981,10982,10982,10982,10982,10982,10982,
0,0,11003,11004,11006,0,0,0,0,11003,11004,11004,11004,11004,11004,11005,
0,0,11025,11026,11028,0,0,0,0,11025,11026,11026,11026,11026,11026,11027,
0,0,11047,11049,11050,0,0,0,0,11047,11048,11049,11048,11049,11048,11049,
0,0,0,0,0,0,0,0,0,0,0,0,0,0,0,0,
0,0,0,0,0,0,0,0,0,0,0,0,0,0,0,0,
0,0,0,0,0,0,0,0,0,0,0,0,0,0,0,0,
0,0,0,0,0,0,0,0,0,0,0,0,0,0,0,0
</chunk>
   <chunk x="16" y="32" width="16" height="16">
0,0,0,0,0,0,0,0,0,0,0,0,0,0,0,0,
0,0,0,0,0,0,0,0,0,0,0,0,0,0,0,0,
0,0,0,0,0,0,0,0,0,0,0,0,0,0,0,0,
0,0,0,0,0,0,0,0,0,0,0,0,0,0,0,0,
0,0,0,0,0,0,0,0,0,0,0,0,0,0,0,0,
0,0,0,0,0,0,0,0,0,0,0,0,0,0,0,0,
0,0,0,0,0,0,0,0,0,0,0,0,0,0,0,0,
0,0,0,0,0,0,0,0,0,0,0,0,0,0,0,0,
10982,10982,10984,0,0,0,0,0,0,0,0,0,0,0,0,0,
11004,11004,11006,0,0,0,0,0,0,0,0,0,0,0,0,0,
11026,11026,11028,0,0,0,0,0,0,0,0,0,0,0,0,0,
11049,11048,11050,0,0,0,0,0,0,0,0,0,0,0,0,0,
0,0,0,0,0,0,0,0,0,0,0,0,0,0,0,0,
0,0,0,0,0,0,0,0,0,0,0,0,0,0,0,0,
0,0,0,0,0,0,0,0,0,0,0,0,0,0,0,0,
0,0,0,0,0,0,0,0,0,0,0,0,0,0,0,0
</chunk>
   <chunk x="32" y="32" width="16" height="16">
0,0,0,0,0,0,0,0,0,0,0,0,0,0,0,0,
0,0,0,0,0,0,0,0,0,0,0,0,0,0,0,0,
0,0,0,0,0,0,0,0,0,0,0,0,0,0,0,0,
0,0,0,0,0,0,0,0,0,0,0,0,0,0,0,0,
0,0,0,0,0,0,0,0,0,0,0,0,0,0,0,0,
0,0,0,0,0,0,0,0,0,0,0,0,0,0,0,0,
0,0,0,0,0,0,0,0,0,0,0,0,0,0,0,0,
0,0,0,0,0,0,0,0,0,0,0,0,0,0,0,0,
0,0,0,0,0,0,0,0,0,0,0,0,0,0,0,0,
0,0,0,0,0,0,0,0,0,0,0,0,0,0,0,0,
6314,0,0,0,0,0,0,0,0,0,0,0,0,0,0,0,
0,0,0,0,0,0,0,0,0,0,0,0,0,0,0,0,
0,0,0,0,0,0,0,0,0,0,0,0,0,0,0,0,
0,0,0,0,0,0,0,0,0,0,0,0,0,0,0,0,
0,0,0,0,0,0,0,0,0,0,0,0,0,0,0,0,
0,0,0,0,0,0,0,0,0,0,0,0,0,0,0,0
</chunk>
   <chunk x="-16" y="48" width="16" height="16">
0,0,11156,11156,0,0,0,11156,11156,0,0,0,0,10981,10982,10982,
0,0,11156,11156,11156,11156,11156,11156,11156,0,0,0,0,11003,11004,11005,
0,0,11156,11156,11156,11156,11156,11156,11156,0,0,0,0,11003,11004,11005,
0,0,11156,11156,11156,11156,11156,11156,11156,0,0,0,0,11025,11004,11005,
0,0,11156,11156,11156,11156,11156,11156,11156,0,0,0,0,11003,11004,11004,
0,0,11156,11156,11156,11156,11156,11156,11156,0,0,0,0,11025,11004,11004,
0,0,0,0,0,0,0,0,0,0,0,0,0,11047,11048,11049,
0,0,0,0,0,0,0,0,0,0,0,0,0,0,0,0,
0,0,0,0,0,0,0,0,0,0,0,0,0,0,0,0,
0,0,0,0,0,0,0,0,0,0,0,0,0,0,0,0,
0,0,0,0,0,0,0,0,0,0,0,0,0,0,0,0,
0,0,0,0,0,0,0,0,0,0,0,0,10996,10997,10996,10997,
0,0,0,0,0,0,0,0,0,0,0,0,10996,10997,11018,11019,
0,0,0,0,0,0,0,0,0,0,0,0,10996,10996,10996,10996,
0,0,0,0,0,0,0,0,0,0,0,0,11018,11018,11018,11018,
0,0,0,0,0,0,0,0,0,0,0,0,0,10891,10891,10891
</chunk>
   <chunk x="0" y="48" width="16" height="16">
10982,10982,10982,10983,10984,0,0,0,0,0,0,0,0,0,0,0,
11004,11005,11005,11005,11006,0,0,0,0,0,0,0,0,0,0,0,
11004,11005,11005,11005,11006,0,0,0,0,0,0,0,0,0,0,0,
11026,11027,11027,11027,11028,0,0,0,0,0,0,0,0,0,0,0,
11004,11004,11026,11027,11006,0,0,0,0,0,0,0,0,0,0,0,
11004,11004,11004,11004,11028,0,0,0,0,0,0,0,0,0,0,0,
11049,11048,11048,11049,11050,0,0,0,0,0,0,0,0,0,0,0,
0,0,0,0,0,0,0,0,0,0,0,0,0,0,0,0,
0,0,0,0,0,0,0,0,0,0,0,0,0,0,0,0,
0,0,0,0,0,0,0,0,0,0,0,0,0,0,0,0,
0,0,0,0,0,0,0,0,0,0,0,0,0,0,0,0,
10997,10997,0,0,10981,10982,10984,0,0,11018,11019,11018,11019,11019,10996,0,
11019,11019,0,0,11003,11004,11006,0,0,11018,11019,10996,10996,10996,11019,0,
11018,11019,0,0,11003,11004,11006,0,0,11018,11018,11018,10996,10996,10996,0,
11018,11019,0,0,11025,11026,11028,0,0,10996,10996,10996,10996,10996,10996,0,
0,0,0,0,11047,11048,11050,0,0,0,0,0,0,0,0,0
</chunk>
  </data>
 </layer>
 <layer id="214" name="ground_details" width="46" height="32">
  <data encoding="csv">
   <chunk x="-16" y="32" width="16" height="16">
0,0,0,0,0,0,0,0,0,0,0,0,0,0,0,0,
0,0,0,0,0,0,0,0,0,0,0,0,0,0,0,0,
0,0,0,0,0,0,0,0,0,0,0,0,0,0,0,0,
0,0,0,0,0,0,0,0,0,0,0,0,0,0,0,0,
0,0,0,0,0,0,0,0,0,0,0,0,0,0,0,0,
0,0,0,0,0,0,0,0,0,0,0,0,0,0,0,0,
0,0,0,0,0,0,0,12100,12101,12090,12091,0,0,12081,12101,0,
0,12094,12095,0,0,0,0,12121,12122,12111,12112,0,0,12121,12122,0,
0,12115,12116,0,0,0,0,0,12082,0,0,0,0,0,0,0,
0,12082,0,0,0,0,0,0,12094,12095,0,0,0,0,0,0,
0,0,0,0,0,0,0,0,12115,12116,0,0,0,0,0,0,
0,0,12082,0,0,0,0,0,12078,0,0,12094,12095,0,0,0,
0,12090,12091,0,0,0,0,0,12056,12090,12091,12115,12116,12056,0,12090,
0,12111,12112,0,0,0,0,0,0,12111,12112,0,0,0,0,12111,
0,0,0,0,0,0,0,0,0,0,0,0,0,0,0,0,
0,0,0,0,0,0,0,0,0,12056,0,0,12092,12093,0,0
</chunk>
   <chunk x="0" y="32" width="16" height="16">
0,0,0,0,0,0,0,0,0,0,0,0,0,0,0,0,
0,0,0,0,0,0,0,0,0,0,0,0,0,0,0,0,
0,0,0,0,0,0,0,0,0,0,0,0,0,0,0,0,
0,0,0,0,0,0,0,0,0,0,0,0,0,0,0,0,
0,0,0,0,0,0,0,0,0,0,0,0,0,0,0,0,
0,0,0,0,0,0,0,0,0,0,0,0,0,0,0,0,
0,12082,12094,12095,0,12077,0,0,0,12092,12093,0,0,0,0,0,
0,0,12115,12116,0,12104,12105,0,12077,12113,12114,0,0,0,0,0,
0,0,0,0,0,12125,12126,0,12104,12105,0,0,0,0,0,0,
0,0,0,0,0,0,0,0,12125,12126,0,0,0,0,0,0,
0,0,0,0,0,0,0,0,12057,0,12092,12093,0,0,0,0,
0,0,0,0,0,12104,12105,0,0,0,12113,12114,0,0,0,0,
12091,0,0,0,0,12125,12126,12091,12082,0,0,0,12056,0,12081,0,
12112,0,0,0,0,0,12111,12112,0,0,0,0,0,0,0,0,
0,12100,12101,0,0,0,0,0,0,0,0,0,0,0,0,0,
12082,12121,12122,0,12082,0,0,0,0,0,0,0,0,0,0,0
</chunk>
   <chunk x="16" y="32" width="16" height="16">
0,0,0,0,0,0,0,0,0,0,0,0,0,0,0,0,
0,0,0,0,0,0,0,0,0,0,0,0,0,0,0,0,
0,0,0,0,0,0,0,0,0,0,0,0,0,0,0,0,
0,0,0,0,0,0,0,0,0,0,0,0,0,0,0,0,
0,0,0,0,0,0,0,0,0,0,0,0,0,0,0,0,
0,0,0,0,0,0,0,0,0,0,0,0,0,0,0,0,
0,0,0,0,0,0,0,0,0,0,0,0,0,0,0,0,
0,0,0,0,0,0,0,0,0,0,0,0,0,0,0,0,
0,0,0,0,0,0,0,0,0,0,0,0,0,0,0,0,
0,0,0,0,0,0,0,0,0,0,0,0,0,0,0,0,
0,0,0,0,0,0,0,0,0,0,0,0,0,0,0,0,
0,0,0,0,0,0,0,0,0,0,0,0,0,0,0,0,
12082,12057,0,0,0,0,0,0,0,0,0,0,0,0,0,0,
0,0,0,0,0,0,0,0,0,0,0,0,0,0,0,0,
0,0,0,0,0,0,0,0,0,0,0,0,0,0,0,0,
0,0,0,0,0,0,0,0,0,0,0,0,0,0,0,0
</chunk>
   <chunk x="-16" y="48" width="16" height="16">
0,0,0,0,0,0,0,0,0,0,0,0,12113,12114,0,0,
12100,12101,0,0,0,0,0,0,0,0,0,0,0,0,0,0,
12121,12122,0,0,0,0,0,0,0,12092,12093,0,12082,0,0,0,
0,0,0,0,0,0,0,0,0,12113,12114,0,0,0,0,0,
0,0,0,0,0,0,0,0,0,0,0,0,12078,0,0,0,
12094,12095,0,0,0,0,0,0,0,12077,0,0,0,0,0,0,
12115,12116,12104,12105,0,0,0,12100,12101,0,0,0,12094,12095,0,0,
0,0,12125,12126,12090,12091,0,12121,12082,0,0,0,12115,12116,0,12057,
0,0,0,0,12111,12112,0,0,0,0,0,0,0,0,0,0,
0,0,0,0,0,0,0,0,0,0,0,0,0,0,0,0,
0,0,0,0,0,0,0,0,0,0,0,0,0,0,0,0,
0,0,0,0,0,0,0,0,0,0,0,0,0,0,0,0,
0,0,0,0,0,0,0,0,0,0,0,0,0,0,0,0,
0,0,0,0,0,0,0,0,0,0,0,0,0,0,0,0,
0,0,0,0,0,0,0,0,0,0,0,0,0,0,0,0,
0,0,0,12104,12105,0,12094,12095,0,0,0,0,0,0,0,0
</chunk>
   <chunk x="0" y="48" width="16" height="16">
0,0,0,0,0,12082,12091,0,0,0,0,0,0,0,0,0,
0,0,0,0,0,12111,12112,0,0,0,0,0,0,0,0,0,
0,0,0,0,0,12104,12105,0,0,0,0,0,0,0,0,0,
0,0,0,0,0,12125,12126,0,0,0,0,0,0,0,0,0,
0,0,0,0,0,0,0,0,0,0,0,0,0,0,0,0,
0,0,0,0,12092,12093,0,0,12057,0,0,0,0,0,0,0,
12094,12095,12100,12101,12113,12114,0,0,0,12104,12105,0,12077,12104,12105,0,
12115,12116,12121,12122,0,0,0,0,0,12125,12126,0,0,12125,12126,0,
0,0,0,0,0,0,0,0,0,0,0,0,0,0,0,0,
0,0,0,0,0,0,0,0,0,0,0,0,0,0,0,0,
0,0,0,0,0,0,0,12092,12093,0,0,0,0,0,0,12104,
0,0,12094,12095,0,0,0,12113,12114,0,0,0,0,0,0,12125,
0,0,12115,12116,0,0,0,0,0,0,0,0,0,0,0,12104,
0,0,0,0,0,0,0,0,0,0,0,0,0,0,0,12125,
0,0,0,0,0,0,0,0,0,0,0,0,0,0,0,0,
0,0,0,12100,12101,0,0,12100,12101,0,0,0,0,0,0,0
</chunk>
   <chunk x="16" y="48" width="16" height="16">
0,0,0,0,0,0,0,0,0,0,0,0,0,0,0,0,
0,0,0,0,0,0,0,0,0,0,0,0,0,0,0,0,
0,0,0,0,0,0,0,0,0,0,0,0,0,0,0,0,
0,0,0,0,0,0,0,0,0,0,0,0,0,0,0,0,
12104,12105,0,0,0,0,0,0,0,0,0,0,0,0,0,0,
12125,12126,0,0,0,0,0,0,0,0,0,0,0,0,0,0,
0,0,0,0,0,0,0,0,0,0,0,0,0,0,0,0,
0,0,0,0,0,0,0,0,0,0,0,0,0,0,0,0,
0,0,0,0,0,0,0,0,0,0,0,0,0,0,0,0,
0,0,0,0,0,0,0,0,0,0,0,0,0,0,0,0,
12105,0,0,0,0,0,0,0,0,0,0,0,0,0,0,0,
12126,0,0,0,0,0,0,0,0,0,0,0,0,0,0,0,
12105,12105,0,0,0,0,0,0,0,0,0,0,0,0,0,0,
12126,12126,0,0,0,0,0,0,0,0,0,0,0,0,0,0,
0,0,0,0,0,0,0,0,0,0,0,0,0,0,0,0,
0,0,0,0,0,0,0,0,0,0,0,0,0,0,0,0
</chunk>
   <chunk x="-16" y="64" width="16" height="16">
0,0,0,12125,12126,0,12115,12116,0,0,0,0,0,0,0,0,
0,0,0,0,0,0,0,0,0,0,0,0,0,0,0,0,
0,0,0,0,0,0,0,0,0,0,0,0,0,0,0,0,
0,0,0,0,0,0,0,0,0,0,0,0,0,0,0,0,
0,0,0,0,0,0,0,0,0,0,0,0,0,0,0,0,
0,0,0,0,0,0,0,0,0,0,0,0,0,0,0,0,
0,0,0,0,0,0,0,0,0,0,0,0,0,0,0,0,
0,0,0,0,0,0,0,0,0,0,0,0,0,0,0,0,
0,0,0,0,0,0,0,0,0,0,0,0,0,0,0,0,
0,0,0,0,0,0,0,0,0,0,0,0,0,0,0,0,
0,0,0,0,0,0,0,0,0,0,0,0,0,0,0,0,
0,0,0,0,0,0,0,0,0,0,0,0,0,0,0,0,
0,0,0,0,0,0,0,0,0,0,0,0,0,0,0,0,
0,0,0,0,0,0,0,0,0,0,0,0,0,0,0,0,
0,0,0,0,0,0,0,0,0,0,0,0,0,0,0,0,
0,0,0,0,0,0,0,0,0,0,0,0,0,0,0,0
</chunk>
   <chunk x="0" y="64" width="16" height="16">
0,0,0,12121,12122,0,0,12121,12122,0,0,0,0,0,0,0,
0,0,0,0,0,0,0,0,0,0,0,0,0,0,0,0,
0,0,0,0,0,0,0,0,0,0,0,0,0,0,0,0,
0,0,0,0,0,0,0,0,0,0,0,0,0,0,0,0,
0,0,0,0,0,0,0,0,0,0,0,0,0,0,0,0,
0,0,0,0,0,0,0,0,0,0,0,0,0,0,0,0,
0,0,0,0,0,0,0,0,0,0,0,0,0,0,0,0,
0,0,0,0,0,0,0,0,0,0,0,0,0,0,0,0,
0,0,0,0,0,0,0,0,0,0,0,0,0,0,0,0,
0,0,0,0,0,0,0,0,0,0,0,0,0,0,0,0,
0,0,0,0,0,0,0,0,0,0,0,0,0,0,0,0,
0,0,0,0,0,0,0,0,0,0,0,0,0,0,0,0,
0,0,0,0,0,0,0,0,0,0,0,0,0,0,0,0,
0,0,0,0,0,0,0,0,0,0,0,0,0,0,0,0,
0,0,0,0,0,0,0,0,0,0,0,0,0,0,0,0,
0,0,0,0,0,0,0,0,0,0,0,0,0,0,0,0
</chunk>
  </data>
 </layer>
 <layer id="209" name="road" width="46" height="32">
  <data encoding="csv">
   <chunk x="-16" y="32" width="16" height="16">
0,0,0,0,0,0,0,0,0,0,0,0,0,0,0,0,
0,0,0,0,0,0,0,0,0,0,0,0,0,0,0,0,
0,0,0,0,0,0,0,0,0,0,0,0,0,0,0,0,
0,0,0,0,0,0,0,0,0,0,0,0,0,0,0,0,
0,0,0,0,0,0,0,0,0,0,0,0,0,0,0,0,
0,0,0,0,0,0,0,0,0,0,0,0,0,0,0,0,
0,0,0,0,0,0,0,0,0,0,11055,11067,0,0,0,0,
0,0,0,0,0,0,0,0,0,0,11055,11067,0,0,0,0,
0,0,0,0,0,0,0,0,0,0,11055,11067,0,0,0,0,
0,0,0,0,0,0,0,0,0,0,11055,11067,0,0,0,0,
0,0,0,0,0,0,0,0,0,0,11055,11067,0,0,0,0,
0,0,0,0,0,0,0,0,0,0,11055,11067,0,0,0,0,
0,0,0,0,0,0,0,0,0,0,11055,11067,0,0,0,0,
0,10946,10947,10948,10948,10948,10948,10948,10948,10882,10882,10946,10879,10879,10879,10879,
0,10880,10880,10880,10880,10880,10880,10880,10880,10881,10882,10946,10946,10946,10946,10946,
0,0,0,0,0,0,0,0,0,0,11055,11089,0,0,0,0
</chunk>
   <chunk x="0" y="32" width="16" height="16">
0,0,0,0,0,0,0,0,0,0,0,0,0,0,0,0,
0,0,0,0,0,0,0,0,0,0,0,0,0,0,0,0,
0,0,0,0,0,0,0,0,0,0,0,0,0,0,0,0,
0,0,0,0,0,0,0,0,0,0,0,0,0,0,0,0,
0,0,0,0,0,0,0,0,0,0,0,0,0,0,0,0,
0,0,0,0,0,0,0,0,0,0,0,0,0,0,0,0,
0,0,0,0,0,0,10993,10993,0,0,0,0,0,0,0,0,
0,0,0,0,0,0,11015,10993,0,0,0,0,0,0,0,0,
0,0,0,0,0,0,11037,10993,0,0,0,0,0,0,0,0,
0,0,0,0,0,0,10993,10993,0,0,0,0,0,0,0,0,
0,0,0,0,0,0,11015,10993,0,0,0,0,0,0,0,0,
0,0,0,0,0,0,11037,11015,0,0,0,0,0,0,0,0,
0,0,0,0,0,0,11059,11037,0,0,0,0,0,0,0,0,
10879,10880,10879,10879,10879,10879,10879,11059,10879,10880,10881,10947,10948,11055,11056,11055,
10879,10879,10879,10880,10881,10946,10946,10946,10879,10879,10880,10881,10948,11055,11056,11055,
0,0,0,0,0,0,10902,10902,0,0,0,0,0,0,0,0
</chunk>
   <chunk x="16" y="32" width="16" height="16">
0,0,0,0,0,0,0,0,0,0,0,0,0,0,0,0,
0,0,0,0,0,0,0,0,0,0,0,0,0,0,0,0,
0,0,0,0,0,0,0,0,0,0,0,0,0,0,0,0,
0,0,0,0,0,0,0,0,0,0,0,0,0,0,0,0,
0,0,0,0,0,0,0,0,0,0,0,0,0,0,0,0,
0,0,0,0,0,0,0,0,0,0,0,0,0,0,0,0,
0,0,0,0,0,0,0,0,0,0,0,0,0,0,0,0,
0,0,0,0,0,0,0,0,0,0,0,0,0,0,0,0,
0,0,0,0,0,0,0,0,0,0,0,0,0,0,0,0,
0,0,0,0,0,0,0,0,0,0,0,0,0,0,0,0,
0,0,0,0,0,0,0,0,0,0,0,0,0,0,0,0,
0,0,0,0,0,0,0,0,0,0,0,0,0,0,0,0,
0,0,0,0,0,0,0,0,0,0,0,0,0,0,0,0,
11056,11057,11056,0,0,0,0,0,0,0,0,0,0,0,0,0,
11056,11057,11056,0,0,0,0,0,0,0,0,0,0,0,0,0,
0,0,0,0,0,0,0,0,0,0,0,0,0,0,0,0
</chunk>
   <chunk x="-16" y="48" width="16" height="16">
0,0,0,0,0,0,0,0,0,0,11077,11111,0,0,0,0,
0,0,0,0,0,0,0,0,0,0,11099,11055,0,0,0,0,
0,0,0,0,0,0,0,0,0,0,11121,11055,0,0,0,0,
0,0,0,0,0,0,0,0,0,0,11055,11055,0,0,0,0,
0,0,0,0,0,0,0,0,0,0,11055,11077,0,0,0,0,
0,0,0,0,0,0,0,0,0,0,11055,11099,0,0,0,0,
0,0,0,0,0,0,0,0,0,0,11055,11121,0,0,0,0,
0,0,0,0,0,0,0,0,0,0,11055,11067,0,0,0,0,
0,11086,11087,11088,11089,11090,11090,11090,11087,11088,11089,11089,11057,11058,11087,11088,
0,11086,11087,11088,11089,11090,11086,11086,11086,11086,11086,11111,11087,11086,11086,11087,
0,0,0,0,0,0,0,0,0,0,11055,11067,0,0,0,0,
0,0,0,0,0,0,0,0,0,0,11055,11089,0,0,0,0,
0,0,0,0,0,0,0,0,0,0,11055,11067,0,0,0,0,
0,0,0,0,0,0,0,0,0,0,11055,11089,0,0,0,0,
0,0,0,0,0,0,0,0,0,0,11077,11067,0,0,0,0,
0,0,0,0,0,0,0,0,0,0,11099,11089,0,0,0,0
</chunk>
   <chunk x="0" y="48" width="16" height="16">
0,0,0,0,0,0,10902,10902,0,0,0,0,0,0,0,0,
0,0,0,0,0,0,10902,10902,0,0,0,0,0,0,0,0,
0,0,0,0,0,0,10902,10902,0,0,0,0,0,0,0,0,
0,0,0,0,0,0,10902,10902,0,0,0,0,0,0,0,0,
0,0,0,0,0,0,10902,10902,0,0,0,0,0,0,0,0,
0,0,0,0,0,0,10902,10902,0,0,0,0,0,0,0,0,
0,0,0,0,0,0,10924,10924,0,0,0,0,0,0,0,0,
0,0,0,0,0,0,10946,10946,0,0,0,0,0,0,0,0,
11089,11090,11086,11086,11057,11058,11087,11088,11089,11090,11087,11088,11089,11099,11087,11088,
11088,11089,11090,11086,11087,11088,11089,11090,11090,11090,11087,11088,11089,11090,11087,11088,
0,0,10990,0,0,0,0,0,10990,0,0,0,0,0,0,0,
0,0,11012,0,0,0,0,0,11012,0,0,0,0,0,0,0,
0,0,11034,0,0,0,0,0,11034,0,0,0,0,0,0,0,
0,0,10990,0,0,0,0,0,10990,0,0,0,0,0,0,0,
0,0,11012,0,0,0,0,0,11012,0,0,0,0,0,0,0,
0,0,11034,0,0,0,0,0,11034,0,0,0,0,0,0,0
</chunk>
   <chunk x="16" y="48" width="16" height="16">
0,0,0,0,0,0,0,0,0,0,0,0,0,0,0,0,
0,0,0,0,0,0,0,0,0,0,0,0,0,0,0,0,
0,0,0,0,0,0,0,0,0,0,0,0,0,0,0,0,
0,0,0,0,0,0,0,0,0,0,0,0,0,0,0,0,
0,0,0,0,0,0,0,0,0,0,0,0,0,0,0,0,
0,0,0,0,0,0,0,0,0,0,0,0,0,0,0,0,
0,0,0,0,0,0,0,0,0,0,0,0,0,0,0,0,
0,0,0,0,0,0,0,0,0,0,0,0,0,0,0,0,
11089,11090,11092,0,0,0,0,0,0,0,0,0,0,0,0,0,
11089,11090,11092,0,0,0,0,0,0,0,0,0,0,0,0,0,
0,0,0,0,0,0,0,0,0,0,0,0,0,0,0,0,
0,0,0,0,0,0,0,0,0,0,0,0,0,0,0,0,
0,0,0,0,0,0,0,0,0,0,0,0,0,0,0,0,
0,0,0,0,0,0,0,0,0,0,0,0,0,0,0,0,
0,0,0,0,0,0,0,0,0,0,0,0,0,0,0,0,
0,0,0,0,0,0,0,0,0,0,0,0,0,0,0,0
</chunk>
   <chunk x="-16" y="64" width="16" height="16">
0,0,0,0,0,0,0,0,0,0,11121,11111,0,0,0,0,
0,0,0,0,0,0,0,0,0,0,0,0,0,0,0,0,
0,0,0,0,0,0,0,0,0,0,0,0,0,0,0,0,
0,0,0,0,0,0,0,0,0,0,0,0,0,0,0,0,
0,0,0,0,0,0,0,0,0,0,0,0,0,0,0,0,
0,0,0,0,0,0,0,0,0,0,0,0,0,0,0,0,
0,0,0,0,0,0,0,0,0,0,0,0,0,0,0,0,
0,0,0,0,0,0,0,0,0,0,0,0,0,0,0,0,
0,0,0,0,0,0,0,0,0,0,0,0,0,0,0,0,
0,0,0,0,0,0,0,0,0,0,0,0,0,0,0,0,
0,0,0,0,0,0,0,0,0,0,0,0,0,0,0,0,
0,0,0,0,0,0,0,0,0,0,0,0,0,0,0,0,
0,0,0,0,0,0,0,0,0,0,0,0,0,0,0,0,
0,0,0,0,0,0,0,0,0,0,0,0,0,0,0,0,
0,0,0,0,0,0,0,0,0,0,0,0,0,0,0,0,
0,0,0,0,0,0,0,0,0,0,0,0,0,0,0,0
</chunk>
   <chunk x="0" y="64" width="16" height="16">
0,0,11056,0,0,0,0,0,11056,0,0,0,0,0,0,0,
0,0,0,0,0,0,0,0,0,0,0,0,0,0,0,0,
0,0,0,0,0,0,0,0,0,0,0,0,0,0,0,0,
0,0,0,0,0,0,0,0,0,0,0,0,0,0,0,0,
0,0,0,0,0,0,0,0,0,0,0,0,0,0,0,0,
0,0,0,0,0,0,0,0,0,0,0,0,0,0,0,0,
0,0,0,0,0,0,0,0,0,0,0,0,0,0,0,0,
0,0,0,0,0,0,0,0,0,0,0,0,0,0,0,0,
0,0,0,0,0,0,0,0,0,0,0,0,0,0,0,0,
0,0,0,0,0,0,0,0,0,0,0,0,0,0,0,0,
0,0,0,0,0,0,0,0,0,0,0,0,0,0,0,0,
0,0,0,0,0,0,0,0,0,0,0,0,0,0,0,0,
0,0,0,0,0,0,0,0,0,0,0,0,0,0,0,0,
0,0,0,0,0,0,0,0,0,0,0,0,0,0,0,0,
0,0,0,0,0,0,0,0,0,0,0,0,0,0,0,0,
0,0,0,0,0,0,0,0,0,0,0,0,0,0,0,0
</chunk>
  </data>
 </layer>
 <layer id="177" name="spots1" width="46" height="32">
  <data encoding="csv">
   <chunk x="-16" y="-16" width="16" height="16">
0,0,0,0,0,0,0,0,0,0,0,0,0,0,0,0,
0,0,0,0,0,0,0,0,0,0,0,0,0,0,0,0,
0,0,0,0,0,0,0,0,0,0,0,0,0,0,0,0,
0,0,0,0,0,0,0,0,0,0,0,0,0,0,0,0,
0,0,0,0,0,0,0,0,0,0,0,0,0,0,0,0,
0,0,0,0,0,0,0,0,0,0,0,0,0,0,0,0,
0,0,0,0,0,0,0,0,0,0,0,0,0,0,0,0,
0,0,0,0,0,0,0,0,0,0,0,0,0,0,0,0,
0,0,0,0,0,0,0,0,0,0,0,0,0,0,0,0,
0,0,0,0,0,0,0,0,0,0,0,0,0,0,8168,0,
0,0,0,0,0,0,0,0,0,0,0,0,0,0,0,8148,
0,0,0,0,0,0,0,0,0,0,0,0,0,0,0,8148,
0,0,0,0,0,0,0,0,0,0,0,0,0,0,0,0,
0,0,0,0,0,0,0,0,0,0,0,0,0,0,0,0,
0,0,0,0,0,0,0,0,0,0,0,0,0,0,0,0,
0,0,0,0,0,0,0,0,0,0,0,0,0,0,0,0
</chunk>
   <chunk x="0" y="-16" width="16" height="16">
0,0,0,0,0,0,0,0,0,0,0,0,0,0,0,0,
0,0,0,0,0,0,0,0,0,0,0,0,0,0,0,0,
0,0,0,0,0,0,0,0,0,0,0,0,0,0,0,0,
0,0,0,0,0,0,0,0,0,0,0,0,0,0,0,0,
0,0,0,0,0,0,0,0,0,0,0,0,0,0,0,0,
0,0,0,0,0,0,0,0,0,0,0,0,0,0,0,0,
0,0,0,0,0,0,0,0,0,0,0,0,0,0,0,0,
0,0,0,0,0,0,0,0,0,0,0,0,0,0,0,0,
0,0,0,0,0,0,0,0,0,0,0,0,0,0,0,0,
0,0,0,0,0,0,0,0,0,0,0,0,0,0,0,0,
0,0,0,0,0,0,0,0,0,0,0,0,0,0,0,0,
0,0,0,0,0,0,0,0,0,0,0,0,0,0,0,0,
0,0,0,0,0,0,0,0,0,0,0,0,0,0,0,0,
0,8168,0,0,0,0,0,0,0,0,0,0,0,0,0,0,
0,0,0,0,0,0,0,0,0,0,0,0,0,0,0,0,
0,8148,0,0,0,0,0,0,0,0,0,0,0,0,0,0
</chunk>
   <chunk x="16" y="-16" width="16" height="16">
0,0,0,0,0,0,0,0,0,0,0,0,0,0,0,0,
0,0,0,0,0,0,0,0,0,0,0,0,0,0,0,0,
0,0,0,0,0,0,0,0,0,0,0,0,0,0,0,0,
0,0,0,0,0,0,0,0,0,0,0,0,0,0,0,0,
0,0,0,0,0,0,0,0,0,0,0,0,0,0,0,0,
0,0,0,0,0,0,0,0,0,0,0,0,0,0,0,0,
0,0,0,0,0,0,0,0,0,0,0,0,0,0,0,0,
0,0,0,0,0,0,0,0,0,0,0,0,0,0,0,0,
0,0,0,0,0,0,0,0,0,0,0,0,0,0,0,0,
0,0,0,0,0,0,0,0,0,0,0,0,0,0,0,0,
0,0,0,0,0,0,0,0,0,0,0,0,0,0,0,0,
0,0,0,0,0,0,0,0,0,0,8168,8148,0,0,0,0,
0,0,0,0,0,0,0,0,0,0,0,0,0,0,0,0,
0,0,0,0,0,0,0,0,8168,0,0,0,0,0,0,0,
0,0,0,0,0,0,8168,0,8168,0,0,0,0,0,0,0,
0,0,0,0,8168,8148,0,0,0,0,0,0,0,0,0,0
</chunk>
   <chunk x="0" y="0" width="16" height="16">
0,0,0,0,0,0,0,0,0,0,0,0,0,0,0,0,
0,0,0,8148,0,0,0,0,0,0,0,0,0,0,0,0,
0,0,0,0,0,8168,0,0,0,0,0,0,0,0,0,0,
0,0,0,0,0,0,8148,0,0,0,0,0,0,0,0,0,
0,0,0,0,0,0,0,0,0,0,0,0,8171,8172,8104,8105,
0,0,0,0,0,0,0,0,0,0,0,8072,8192,8193,8125,8126,
0,0,0,0,0,0,0,0,0,0,0,8093,8094,0,0,0,
0,0,0,0,0,0,0,0,0,8167,8168,0,0,0,0,0,
0,0,0,0,0,0,0,0,0,8188,8189,0,0,0,0,0,
0,0,0,0,0,0,0,0,0,0,0,0,0,0,0,0,
0,0,0,0,0,0,0,8078,8079,0,0,0,0,0,0,0,
0,0,0,0,0,0,0,8099,8100,0,0,0,0,0,0,0,
0,0,0,0,0,0,0,8120,8121,0,0,0,0,0,0,0,
0,0,0,0,0,0,0,0,0,0,0,0,0,0,0,0,
0,0,0,0,0,0,0,0,0,0,0,0,0,0,0,0,
0,0,0,0,0,0,0,0,0,0,0,0,0,0,0,0
</chunk>
   <chunk x="16" y="0" width="16" height="16">
0,0,0,0,0,0,0,0,0,0,0,0,0,0,0,0,
0,0,0,8127,8128,0,0,0,0,0,0,0,0,0,8196,8197,
0,8169,8170,8148,0,0,0,0,0,0,0,0,0,0,8217,8218,
0,8190,8191,0,0,0,8173,8174,0,0,0,0,0,0,8158,8159,
8196,8197,0,0,0,0,8194,8195,0,0,0,0,0,0,0,0,
8217,8218,0,0,0,0,8099,8100,0,0,0,0,0,0,0,0,
0,0,0,0,0,0,8198,8199,8150,0,0,0,0,0,0,0,
0,0,0,0,0,0,8219,8220,8167,8168,0,0,0,0,0,0,
0,0,0,0,0,0,0,0,8188,8189,8150,0,0,0,0,0,
0,0,0,0,0,0,0,0,0,0,8171,8172,0,0,0,0,
0,0,0,0,0,0,0,0,0,0,8192,8193,0,0,0,0,
0,0,0,0,0,0,0,0,0,0,0,0,0,0,8200,8201,
0,0,0,0,0,0,0,0,0,0,0,0,0,0,8221,8222,
0,0,0,0,0,0,0,0,0,0,0,0,0,0,0,0,
0,0,0,0,0,0,0,0,0,0,0,0,0,0,0,0,
0,0,0,0,0,0,0,0,0,0,0,0,0,0,0,0
</chunk>
   <chunk x="32" y="0" width="16" height="16">
0,0,0,0,0,0,0,0,0,0,0,0,0,0,0,0,
0,0,0,0,0,0,0,0,0,0,0,0,0,0,0,0,
0,0,0,0,0,0,0,0,8148,0,0,0,0,0,0,0,
0,0,0,0,0,0,0,8167,8168,0,8171,0,0,0,0,0,
0,0,0,0,0,0,0,8188,8189,0,8192,0,0,0,0,0,
0,0,0,0,0,0,0,0,0,8148,0,0,0,0,0,0,
0,0,0,0,0,0,0,0,8167,8168,0,8171,0,0,0,0,
0,0,0,0,0,0,0,0,8188,8189,0,8192,0,0,0,0,
0,0,0,0,0,0,0,0,0,0,0,0,8106,8107,0,8169,
0,0,0,0,0,0,0,0,0,0,8159,0,8127,8124,1073750034,8190,
0,0,0,0,0,0,0,0,0,0,0,0,0,8145,0,0,
0,0,0,0,0,0,0,0,0,0,8169,8170,0,0,0,0,
0,0,0,0,0,0,0,0,1073750033,1073750034,8190,8191,0,0,0,0,
8196,8197,8104,8105,0,0,0,0,0,0,0,0,0,0,0,0,
8217,8218,8125,8126,0,0,0,0,0,0,0,0,0,0,0,0,
0,0,0,0,0,0,0,0,0,0,0,0,0,0,0,0
</chunk>
   <chunk x="48" y="0" width="16" height="16">
0,0,0,0,0,0,0,0,0,0,0,0,0,0,0,0,
0,0,0,0,0,0,0,0,0,0,0,0,0,0,0,0,
0,0,0,0,0,0,0,0,0,0,0,0,0,0,0,0,
0,0,0,0,0,0,0,0,0,0,0,0,0,0,0,0,
0,0,0,0,0,0,0,0,0,0,0,0,0,0,0,0,
0,0,0,0,0,0,0,0,0,0,0,0,0,0,0,0,
0,0,0,0,0,0,0,0,0,0,0,0,0,0,0,0,
0,0,0,0,0,0,0,0,0,0,0,0,0,0,0,0,
8170,0,0,0,0,0,0,0,0,0,0,0,0,0,0,0,
8191,0,0,0,0,0,0,0,0,0,0,0,0,0,0,0,
0,0,0,0,0,0,0,0,0,0,0,0,0,0,0,0,
0,0,0,0,0,0,0,0,0,0,0,0,0,0,0,0,
0,0,0,0,0,0,0,0,0,0,0,0,0,0,0,0,
0,0,0,0,0,0,0,0,0,0,0,0,0,0,0,0,
0,0,0,0,0,0,0,0,0,0,0,0,0,0,0,0,
0,0,0,0,0,0,0,0,0,0,0,0,0,0,0,0
</chunk>
   <chunk x="0" y="16" width="16" height="16">
0,0,0,0,0,0,0,0,0,0,0,0,0,0,0,0,
0,0,0,0,0,0,0,0,0,0,0,0,0,0,0,0,
0,0,0,0,0,0,0,0,8148,0,0,0,0,0,0,0,
0,0,0,0,0,0,8148,8167,8168,0,8171,8172,0,0,0,0,
0,0,0,0,0,0,0,8188,8189,0,8192,8193,0,8198,8199,0,
0,0,0,0,0,0,0,0,0,0,0,0,0,8219,8220,0,
0,0,0,0,0,0,0,0,0,0,0,0,0,0,0,0,
0,0,0,0,0,0,0,0,0,0,0,0,0,0,0,0,
0,0,0,0,0,0,0,0,0,0,0,0,0,0,0,0,
0,0,0,0,0,0,0,0,0,0,0,0,0,0,0,0,
0,0,0,0,0,0,0,0,0,0,0,0,0,0,0,0,
0,0,0,0,0,0,0,0,0,0,0,0,0,0,0,0,
0,0,0,0,0,0,0,0,0,0,0,0,0,0,0,0,
0,0,0,0,0,0,0,0,0,0,0,0,0,0,0,0,
0,0,0,0,0,0,0,0,0,0,0,0,0,0,0,0,
0,0,0,0,0,0,0,0,0,0,0,0,0,0,0,0
</chunk>
   <chunk x="16" y="16" width="16" height="16">
0,0,0,0,0,0,0,0,0,0,0,0,0,0,0,0,
0,0,0,0,0,0,0,0,0,0,0,0,0,0,0,0,
0,0,0,0,0,0,0,0,0,0,0,0,0,0,0,0,
0,0,0,0,0,0,0,0,0,0,0,0,0,0,0,0,
0,0,0,0,0,0,0,0,0,0,0,0,0,0,0,0,
0,0,0,0,0,0,0,0,0,0,0,0,0,0,0,0,
8200,8201,0,0,0,0,0,0,0,0,0,0,0,0,0,0,
8221,8222,0,0,0,0,0,0,0,0,0,0,0,0,0,0,
0,0,8099,8100,0,0,0,0,0,0,0,0,0,0,0,0,
0,0,0,0,0,0,0,0,0,0,0,0,0,0,0,0,
0,0,0,0,0,0,0,0,0,0,0,0,0,0,0,0,
0,0,0,0,0,0,0,0,0,0,0,0,0,0,0,0,
0,0,0,8169,8170,0,0,0,0,0,0,0,0,0,0,0,
0,0,0,8190,8191,0,0,0,0,0,0,0,0,0,0,0,
0,0,0,0,0,8148,0,0,0,0,0,0,0,8148,0,0,
0,0,0,0,8167,8148,8148,8148,0,0,0,0,8167,8168,0,8171
</chunk>
   <chunk x="32" y="16" width="16" height="16">
0,0,0,0,0,0,0,0,0,0,0,0,0,0,0,0,
0,0,0,0,0,0,0,0,0,0,0,0,0,0,0,0,
0,0,0,0,0,0,0,0,0,0,0,0,0,0,0,0,
0,0,0,0,0,0,0,0,0,0,0,0,0,0,0,0,
0,0,0,0,0,0,0,0,0,0,0,0,0,0,0,0,
0,0,0,0,0,0,0,0,0,0,0,10089,10090,0,0,0,
0,0,0,0,0,0,0,0,0,0,0,10121,10122,0,8148,0,
0,0,0,0,0,0,0,0,0,0,0,0,0,8167,8168,0,
0,0,0,0,0,0,0,0,0,0,0,8148,0,8188,8189,0,
0,0,0,0,0,0,0,0,0,0,8167,8168,0,8171,0,0,
0,0,0,0,0,0,0,0,0,0,8188,8189,0,8192,0,0,
0,0,0,0,0,0,0,0,8148,0,0,0,0,0,0,0,
0,0,0,0,0,8148,0,8148,8168,0,8171,0,0,0,0,0,
0,0,0,0,8167,8168,0,8188,8189,0,8192,0,0,0,0,0,
0,8148,0,0,8188,8189,0,8192,0,0,0,0,0,0,0,0,
8167,8168,0,8171,0,0,0,0,0,0,0,0,0,0,0,0
</chunk>
   <chunk x="48" y="16" width="16" height="16">
0,0,0,0,0,0,0,0,0,0,0,0,0,0,0,0,
0,0,0,0,0,0,0,0,0,0,0,0,0,0,0,0,
0,0,0,0,0,0,0,0,0,0,0,0,0,0,0,0,
0,0,0,0,0,0,0,0,0,0,0,0,0,0,0,0,
8106,8107,0,0,0,0,0,0,0,0,0,0,0,0,0,0,
8127,8128,0,0,0,0,0,0,0,0,0,0,0,0,0,0,
8168,0,0,0,0,0,0,0,0,0,0,0,0,0,0,0,
8171,0,0,0,0,0,0,0,0,0,0,0,0,0,0,0,
8192,0,0,0,0,0,0,0,0,0,0,0,0,0,0,0,
0,0,0,0,0,0,0,0,0,0,0,0,0,0,0,0,
0,0,0,0,0,0,0,0,0,0,0,0,0,0,0,0,
0,0,0,0,0,0,0,0,0,0,0,0,0,0,0,0,
0,0,0,0,0,0,0,0,0,0,0,0,0,0,0,0,
0,0,0,0,0,0,0,0,0,0,0,0,0,0,0,0,
0,0,0,0,0,0,0,0,0,0,0,0,0,0,0,0,
0,0,0,0,0,0,0,0,0,0,0,0,0,0,0,0
</chunk>
   <chunk x="16" y="32" width="16" height="16">
0,0,0,0,8188,8167,8167,8148,8148,8171,0,8148,8188,8189,0,8192,
0,0,0,0,0,8188,8167,8167,8168,8171,8167,8168,0,8171,0,0,
0,0,0,0,0,0,8188,8188,8189,8192,8188,8189,0,8192,0,0,
0,0,0,0,0,0,0,0,0,0,0,0,0,0,0,0,
0,0,0,0,0,0,8168,0,0,0,0,0,0,0,0,0,
0,0,0,0,0,0,8168,0,0,0,0,0,0,0,0,0,
0,0,0,0,0,0,8148,0,0,0,0,0,0,0,0,0,
0,0,0,0,0,8148,8148,0,0,0,0,0,0,0,0,0,
0,0,0,0,0,8148,8168,0,0,0,0,0,0,0,0,0,
0,0,0,0,0,8148,0,0,0,0,0,0,0,0,0,0,
0,0,0,0,0,8148,0,0,0,0,0,0,0,0,0,0,
0,0,0,0,0,8168,0,0,0,0,0,0,0,0,0,0,
0,0,0,0,0,8148,0,0,0,0,0,0,0,0,0,0,
0,0,0,0,0,8148,0,8168,0,0,0,0,0,0,0,0,
0,0,0,0,0,0,0,0,0,0,0,0,0,0,8168,0,
0,0,0,0,0,8148,0,8168,8168,8148,0,0,8148,0,0,0
</chunk>
   <chunk x="32" y="32" width="16" height="16">
8188,8189,0,8192,0,0,0,0,0,0,0,0,0,0,0,0,
0,0,0,0,0,0,0,0,0,0,0,0,0,0,0,0,
0,0,0,0,0,0,0,0,0,0,0,0,0,0,0,0,
0,0,0,0,0,0,0,0,0,0,0,0,0,0,0,0,
0,0,0,0,0,0,0,0,0,0,0,0,0,0,0,0,
0,0,0,0,0,0,0,0,0,0,0,0,0,0,0,0,
0,0,0,0,0,0,0,0,0,0,0,0,0,0,0,0,
0,0,0,0,0,0,0,0,0,0,0,0,0,0,0,0,
0,0,0,0,0,0,0,0,0,0,0,0,0,0,0,0,
0,0,0,0,0,0,0,0,0,0,0,0,0,0,0,0,
0,0,0,0,0,0,0,0,0,0,0,0,0,0,0,0,
0,0,0,0,0,0,0,0,0,0,0,0,0,0,0,0,
0,0,0,0,0,0,0,0,0,0,0,0,0,0,0,0,
0,0,0,0,0,0,0,0,0,0,0,0,0,0,0,0,
0,0,0,0,0,0,0,0,0,0,0,0,0,0,0,0,
0,0,0,0,0,0,0,0,0,0,0,0,0,0,0,0
</chunk>
   <chunk x="16" y="48" width="16" height="16">
0,0,0,0,0,0,8148,0,0,0,0,0,8148,0,0,0,
0,0,0,0,0,8168,0,0,0,0,0,0,0,0,0,0,
0,0,0,0,0,0,0,0,0,0,0,0,0,0,0,0,
0,0,0,0,0,8168,8148,0,0,0,0,0,0,0,0,0,
0,0,0,0,0,0,0,0,0,0,0,0,0,0,0,0,
0,0,0,0,8168,0,0,0,0,0,0,0,0,0,0,0,
0,0,0,0,0,0,0,0,0,0,0,0,0,0,0,0,
0,0,0,8168,0,8148,0,0,0,0,0,0,0,0,0,0,
0,0,0,0,8168,0,0,0,0,0,0,0,0,0,0,0,
0,0,0,0,0,0,8168,0,8148,0,0,0,0,0,0,0,
0,0,0,0,8168,0,0,8168,0,0,0,0,0,0,0,0,
0,0,0,0,0,0,0,0,0,0,0,0,0,0,0,0,
0,0,0,0,0,0,0,0,0,0,0,0,0,0,0,0,
0,0,0,0,8148,0,0,0,0,0,0,0,0,0,0,0,
0,0,0,0,0,0,0,0,0,0,0,0,0,0,0,0,
0,0,0,0,8168,0,0,0,0,0,8148,0,0,0,0,0
</chunk>
  </data>
 </layer>
 <layer id="178" name="spots2" width="46" height="32">
  <data encoding="csv">
   <chunk x="16" y="0" width="16" height="16">
0,0,0,0,0,0,0,0,0,0,0,0,0,0,0,0,
0,0,0,8112,8113,0,0,0,0,0,0,0,0,0,0,8089,
0,0,0,8133,8134,0,0,0,1610620964,0,0,0,0,0,0,0,
0,8066,8067,0,0,0,0,8176,1610620963,0,0,0,0,0,0,0,
0,8087,8088,0,0,0,0,0,0,0,0,0,0,0,0,0,
0,0,0,0,0,0,0,0,0,0,0,0,0,0,0,0,
0,0,0,0,0,0,0,0,0,0,0,0,0,0,0,0,
0,0,0,0,0,0,0,0,0,0,8118,8119,0,0,0,0,
0,0,0,0,0,0,0,0,0,0,0,0,0,0,0,0,
0,0,0,0,0,0,0,0,0,0,0,0,0,0,0,0,
0,0,0,0,0,0,0,0,0,0,0,0,0,0,0,0,
0,0,0,0,0,0,0,0,0,0,0,0,0,8097,8098,0,
0,0,0,0,0,0,0,0,0,0,0,0,0,0,0,0,
0,0,0,0,0,0,0,0,0,0,0,0,0,0,0,8118,
0,0,0,0,0,0,0,0,0,0,0,0,0,0,0,0,
0,0,0,0,0,0,0,0,0,0,0,0,0,0,0,0
</chunk>
   <chunk x="32" y="0" width="16" height="16">
0,0,0,0,0,0,0,0,0,0,0,0,0,0,0,0,
8090,0,0,0,0,0,0,0,0,0,0,0,0,0,0,0,
0,0,0,0,0,0,0,0,0,0,0,0,0,0,0,0,
0,0,0,0,0,0,0,0,0,0,0,0,0,0,0,0,
0,0,0,0,0,0,0,0,0,0,0,0,0,0,0,0,
0,0,0,0,0,0,0,0,0,0,0,0,0,0,0,0,
0,0,0,0,0,0,0,0,0,0,0,0,0,0,0,0,
0,0,0,0,0,0,0,0,0,0,0,0,0,0,0,0,
0,0,0,0,0,0,0,0,0,0,0,0,0,0,0,0,
0,0,0,0,0,0,0,0,0,0,0,0,0,0,0,0,
0,0,0,0,0,0,0,0,0,8082,0,8066,8067,0,0,0,
0,0,0,0,0,0,0,0,8150,8103,0,8087,8088,0,0,0,
0,0,0,0,0,0,0,0,0,0,0,0,0,0,0,0,
8119,0,0,0,0,0,0,0,0,0,0,0,0,0,0,0,
0,0,0,0,0,0,0,0,0,0,0,0,0,0,0,0,
0,0,0,0,0,0,0,0,0,0,0,0,0,0,0,0
</chunk>
   <chunk x="0" y="16" width="16" height="16">
0,0,0,0,0,0,0,0,0,0,0,0,0,0,0,0,
0,0,0,0,0,0,0,0,0,0,0,0,0,0,0,0,
0,0,0,0,0,0,0,0,0,8104,8105,0,0,0,0,0,
0,0,0,0,0,0,0,0,0,8125,8126,8112,8113,0,0,0,
0,0,0,0,0,0,0,0,0,0,0,8133,8134,8150,0,0,
0,0,0,0,0,0,0,0,0,0,0,0,0,0,8097,8098,
0,0,0,0,0,0,0,0,0,0,0,0,0,0,0,0,
0,0,0,0,0,0,0,0,0,0,0,0,0,0,0,0,
0,0,0,0,0,0,0,0,0,0,0,0,0,0,0,0,
0,0,0,0,0,0,0,0,0,0,0,0,0,0,0,0,
0,0,0,0,0,0,0,0,0,0,0,0,0,0,0,0,
0,0,0,0,0,0,0,0,0,0,0,0,0,0,0,0,
0,0,0,0,0,0,0,0,0,0,0,0,0,0,0,0,
0,0,0,0,0,0,0,0,0,0,0,0,0,0,0,0,
0,0,0,0,0,0,0,0,0,0,0,0,0,0,0,0,
0,0,0,0,0,0,0,0,0,0,0,0,0,0,0,0
</chunk>
   <chunk x="16" y="16" width="16" height="16">
0,0,0,0,0,0,0,0,0,0,0,0,0,0,0,0,
0,0,0,0,0,0,0,0,0,0,0,0,0,0,0,0,
0,0,0,0,0,0,0,0,0,0,0,0,0,0,0,0,
0,0,0,0,0,0,0,0,0,0,0,0,0,0,0,0,
0,0,0,0,0,0,0,0,0,0,0,0,0,0,0,0,
0,0,0,0,0,0,0,0,0,0,0,0,0,0,0,0,
0,0,0,0,0,0,0,0,0,0,0,0,0,0,0,0,
0,8072,8073,0,0,0,0,0,0,0,0,0,0,0,0,0,
0,8093,8094,0,0,0,0,0,0,0,0,0,0,0,0,0,
0,0,0,0,0,0,0,0,0,0,0,0,0,0,0,0,
0,0,0,0,0,0,0,0,0,0,0,0,0,0,0,0,
0,0,0,0,0,0,0,0,0,0,0,0,0,0,0,0,
0,0,0,0,0,0,0,0,0,0,0,0,0,0,0,0,
0,0,0,0,8108,8109,0,0,0,0,0,0,0,0,0,0,
0,0,0,0,0,0,0,0,0,0,0,0,0,0,0,0,
0,0,0,0,0,0,0,0,0,0,0,0,0,0,0,0
</chunk>
   <chunk x="32" y="16" width="16" height="16">
0,0,0,0,0,0,0,0,0,0,0,0,0,0,0,0,
0,0,0,0,0,0,0,0,0,0,0,0,0,0,0,0,
0,0,0,0,0,0,0,0,0,0,0,0,0,0,0,0,
0,0,0,0,0,0,0,0,0,0,0,0,0,0,0,0,
0,0,0,0,0,0,0,0,0,0,0,0,0,0,0,0,
0,0,0,0,0,0,0,0,0,0,0,0,0,0,0,0,
0,0,0,0,0,0,0,0,0,0,0,0,0,0,0,0,
0,0,0,0,0,0,0,0,0,0,0,0,0,0,0,0,
0,0,0,0,0,0,0,0,0,0,0,0,0,0,0,0,
0,0,0,0,0,0,0,0,0,0,0,0,0,0,0,0,
0,0,0,0,0,0,0,0,0,0,0,0,0,0,0,0,
0,0,0,0,0,0,0,0,0,0,0,0,0,0,0,0,
0,0,0,0,0,0,0,0,0,0,0,0,0,0,0,0,
0,0,0,0,0,0,0,0,0,0,0,0,0,0,0,0,
0,0,8104,8105,0,0,0,0,0,0,0,0,0,0,0,0,
0,0,8125,8126,0,0,0,0,0,0,0,0,0,0,0,0
</chunk>
   <chunk x="48" y="16" width="16" height="16">
0,0,0,0,0,0,0,0,0,0,0,0,0,0,0,0,
0,0,0,0,0,0,0,0,0,0,0,0,0,0,0,0,
0,0,0,0,0,0,0,0,0,0,0,0,0,0,0,0,
0,0,0,0,0,0,0,0,0,0,0,0,0,0,0,0,
0,0,0,0,0,0,0,0,0,0,0,0,0,0,0,0,
8104,8105,0,0,0,0,0,0,0,0,0,0,0,0,0,0,
8125,8126,0,0,0,0,0,0,0,0,0,0,0,0,0,0,
0,0,0,0,0,0,0,0,0,0,0,0,0,0,0,0,
0,0,0,0,0,0,0,0,0,0,0,0,0,0,0,0,
0,0,0,0,0,0,0,0,0,0,0,0,0,0,0,0,
0,0,0,0,0,0,0,0,0,0,0,0,0,0,0,0,
0,0,0,0,0,0,0,0,0,0,0,0,0,0,0,0,
0,0,0,0,0,0,0,0,0,0,0,0,0,0,0,0,
0,0,0,0,0,0,0,0,0,0,0,0,0,0,0,0,
0,0,0,0,0,0,0,0,0,0,0,0,0,0,0,0,
0,0,0,0,0,0,0,0,0,0,0,0,0,0,0,0
</chunk>
   <chunk x="16" y="32" width="16" height="16">
0,0,0,0,0,0,0,0,0,0,0,0,0,0,0,0,
0,0,0,0,0,0,0,0,8104,8105,0,0,0,0,0,0,
0,0,0,0,0,0,0,0,8125,8126,0,0,0,0,0,0,
0,0,0,0,0,0,0,0,0,0,0,0,0,0,0,0,
0,0,0,0,0,0,0,0,0,0,0,0,0,0,0,0,
0,0,0,0,0,0,0,0,0,0,0,0,0,0,0,0,
0,0,0,0,0,0,0,0,0,0,0,0,0,0,0,0,
0,0,0,0,0,0,0,0,0,0,0,0,0,0,0,0,
0,0,0,0,0,0,0,0,0,0,0,0,0,0,0,0,
0,0,0,0,0,0,0,0,0,0,0,0,0,0,0,0,
0,0,0,0,0,0,0,0,0,0,0,0,0,0,0,0,
0,0,0,0,0,0,0,0,0,0,0,0,0,0,0,0,
0,0,0,0,0,0,0,0,0,0,0,0,0,0,0,0,
0,0,0,0,0,0,0,0,0,0,0,0,0,0,0,0,
0,0,0,0,0,0,0,0,0,0,0,0,0,0,0,0,
0,0,0,0,0,0,0,0,0,0,0,0,0,0,0,0
</chunk>
  </data>
 </layer>
 <layer id="163" name="main_space" width="46" height="32">
  <data encoding="csv">
   <chunk x="-16" y="-16" width="16" height="16">
0,0,0,0,0,0,0,0,0,0,0,0,0,0,0,0,
0,0,0,0,0,0,0,0,0,0,0,0,0,0,0,0,
0,0,0,0,0,0,0,0,0,0,0,0,0,0,0,0,
0,0,0,0,0,0,0,0,0,0,0,0,0,0,0,0,
0,0,0,0,0,0,0,0,0,0,0,0,0,0,0,0,
5935,5925,0,0,0,0,0,0,0,0,0,0,0,0,0,0,
5954,2684360553,5936,5925,0,0,0,0,0,0,0,0,0,0,0,0,
7770,7770,7770,2684360553,5936,5936,5924,5935,5936,5924,5935,5924,5935,5925,0,0,
7770,7770,7770,7770,7770,7770,7770,7770,7770,7770,7770,7770,7770,2684360484,1610618571,1610618571,
7770,7770,7770,7770,7770,7770,7770,7770,7770,7770,7770,7770,7770,3758104219,2684362371,0,
7770,7770,7770,7770,7770,7770,7770,7770,7770,7770,7770,7770,7770,7770,2684362372,0,
7770,7770,7770,7770,7770,7770,7770,7770,7770,7770,7770,7770,7770,7770,2684362372,0,
7770,7770,7770,7770,7770,7770,7770,7770,7770,7770,7770,7770,7770,7770,3758104219,7812,
7770,7770,7770,7770,7770,7770,7770,7770,7770,7770,7770,7770,7770,7770,7770,7770,
5954,7770,7770,7770,7770,7770,7770,7770,7770,7770,7770,7770,7770,7770,7770,7770,
5954,5954,5954,5954,5954,5954,5954,5954,7770,7770,7770,7770,7770,7770,7770,7770
</chunk>
   <chunk x="0" y="-16" width="16" height="16">
0,0,0,0,0,0,0,0,0,0,0,0,0,0,0,0,
0,0,0,0,0,0,0,0,0,0,0,0,0,0,0,0,
0,0,0,0,0,0,0,0,0,0,0,0,0,0,0,0,
0,0,0,0,0,0,0,0,0,0,0,0,0,0,0,0,
0,0,0,0,0,0,0,0,0,0,0,0,0,0,0,0,
0,0,0,0,0,0,0,0,0,0,0,0,0,0,0,0,
0,0,0,0,0,0,0,0,0,0,0,0,0,0,0,0,
0,0,0,0,0,0,0,0,0,0,0,0,0,0,0,0,
1610618661,5935,5925,0,0,0,0,0,0,0,0,5935,5924,5935,2684360513,2684360513,
2684362414,7770,2684360553,5936,5924,5935,5925,0,0,0,5953,7770,7770,7770,7770,7770,
2684362414,7770,7770,7770,7770,7770,2684360553,5936,5925,5924,5993,7770,7770,7770,7770,7770,
2684362415,2684362374,7770,7770,7770,7770,7770,7770,7770,7770,7770,7770,7770,7770,7770,7770,
2684362371,2684362414,7770,7770,7770,7770,7770,7770,7770,7770,7770,7770,7770,7770,7770,7770,
2684362372,2684362414,7770,7770,7770,7770,7770,7770,7770,7770,7770,7770,7770,7770,7770,7770,
3758104219,2684362398,2684362374,7770,7770,7770,7770,7770,7770,7770,7770,7770,7770,7770,7770,7770,
2684360514,2684362372,2684362414,7770,7770,7770,7770,7770,7770,7770,7770,7770,7770,7770,7770,7770
</chunk>
   <chunk x="16" y="-16" width="16" height="16">
0,0,0,0,0,0,0,0,0,0,0,0,0,0,0,0,
0,0,0,0,0,0,0,0,0,0,0,0,0,0,0,0,
0,0,0,0,0,0,0,0,0,0,0,0,0,0,0,0,
0,0,0,0,0,0,0,0,0,0,0,0,0,0,0,0,
0,0,0,0,0,0,0,0,0,0,0,0,0,0,0,0,
0,0,0,0,0,0,0,0,0,0,0,0,0,0,0,0,
0,1610618661,5936,5924,5935,5935,5935,5935,5924,5935,5935,5925,0,0,0,0,
0,5953,7770,7770,7770,7770,7770,7770,7770,7770,7770,2684360553,5936,5925,0,0,
5924,5993,7770,7770,7770,7770,7770,7770,7770,7770,7770,7770,7770,2684360553,5925,0,
7770,7770,7770,7770,7770,7770,7770,7770,7770,7770,7770,7770,7770,7770,2684360553,5936,
7770,7770,7770,7770,7770,7770,7770,7770,7770,7814,7854,7854,7815,7770,7770,7770,
7770,7770,7770,7770,7770,7770,7770,7770,7770,1610620577,0,0,3221233286,7770,7770,7770,
7770,7770,7770,7770,7770,7770,7770,7814,7841,7838,3221233313,3221233286,7770,7770,7770,7770,
7770,7770,7770,7770,7770,7770,7814,7855,7811,7836,7770,7770,7770,7770,7770,7770,
7770,7770,7770,7770,7814,7841,7855,0,7836,5954,7770,7770,7770,7770,7770,7770,
7770,7770,7770,7814,7855,0,7811,7836,7770,7770,7770,7770,7770,7770,7770,7770
</chunk>
   <chunk x="32" y="-16" width="16" height="16">
0,0,0,0,0,0,0,0,0,0,0,0,0,0,0,0,
0,0,0,0,0,0,0,0,0,0,0,0,0,0,0,0,
0,0,0,0,0,0,0,0,0,0,0,0,0,0,0,0,
0,0,0,0,0,0,0,0,0,0,0,0,0,0,0,0,
0,0,0,0,0,0,0,0,0,0,0,0,0,0,0,0,
0,0,0,0,0,0,0,0,0,0,0,0,0,0,0,0,
0,0,0,0,0,0,0,0,0,0,0,0,0,0,0,0,
0,0,0,0,0,0,0,0,0,0,0,0,0,0,0,0,
0,0,0,0,0,0,0,0,0,0,0,0,0,0,0,0,
5925,0,0,0,0,0,0,0,0,0,0,0,0,0,0,0,
2684360553,5925,0,0,0,0,0,0,0,0,0,0,0,0,0,0,
7770,2684360553,5936,5936,5924,5936,5924,5925,0,0,0,0,0,0,0,0,
7770,7770,7770,7770,7770,7770,7770,2684360553,5925,0,0,0,0,0,0,0,
7770,7770,7770,7770,7770,7770,7770,7770,2684360553,5936,5924,5935,5935,5924,5925,0,
7770,7770,7770,7770,7770,7770,7770,7770,7770,7770,7770,7770,7770,7770,2684360553,5925,
7770,7770,7770,7770,7770,7770,7770,7770,7770,7770,7770,7770,7770,7770,7770,2684360553
</chunk>
   <chunk x="48" y="-16" width="16" height="16">
0,0,0,0,0,0,0,0,0,0,0,0,0,0,0,0,
0,0,0,0,0,0,0,0,0,0,0,0,0,0,0,0,
0,0,0,0,0,0,0,0,0,0,0,0,0,0,0,0,
0,0,0,0,0,0,0,0,0,0,0,0,0,0,0,0,
0,0,0,0,0,0,0,0,0,0,0,0,0,0,0,0,
0,0,0,0,0,0,0,0,0,0,0,0,0,0,0,0,
0,0,0,0,0,0,0,0,0,0,0,0,0,0,0,0,
0,0,0,0,0,0,0,0,0,0,0,0,0,0,0,0,
0,0,0,0,0,0,0,0,0,0,0,0,0,0,0,0,
0,0,0,0,0,0,0,0,0,0,0,0,0,0,0,0,
0,0,0,0,0,0,0,0,0,0,0,0,0,0,0,0,
0,0,0,0,0,0,0,0,0,0,0,0,0,0,0,0,
0,0,0,0,0,0,0,0,0,0,0,0,0,0,0,0,
0,0,0,0,0,0,0,0,0,0,0,0,0,0,0,0,
0,0,0,0,0,0,0,0,0,0,0,0,0,0,0,0,
5935,5924,5925,0,0,0,0,0,0,0,0,0,0,0,0,0
</chunk>
   <chunk x="-16" y="0" width="16" height="16">
5954,5954,5954,5954,5954,5954,5954,5954,5954,5954,5954,5954,5954,5954,5954,5954,
7854,7815,5954,5954,5954,5954,5954,5954,5954,5954,5954,5954,5954,5954,5954,5954,
0,7853,7815,5954,5954,5954,5954,5954,5954,5954,5954,5954,5954,5954,5954,5954,
0,0,7832,5954,5954,5954,5954,5954,5954,5954,5954,5954,5954,5954,5954,5954,
0,0,7832,5954,5954,5954,5954,5954,5954,5954,5954,5954,5954,5954,5954,5954,
0,0,7790,7854,7815,5954,5954,5954,5954,5954,5954,5954,5954,5954,5954,5954,
0,0,0,0,7853,7815,5954,5954,5954,5954,5954,5954,5954,5954,5954,5954,
0,0,0,0,0,7853,7854,7841,7854,7841,7854,7815,5954,5954,5954,5954,
0,0,0,0,0,0,0,0,0,0,0,7853,7815,5954,5954,5954,
0,0,0,0,0,0,0,0,0,0,0,0,7853,7854,7815,5954,
7835,5936,7812,7813,0,0,0,0,0,0,0,0,0,0,7853,7854,
5954,5954,7770,7835,7813,0,0,0,0,0,0,0,0,0,0,0,
5954,5954,5954,5954,7835,7813,0,0,0,0,0,0,0,0,0,0,
5954,5954,5954,5954,5954,7835,7813,0,0,0,0,0,0,0,0,0,
5954,5954,5954,5954,5954,7770,7835,7813,0,0,0,0,0,0,0,0,
5954,5954,5954,5954,5954,5954,5954,7835,7821,7812,7820,7812,7812,2147491459,0,0
</chunk>
   <chunk x="0" y="0" width="16" height="16">
5954,1610620550,3758104223,1610620572,7770,7770,7770,7770,7770,7770,7770,7770,7770,7770,7770,7770,
5954,5954,1610620550,1610620547,0,0,5954,5954,5954,5954,5954,5954,5954,5954,5954,5954,
5954,5954,5954,0,0,0,0,5954,5954,5954,5954,5954,5954,5954,5954,5954,
5954,5954,5954,5954,5954,0,0,0,5954,5954,5954,5954,5954,5954,5954,5954,
5954,5954,5954,5954,5954,5954,5954,5954,5954,5954,5954,5954,7814,7841,7854,7841,
5954,5954,5954,5954,5954,5954,5954,5954,5954,5954,5954,2147491463,7838,7820,7812,7821,
5954,5954,5954,5954,5954,5954,5954,5954,5954,5954,7814,2147491487,7836,5954,5954,5954,
5954,5954,5954,5954,5954,5954,5954,5954,5954,2147491463,7838,7836,5954,5954,5954,5954,
5954,5954,5954,5954,5954,5954,5954,5954,7814,2147491487,2147491483,5954,5954,5954,5954,5954,
5954,5954,5954,5954,5954,5954,5954,7814,7838,7836,5954,5954,5954,5954,7770,5954,
7815,7770,5954,5954,5954,5954,5954,2147491480,7822,5954,5954,5954,5954,7770,7770,7770,
7853,7815,5954,5954,5954,5954,5954,2147491480,7822,5954,5954,7770,7770,7770,7770,7770,
5868,6223,5984,6205,6205,5933,5954,7834,7832,5954,7770,7770,7770,7770,7770,7770,
5868,5868,5868,5868,5868,5983,6224,5824,5825,5966,5933,5954,5954,5954,5954,5954,
5868,5868,5868,5868,5868,5868,0,5854,5855,6013,5963,5954,5954,5954,5954,5954,
5868,5868,5868,5868,5868,5868,5868,5860,5861,5923,5993,5954,5954,5954,5954,5954
</chunk>
   <chunk x="16" y="0" width="16" height="16">
7770,7770,7770,1610620590,0,0,7836,5954,7770,7770,7770,7770,7770,7770,7770,7770,
5954,5954,7814,7855,7811,7836,5954,5954,7770,7770,7770,7770,7770,7770,7814,7855,
5954,7814,7855,7811,7836,5954,7770,7814,7854,7854,7815,7770,7814,7854,7855,0,
7814,7855,7811,7836,5954,7770,7814,7855,0,5806,5822,5984,5821,5807,0,0,
7855,7811,7836,5954,5954,7770,7834,0,5806,5839,5894,6014,5803,5837,0,0,
7812,7836,5954,5954,5954,7770,2147491470,0,5836,5804,5815,5816,5873,0,0,0,
5954,5954,5954,5954,5954,7770,2147491480,0,0,0,0,0,0,0,0,0,
5954,5954,5954,5954,5954,5954,7835,7812,7813,0,0,0,0,0,0,0,
5954,5954,5954,5954,5954,7770,7770,7770,7835,7821,7813,0,0,0,0,0,
5954,5954,5954,5926,5927,7770,7770,7770,7770,7770,7834,0,5806,5807,0,5806,
5954,5954,5954,5956,5957,7770,7770,7770,7770,7770,7835,7813,5836,5837,0,5836,
5954,5954,5954,5954,5954,7770,7770,7770,7770,7770,7770,7835,7812,2147491459,0,0,
7770,5932,5984,5933,5954,5954,7770,7770,7770,7770,7770,7770,7770,7835,7813,0,
5926,5959,6014,5960,5927,5954,5954,7770,7770,7770,7770,7770,7770,7770,7835,7813,
5956,5925,0,5923,5957,5954,5954,5954,7770,7770,0,0,0,0,7770,7835,
5954,5992,5924,5993,5954,5954,5954,5954,5954,0,0,0,0,0,7770,7770
</chunk>
   <chunk x="32" y="0" width="16" height="16">
7770,7770,7770,7770,7770,7770,7770,7770,7770,7770,7770,7770,7770,7770,7770,7770,
0,7770,0,0,0,0,0,0,0,0,0,0,0,7770,7770,7770,
0,0,0,0,0,0,0,0,0,0,0,0,0,7770,7770,7770,
0,0,0,0,0,0,0,0,0,0,0,0,0,7770,7770,7770,
0,0,0,0,0,0,0,0,0,0,0,0,0,7770,7770,7770,
0,0,0,0,0,0,0,0,0,0,0,0,0,7770,7770,7770,
0,0,0,0,0,0,0,0,0,0,0,0,7770,7770,7770,7770,
0,0,5806,5830,5831,5864,5807,0,0,0,0,0,0,0,0,1610620547,
0,5806,5839,5887,5888,5894,5840,5807,0,0,0,0,0,0,0,0,
5846,5839,0,5914,5915,0,5990,5840,5813,0,0,0,0,0,0,0,
5805,0,0,5917,5918,0,0,5803,5873,0,0,0,0,0,0,7812,
5835,0,0,5887,5888,0,5923,5942,0,0,0,0,0,7811,7836,7770,
5872,5804,5815,5950,5951,5882,5993,7835,7812,7821,7812,7820,7821,7836,7770,7770,
0,0,0,7811,7812,7836,5954,5954,5954,7770,7770,7770,7770,7770,7770,7770,
7812,7820,7812,7836,7770,5954,5954,5954,5954,5954,5954,7770,7770,7770,7770,7770,
7770,7770,7770,7770,5954,5954,5954,5954,5954,5954,5954,5954,5954,5926,6224,5824
</chunk>
   <chunk x="48" y="0" width="16" height="16">
7770,7770,7770,5935,5935,1610618691,5925,0,0,0,0,0,0,0,0,0,
7770,7770,7770,7770,7770,7770,2684360553,5925,0,0,0,0,0,0,0,0,
7770,7770,7770,7770,7770,7770,7770,2684360553,5925,0,0,0,0,0,0,0,
7770,7770,7770,7770,7770,7770,7770,7770,2684360496,0,0,0,0,0,0,0,
7770,7770,7770,7770,7770,7770,7770,7770,2684360484,0,0,0,0,0,0,0,
7770,7770,7770,7770,7770,7770,7770,7770,2684360495,0,0,0,0,0,0,0,
7770,7770,7770,7770,7770,7770,7770,7770,2684360484,0,0,0,0,0,0,0,
7854,7855,7770,7770,7770,7770,7770,7770,2684360495,0,0,0,0,0,0,0,
0,0,7770,7770,7770,7770,7770,7770,2684360495,0,0,0,0,0,0,0,
7811,7821,7770,7770,7770,7770,7770,7770,5955,0,0,0,0,0,0,0,
7836,7770,7770,7770,7770,7770,7770,7770,2684360496,0,0,0,0,0,0,0,
7770,7770,7770,7770,7770,7770,7770,7770,2684360496,0,0,0,0,0,0,0,
7770,7770,7770,7770,7770,7770,7770,7770,2684360484,0,0,0,0,0,0,0,
7770,7770,7770,7770,7770,7770,7770,7770,2684360495,0,0,0,0,0,0,0,
7770,7770,7770,7770,7770,7770,7770,7770,5955,0,0,0,0,0,0,0,
5825,5966,5966,6224,6224,5966,6224,6224,5959,0,0,0,0,0,0,0
</chunk>
   <chunk x="-16" y="16" width="16" height="16">
5954,5954,5954,5954,5954,5954,5954,5954,5954,5954,5954,5954,5954,7835,7813,0,
5954,5954,5954,5954,5954,5954,5954,5954,5954,5954,5954,5954,5954,7770,7835,7821,
5954,5954,5954,5954,5954,5954,5954,5954,5954,5954,5954,5954,5954,5954,5954,5954,
5954,5954,5954,5954,5954,5954,5954,5954,5954,5954,5954,5954,5954,5954,5954,5954,
5954,5954,5954,5954,5954,5954,5954,5954,5954,5954,5954,5954,5954,5954,5954,5954,
5954,5954,5954,5954,5954,5954,5954,5954,7770,5954,5954,5954,5954,5954,5954,5954,
7770,5954,5954,5954,5954,5954,5954,5954,5954,5954,5954,5954,5954,5954,5954,5954,
5954,5954,5954,5954,5954,5954,5954,5954,5954,7770,5954,5954,5954,5954,5954,5954,
5954,5954,5954,5954,5954,5954,5954,5954,5954,5954,5954,5954,5954,5954,5954,5954,
5954,5954,5954,5954,5954,5954,5954,5954,5954,5954,5954,5954,5954,5954,5954,5954,
5954,5954,5954,5954,5954,5954,5954,5954,5954,5954,5954,5954,5954,5954,5954,5954,
5954,5954,5954,5954,5954,5954,5954,5954,5954,5954,5954,5954,5954,5954,5954,5954,
5954,5954,5954,5954,5954,5954,5954,5954,5954,5954,5954,7770,5954,5954,5954,5954,
5954,5954,5954,5954,5954,5954,5954,5954,5954,7770,5954,5954,5954,5954,5954,5954,
5954,5954,5954,5954,5954,5954,5954,5954,5954,5954,5954,5954,5954,5954,5954,5954,
7770,5954,5954,5954,5954,5954,5954,5954,5954,5954,5954,5954,5954,5954,5954,5954
</chunk>
   <chunk x="0" y="16" width="16" height="16">
5868,5868,5868,5868,5868,5868,5868,5890,5891,5963,5954,5954,5954,5954,5954,5954,
7813,0,0,0,0,0,5803,5950,5951,6002,7815,5954,5954,5954,5954,5954,
7834,0,0,0,5923,5881,5873,5834,5868,0,7832,5954,5954,5954,7770,7770,
7835,7813,0,5923,5993,7835,7813,0,0,5868,7853,7854,7841,7854,7815,7770,
7770,7835,5936,5993,5954,5954,7835,7812,7821,7812,7820,7812,7812,7813,7853,7815,
5954,5954,5954,5954,5954,5954,5954,5954,5954,5954,5954,5954,7770,7835,7813,7853,
5954,5954,5954,5954,5954,5954,5954,5954,5954,5954,5954,5954,7770,7770,7835,7812,
5954,5954,5954,5954,5954,5954,5954,5954,5954,5954,5954,5954,7770,7770,7770,7770,
5954,5954,5954,5954,5954,5954,5954,5954,5954,5954,5954,5954,5954,5954,5954,5954,
5954,5954,5954,5954,5954,5954,5954,5954,5954,5954,5954,5954,5954,5954,5954,5954,
5954,5954,5954,5954,5954,5954,5954,5954,5954,5954,5954,5954,5954,5954,5954,5954,
5954,5954,5954,5954,5954,5954,5954,5954,5954,5954,5954,5954,5954,5954,5926,5984,
5954,5954,5954,5954,5954,5954,5954,5954,5954,5954,5954,5954,5954,5926,5959,6014,
5954,5954,5954,5954,5954,7770,5954,5954,5954,5954,5954,7770,5954,5955,0,0,
5954,5954,5954,5954,5954,7770,5954,5954,5954,5954,5954,7770,7814,7855,0,0,
5954,5954,5954,5954,7770,5954,5954,5954,5954,5954,5954,7770,5955,0,0,0
</chunk>
   <chunk x="16" y="16" width="16" height="16">
5954,5954,5954,5954,5954,5954,5954,7770,7770,0,0,0,0,0,7770,7770,
7770,7770,5954,5954,5954,5954,7770,7770,7770,0,0,0,0,0,7770,7770,
7770,7770,7770,7770,7770,7770,7770,7770,7770,7770,0,0,0,7770,7770,7770,
7770,7770,7770,7770,7770,7770,7770,7770,7770,7770,0,0,7770,7770,7770,5954,
7770,7770,7770,7770,7770,7770,7770,7770,7770,7770,7770,7770,7770,5954,5954,5954,
7854,7815,7770,7770,7770,7770,7770,7770,7770,7770,7770,7770,5954,7770,5954,5954,
7813,7853,7815,7770,7770,7770,7770,7770,7770,7770,7770,5954,5954,5954,5954,5954,
2147491484,7813,7853,7815,7770,7770,7770,7770,5954,5954,7770,5954,5954,5954,5954,5954,
7770,7835,7813,7832,5954,5954,5954,5954,5954,5954,7770,5954,5954,5954,5954,5954,
5954,5954,7834,7832,5954,5926,5984,5965,5966,5984,5965,5966,5966,5984,5965,5984,
5926,5965,5824,5825,5965,5959,6014,5995,5996,0,0,0,6014,5995,6014,6014,
5959,5995,5944,5945,5995,6014,0,0,0,7665,7665,0,0,0,0,0,
0,0,0,0,0,0,0,0,0,7665,7665,6014,5995,6014,0,0,
0,0,0,0,0,0,0,0,0,7665,7665,0,0,0,0,0,
0,0,0,0,0,6314,7815,7815,7815,0,0,0,0,0,0,0,
0,0,0,0,0,6314,7853,7853,7853,0,0,0,0,0,0,0
</chunk>
   <chunk x="32" y="16" width="16" height="16">
7770,7770,5954,5954,5954,5954,5954,5954,5954,5954,5954,5954,5954,5926,0,5854,
7770,5954,5954,5954,5954,5954,5954,5954,5954,5954,5954,5932,5984,5959,0,5860,
5954,5954,5954,5954,5954,5954,5954,5954,5954,5954,5954,5955,6014,0,0,5890,
5954,5954,5954,5954,5954,5954,5954,5954,5954,5932,5966,5985,0,0,0,5950,
5954,5954,5954,5954,5954,5954,5954,5954,5954,5962,5996,6015,0,0,0,0,
5954,5954,5954,5954,5954,5954,5954,5954,5926,5985,0,0,0,0,0,0,
5954,5954,5954,5954,5954,5954,5926,5984,5959,6015,0,0,0,0,0,0,
5954,5954,5954,5954,5954,5926,5959,6014,0,0,0,0,0,0,0,0,
5954,5954,5954,5926,5966,5959,0,0,0,0,0,0,0,0,0,0,
5966,5827,5828,5959,5996,6015,0,0,0,0,0,0,0,0,0,0,
5996,5890,5891,6015,0,0,0,0,0,0,0,0,0,0,0,0,
0,0,0,0,0,0,0,0,0,0,0,0,0,0,0,0,
0,0,0,0,0,0,0,0,0,0,0,0,0,0,0,0,
0,0,0,0,0,0,0,0,0,0,0,0,0,0,0,0,
0,0,0,0,0,0,0,0,0,0,0,0,0,0,0,0,
0,0,0,0,0,0,0,0,0,0,0,0,0,0,0,0
</chunk>
   <chunk x="48" y="16" width="16" height="16">
5855,0,0,0,0,0,0,0,0,0,0,0,0,0,0,0,
5861,0,0,0,0,0,0,0,0,0,0,0,0,0,0,0,
5891,0,0,0,0,0,0,0,0,0,0,0,0,0,0,0,
5951,6764,6765,0,0,0,0,0,0,0,0,0,0,0,0,0,
0,6554,6795,0,0,0,0,0,0,0,0,0,0,0,0,0,
0,0,6825,0,0,0,0,0,0,0,0,0,0,0,0,0,
0,0,0,0,0,0,0,0,0,0,0,0,0,0,0,0,
0,0,0,0,0,0,0,0,0,0,0,0,0,0,0,0,
0,0,0,0,0,0,0,0,0,0,0,0,0,0,0,0,
0,0,0,0,0,0,0,0,0,0,0,0,0,0,0,0,
0,0,0,0,0,0,0,0,0,0,0,0,0,0,0,0,
0,0,0,0,0,0,0,0,0,0,0,0,0,0,0,0,
0,0,0,0,0,0,0,0,0,0,0,0,0,0,0,0,
0,0,0,0,0,0,0,0,0,0,0,0,0,0,0,0,
0,0,0,0,0,0,0,0,0,0,0,0,0,0,0,0,
0,0,0,0,0,0,0,0,0,0,0,0,0,0,0,0
</chunk>
   <chunk x="-16" y="32" width="16" height="16">
5954,5954,5954,5954,5954,5954,5954,5954,5954,5954,5954,5954,5954,5954,5954,5954,
5954,5954,5954,5954,5954,5954,5954,5954,5954,5954,5954,5954,5954,5954,5954,5954,
5954,5954,5954,5954,5954,5954,5954,5954,5954,5954,5954,5954,5954,5954,7770,5954,
5954,5954,5954,5954,5954,5954,5954,5954,5954,5954,5954,5954,5954,7770,5954,5954,
5954,5954,5954,5926,5954,5954,5954,5954,5954,5954,5954,5954,5954,7770,5954,5954,
7770,5926,5984,5959,5954,5954,5954,5954,5954,5954,5954,5954,5954,7770,5954,5954,
5954,5955,0,0,0,0,0,0,0,0,0,0,0,0,0,0,
7814,7855,0,0,0,0,0,0,0,0,0,0,0,0,0,0,
5955,0,0,0,0,0,0,0,0,0,0,0,0,0,0,0,
5955,0,0,0,0,0,0,0,0,0,0,0,0,0,0,0,
5955,0,0,0,0,0,0,0,0,0,0,0,0,0,0,0,
2147491484,7813,0,0,0,0,0,0,0,0,0,0,0,0,0,0,
7770,7835,0,0,0,0,0,0,0,0,0,0,0,0,0,0,
5954,2147491480,0,0,0,0,0,0,0,0,0,0,0,0,0,0,
5954,2147491480,0,0,0,0,0,0,0,0,0,0,0,0,0,0,
5954,5955,0,0,0,0,0,0,0,0,0,0,0,0,0,0
</chunk>
   <chunk x="0" y="32" width="16" height="16">
5954,5954,5954,5954,5954,5954,5954,5954,5954,5954,5954,7770,6014,5995,6014,0,
5954,5954,5954,5954,5954,5954,5954,5954,5954,5954,5954,5954,0,0,0,0,
5954,5954,5954,5954,5954,5954,5954,5954,5954,5954,5954,5954,0,0,0,0,
5954,5954,5954,5954,5954,5954,5954,5954,5954,5954,5954,5954,5954,0,0,0,
5954,7770,5954,5954,5954,5954,5954,5954,5954,5954,5954,5954,5954,0,0,0,
5954,7770,5954,5954,5954,5954,5954,5954,5954,5954,5954,5954,5954,5954,5954,5954,
0,0,0,0,0,0,0,0,0,0,0,0,0,0,0,0,
0,0,0,0,0,0,0,0,0,0,0,0,0,0,0,0,
0,0,0,0,0,0,0,0,0,0,0,0,0,0,0,0,
0,0,0,0,0,0,0,0,0,0,0,0,0,0,0,0,
0,0,0,0,0,0,0,0,0,0,0,0,0,0,0,0,
0,0,0,0,0,0,0,0,0,0,0,0,0,0,0,0,
0,0,0,0,0,0,0,0,0,0,0,0,0,0,0,0,
0,0,0,0,0,0,0,0,0,0,0,0,0,0,0,0,
0,0,0,0,0,0,0,0,0,0,0,0,0,0,0,0,
0,0,0,0,0,0,0,0,0,0,0,0,0,0,0,0
</chunk>
   <chunk x="16" y="32" width="16" height="16">
0,0,0,5893,0,0,0,0,0,0,0,0,0,0,0,0,
0,5893,0,0,0,0,0,0,0,0,0,0,0,0,0,0,
0,0,0,0,0,0,0,0,0,0,0,0,0,0,0,0,
0,0,0,0,0,0,0,0,0,0,0,0,0,0,0,0,
0,0,0,0,0,0,0,5988,0,6014,5995,6014,0,0,0,0,
5954,5954,5954,0,0,0,0,0,0,5988,0,0,0,0,0,0,
0,0,0,0,0,0,0,0,0,0,0,0,0,0,0,0,
0,0,0,0,0,0,0,0,0,0,0,0,0,0,0,0,
0,0,0,0,0,0,0,0,0,5988,0,0,0,0,0,0,
0,0,0,0,0,0,0,0,0,0,0,0,0,0,0,0,
0,0,0,0,0,0,0,0,0,0,0,0,0,0,0,0,
0,0,0,0,0,0,0,0,0,0,0,0,0,0,0,0,
0,0,0,0,0,0,0,0,0,0,0,0,0,0,0,0,
0,0,0,0,0,0,0,0,0,0,0,0,0,0,0,0,
0,0,0,0,0,0,0,0,0,0,0,0,0,0,0,0,
0,0,0,0,0,0,0,0,0,0,0,0,0,0,0,0
</chunk>
   <chunk x="32" y="32" width="16" height="16">
0,0,0,0,0,0,0,0,0,0,0,0,0,0,0,0,
0,0,0,0,0,0,0,10413,0,0,0,0,0,0,0,0,
0,0,0,0,0,0,0,0,0,0,0,0,0,0,0,0,
0,0,0,0,0,0,0,0,0,0,0,0,0,0,0,3221231397,
0,0,0,0,0,0,0,0,0,0,0,0,0,0,0,0,
0,0,0,0,0,0,0,0,0,0,0,0,0,0,0,0,
0,0,0,0,0,0,0,0,0,0,0,0,0,0,0,0,
0,0,0,0,0,0,0,0,0,0,0,0,0,0,0,0,
0,0,0,0,0,0,0,0,0,0,0,0,0,0,0,0,
0,0,0,0,0,0,0,0,0,0,0,0,0,0,0,0,
0,0,0,0,0,0,0,0,0,0,0,0,0,0,0,0,
0,0,0,0,0,0,0,0,0,0,0,0,0,0,0,0,
0,0,0,0,0,0,0,0,0,0,0,0,0,0,0,0,
0,0,0,0,0,0,0,0,0,0,0,0,0,0,0,0,
0,0,0,0,0,0,0,0,0,0,0,0,0,0,0,0,
0,0,0,0,0,0,0,0,0,0,0,0,0,0,0,0
</chunk>
   <chunk x="-16" y="48" width="16" height="16">
5954,5955,0,0,0,0,0,0,0,0,0,0,0,0,0,0,
5954,5955,0,0,0,0,0,0,0,0,0,0,0,0,0,0,
5954,5955,0,0,0,0,0,0,0,0,0,0,0,0,0,0,
5954,7814,0,0,0,0,0,0,0,0,0,0,0,0,0,0,
6412,7855,0,0,0,0,0,0,0,0,0,0,0,0,0,0,
6442,0,0,0,0,0,0,0,0,0,0,0,0,0,0,0,
6472,0,0,0,0,0,0,0,0,0,0,0,0,0,0,0,
5955,0,0,0,0,0,0,0,0,0,0,0,0,0,0,0,
5955,0,0,0,0,0,0,0,0,0,0,0,0,0,0,0,
6195,0,0,0,0,0,0,0,0,0,0,0,0,0,0,0,
6225,0,0,0,0,0,0,0,0,0,0,0,0,0,0,0,
5955,0,0,0,0,0,0,0,0,0,0,0,0,0,0,0,
5955,0,0,0,0,0,0,0,0,0,0,0,0,0,0,0,
5955,0,0,0,0,0,0,0,0,0,0,0,0,0,0,0,
5955,0,0,0,0,0,0,0,0,0,0,0,0,0,0,0,
6225,0,0,0,0,0,0,0,0,0,0,0,0,0,0,0
</chunk>
  </data>
 </layer>
 <layer id="166" name="main_space2" width="46" height="32">
  <data encoding="csv">
   <chunk x="-16" y="0" width="16" height="16">
0,0,0,0,0,0,0,0,0,0,0,0,0,0,0,0,
0,0,0,0,0,0,0,0,0,0,0,0,0,0,0,0,
0,0,0,0,0,0,0,0,0,0,0,0,0,0,0,0,
0,0,0,0,0,0,0,0,0,0,0,0,0,0,0,0,
0,0,0,0,0,0,0,0,0,0,0,0,0,0,0,0,
10421,10422,0,0,0,0,0,0,0,0,0,0,0,0,0,0,
10428,10429,0,0,0,0,0,0,0,0,0,0,0,0,0,0,
0,0,0,0,0,0,0,0,0,0,0,0,0,0,0,0,
0,0,0,0,0,0,0,0,0,0,0,0,0,0,0,0,
0,0,0,0,0,0,0,0,0,0,0,0,0,0,0,0,
0,0,0,0,0,0,0,0,0,0,0,0,0,0,0,0,
0,0,0,0,0,0,0,0,0,0,0,0,0,0,0,0,
0,0,0,0,0,0,0,0,0,0,0,0,0,0,0,0,
0,0,0,0,0,0,0,0,0,0,0,0,0,0,0,0,
0,0,0,0,0,0,0,0,0,0,0,0,0,0,0,0,
0,0,0,0,0,0,0,0,0,0,0,0,0,0,0,0
</chunk>
   <chunk x="0" y="16" width="16" height="16">
0,0,0,0,0,0,0,0,0,0,0,0,0,0,0,0,
0,0,0,0,0,0,0,0,0,0,0,0,0,0,0,0,
0,0,0,0,0,0,0,0,0,0,0,0,0,0,0,0,
0,0,0,0,0,0,0,0,0,0,0,0,0,0,0,0,
0,0,0,0,0,0,0,0,0,0,0,0,0,0,0,0,
0,0,0,0,0,0,0,0,0,0,0,0,0,0,0,0,
0,0,0,0,0,0,0,0,0,0,0,0,0,0,0,0,
0,0,0,0,0,0,0,0,0,0,0,0,0,0,0,0,
0,0,0,0,0,0,0,0,0,0,0,0,0,0,0,0,
0,0,0,0,0,0,0,0,0,0,0,0,0,0,0,0,
0,0,0,0,0,0,0,0,0,0,0,0,0,0,0,0,
0,0,0,0,0,0,0,0,0,0,0,0,0,0,0,0,
0,0,0,0,0,0,0,0,0,0,0,0,0,0,0,5923,
0,0,0,0,0,0,0,0,0,0,0,0,0,0,0,5953,
0,0,0,0,0,0,0,0,0,0,0,0,0,0,5923,5993,
0,0,0,0,0,0,0,0,0,0,0,0,0,0,5953,5954
</chunk>
   <chunk x="16" y="16" width="16" height="16">
0,0,0,0,0,0,0,0,0,0,0,0,0,0,0,0,
0,0,0,0,0,0,0,0,0,0,0,0,0,0,0,0,
0,0,0,0,0,0,0,0,0,0,0,0,0,0,0,0,
0,0,0,0,0,0,0,0,0,0,0,0,0,0,0,0,
0,0,0,0,0,0,0,0,0,0,0,0,0,0,0,0,
0,0,0,0,0,0,0,0,0,0,0,0,0,0,0,0,
0,0,0,0,0,0,0,0,0,0,0,0,0,0,0,0,
0,0,0,0,0,0,0,0,0,0,0,0,0,0,0,0,
0,0,0,0,0,0,0,0,0,0,0,0,0,0,0,0,
0,0,0,0,0,0,0,0,0,0,0,0,0,0,0,0,
0,0,0,0,0,0,5923,5936,5924,5935,5924,5936,5936,5925,0,0,
0,5923,5881,5882,5936,5924,5993,5954,5954,5954,5954,5954,5954,5992,5936,5924,
5924,5993,7835,7839,7815,5954,5954,5954,5954,5954,5954,5954,5954,5954,5954,5954,
5954,5954,5954,7835,7839,7815,5954,5954,5954,5954,5954,5954,5954,5954,7814,7854,
5954,5954,5954,7814,7855,0,7815,7770,5954,5954,5954,7814,7854,7841,7855,0,
5954,5954,5954,7835,7813,0,7853,7815,5954,5954,7814,7855,0,0,0,0
</chunk>
   <chunk x="32" y="16" width="16" height="16">
0,0,0,0,0,0,0,0,0,0,0,0,0,0,0,0,
0,0,0,0,0,0,0,0,0,0,0,0,0,0,0,0,
0,0,0,0,0,0,0,0,0,0,0,0,0,0,0,0,
0,0,0,0,0,0,0,0,0,0,0,0,5923,5936,5924,6427,
0,0,0,0,0,0,0,0,0,0,5923,5924,5993,5954,5954,7814,
0,0,0,0,0,0,0,0,0,0,5953,5954,5954,5954,7814,7855,
0,0,0,0,0,0,0,0,0,5923,5993,5954,5954,7814,7855,0,
0,0,0,0,0,0,0,5923,5924,5993,5954,5954,7814,7855,0,0,
0,0,0,0,0,0,2147489573,2147489640,5954,7814,7854,7841,7855,0,7820,7836,
0,0,0,0,0,5923,5993,5954,7814,7855,0,0,7811,7836,5954,5954,
0,0,0,0,5923,5993,5954,7814,7855,0,0,0,7836,5954,5954,5926,
5935,5947,5948,5924,5993,5954,7814,7855,7811,7812,7820,7836,5954,5954,5926,5985,
5954,5954,5954,7814,7854,7854,7855,0,7836,5954,5954,5954,5932,5984,5985,0,
7841,7854,7841,7855,0,0,0,7836,3221233308,5954,5864,5864,5865,0,0,0,
0,0,0,7811,7812,7820,7836,5954,2684362372,0,0,0,0,0,0,0,
7811,7812,7812,7836,5954,5954,5954,3221233308,7770,0,0,0,0,0,0,6013
</chunk>
   <chunk x="48" y="16" width="16" height="16">
0,0,0,0,0,0,0,0,0,0,0,0,0,0,0,0,
0,0,0,0,0,0,0,0,0,0,0,0,0,0,0,0,
0,0,0,0,0,0,0,0,0,0,0,0,0,0,0,0,
6428,0,0,0,0,0,0,0,0,0,0,0,0,0,0,0,
7855,0,0,0,0,0,0,0,0,0,0,0,0,0,0,0,
0,0,0,0,0,0,0,0,0,0,0,0,0,0,0,0,
7811,7820,5925,0,0,0,0,0,0,0,0,0,0,0,0,0,
7836,5954,0,0,0,0,0,0,0,0,0,0,0,0,0,0,
5954,5954,5926,0,0,0,0,0,0,1610618661,0,0,0,0,0,0,
5954,5926,5959,0,5923,5936,5924,5935,5924,5993,0,0,0,0,0,0,
5984,5985,0,0,5953,5954,5954,5954,5954,5954,0,0,0,0,0,0,
0,0,5923,5924,5993,5954,5954,5954,5954,5954,0,0,0,0,0,0,
0,0,5953,5954,5954,5954,5954,5954,5954,5954,0,0,0,0,0,0,
5923,5935,5993,5954,5954,5954,5954,5954,5954,5954,0,0,0,0,0,0,
5953,5954,5954,5954,5954,5954,5954,5954,5954,5954,0,0,0,0,0,0,
5963,5954,5954,5954,5954,5954,5954,5954,5954,5954,0,0,0,0,0,0
</chunk>
   <chunk x="0" y="32" width="16" height="16">
0,0,0,0,0,0,0,0,0,0,0,0,6196,5924,5993,5954,
0,0,0,0,0,0,0,0,0,0,0,0,5954,5954,5954,5954,
0,0,0,0,0,0,0,0,0,0,0,0,5954,5954,5954,5954,
0,0,0,0,0,0,0,0,0,0,0,0,5954,5954,5954,5954,
0,0,0,0,0,0,0,0,0,0,0,0,5954,5954,5954,5954,
0,0,0,0,0,0,0,0,0,0,0,0,0,0,0,0,
0,0,0,0,0,0,0,0,1610620547,3758104206,2684362394,0,7853,7854,7841,7854,
0,0,0,0,0,0,0,0,0,0,0,0,0,0,0,0,
0,0,0,0,0,0,0,0,0,0,0,0,0,0,0,0,
0,0,0,0,0,0,0,0,0,0,0,0,0,0,0,0,
0,0,0,0,0,0,0,0,0,0,0,0,0,0,0,0,
0,0,0,0,0,0,0,0,0,0,0,0,0,0,0,0,
0,0,0,0,0,0,0,0,0,0,0,0,0,0,0,0,
0,0,0,0,0,0,0,0,0,0,0,0,0,0,0,0,
0,0,0,0,0,0,0,0,0,0,0,0,0,0,0,0,
0,0,0,0,0,0,0,0,0,0,0,0,0,0,0,0
</chunk>
   <chunk x="16" y="32" width="16" height="16">
5954,5954,5954,5954,7835,7813,0,7853,7854,7841,7855,0,0,7811,7820,7812,
5954,5954,5954,5954,7770,7835,0,0,0,0,0,7811,7812,7836,5954,5954,
5954,5954,5954,5954,5954,7834,0,0,0,7820,7812,7836,7770,5954,5954,5954,
5954,5954,5954,5954,5954,7835,0,7811,7836,5954,5954,5954,5954,5954,5954,5954,
5954,5954,5954,5954,5954,7834,0,1073749646,5954,5954,5954,5954,5954,5954,5954,5954,
0,0,0,5954,7770,2147491470,0,7836,5954,5954,5954,5954,5954,5954,5954,5954,
7841,7854,7841,7854,7841,7855,0,3221233306,5954,5954,5954,5954,5954,5954,5954,5954,
0,0,0,0,0,0,0,3221233307,5954,5954,5954,5954,5954,5954,5954,5954,
0,0,0,7820,7813,0,0,2147491482,5954,5954,5954,5954,5954,5954,5954,5954,
0,0,0,5954,7835,0,0,7822,5954,5954,5954,5954,5954,5954,5954,5954,
0,0,0,5954,7834,0,0,2147491482,5954,5954,5954,5954,5954,5954,5954,5954,
0,0,0,5954,7835,0,0,7815,5954,5954,5954,5954,5954,5954,5954,5954,
0,0,0,5954,7834,0,0,7853,7815,7770,5954,5954,5954,5954,7814,7854,
0,0,0,5954,2147491470,0,0,0,7853,7815,5954,5954,5954,7814,7855,5954,
0,0,0,5954,7834,0,0,0,0,7853,7854,7841,7854,7855,0,0,
0,0,0,5954,2147491470,0,0,0,0,0,7811,2684362371,0,0,0,0
</chunk>
   <chunk x="32" y="32" width="16" height="16">
7836,5954,5954,5954,5954,7814,7855,0,0,0,0,0,0,0,0,5923,
5954,5954,5954,5954,3221233308,7855,0,0,0,0,0,0,0,0,0,5963,
5954,5954,5954,5954,5925,0,0,0,0,0,0,0,0,0,0,5953,
5954,5954,5954,5954,0,0,0,0,0,0,0,0,0,0,0,1610618672,
5954,5954,5954,0,0,0,0,0,0,0,0,0,0,0,0,1610618660,
5954,5954,5954,0,0,0,0,0,0,0,0,0,0,0,0,1610618671,
5954,5954,5954,0,0,0,0,0,0,0,0,0,0,0,0,1610618660,
5954,5954,3221233308,0,0,0,0,0,0,0,0,0,0,0,0,1610618672,
5954,5954,2684362372,0,0,0,0,0,0,0,0,0,0,0,0,1610618660,
5954,3221233308,0,0,0,0,0,0,0,3075,3076,3077,3078,3079,3080,1610618659,
3221233308,2684362372,0,0,0,0,0,3110,3111,3112,3113,3114,3115,3116,3117,3118,
2684362372,0,0,0,0,0,0,3147,3148,3149,3150,3151,3152,3153,3154,3155,
0,0,0,0,0,0,0,3184,3185,3186,3187,3188,3189,3190,3191,3192,
0,0,0,0,0,0,0,0,0,0,0,0,0,0,0,0,
0,0,0,0,0,0,0,0,0,0,0,0,0,0,0,0,
0,0,0,0,0,0,0,0,0,0,0,0,0,0,3073,3074
</chunk>
   <chunk x="48" y="32" width="16" height="16">
5993,5954,5954,5954,5954,5954,5954,5954,5954,5954,0,0,0,0,0,0,
5954,5954,5954,5954,5954,5954,5954,5954,5954,5954,0,0,0,0,0,0,
5954,5954,5954,5954,5954,5954,5954,5954,5954,5954,0,0,0,0,0,0,
5954,5954,5954,5954,5954,5954,5954,5954,5954,5954,0,0,0,0,0,0,
5954,5954,5954,5954,5954,5954,5954,5954,5954,5954,0,0,0,0,0,0,
5954,5954,5954,5954,5954,5954,5954,5954,5954,5954,0,0,0,0,0,0,
5954,5954,5954,5954,5954,5954,5954,5954,5954,5954,0,0,0,0,0,0,
5954,5954,5954,5954,5954,5954,5954,5954,5954,5954,0,0,0,0,0,0,
1610618690,5954,5954,5954,5954,5954,5954,5954,5954,5954,0,0,0,0,0,0,
1610618729,5954,5954,5954,5954,5954,5954,5954,5954,5954,0,0,0,0,0,0,
3221231397,1610618729,5954,5954,5954,5954,5954,5954,5954,5954,0,0,0,0,0,0,
3156,3221231397,3221231396,3221231407,3221231396,3221231408,3221231396,3221231407,3221231396,3221231408,0,0,0,0,0,0,
3193,3194,3195,3196,0,0,0,0,0,0,0,0,0,0,0,0,
0,0,0,0,0,0,0,0,0,0,0,0,0,0,0,0,
0,0,0,0,0,0,0,0,0,0,0,0,0,0,0,0,
3075,3076,3077,3078,3079,3080,3081,3082,3083,3084,3085,0,0,0,0,0
</chunk>
   <chunk x="0" y="48" width="16" height="16">
0,0,0,0,0,0,0,0,0,0,0,0,0,0,0,0,
0,0,0,0,0,0,0,0,0,0,0,0,0,0,0,0,
0,0,0,0,0,0,0,0,0,0,0,0,0,0,0,0,
0,0,0,0,0,0,0,0,0,0,0,0,0,0,0,0,
0,0,0,0,0,0,0,0,0,0,0,0,0,0,0,0,
0,0,0,0,0,0,0,0,0,0,0,0,0,0,0,0,
0,0,0,0,0,0,0,0,0,0,0,0,0,0,0,0,
0,0,0,0,0,0,0,0,0,0,0,0,0,0,0,0,
0,0,0,0,0,0,0,0,0,0,0,0,0,0,0,0,
0,0,0,0,0,0,0,0,0,0,0,0,0,0,0,0,
0,0,0,0,0,0,0,0,0,0,0,0,0,0,0,7820,
0,0,0,0,0,0,0,0,0,0,0,0,0,0,0,5954,
0,0,0,0,0,0,0,0,0,0,0,0,0,0,0,5954,
0,0,0,0,0,0,0,0,0,0,0,0,0,0,0,5954,
0,0,0,0,0,0,0,0,0,0,0,0,0,0,0,5954,
0,0,0,0,0,0,0,0,0,0,0,0,0,0,0,7841
</chunk>
   <chunk x="16" y="48" width="16" height="16">
0,0,0,5954,7835,0,0,0,0,7836,5954,2147491470,0,6075,0,0,
0,0,0,5954,7834,0,0,0,7836,5954,3221233308,7855,0,0,0,0,
0,0,0,5954,7835,0,0,7836,5954,5954,7834,0,0,0,0,0,
0,0,0,5954,7835,0,3221233327,5954,5954,5954,2147491470,0,0,0,0,0,
0,0,0,5954,7834,0,1073749646,5954,5954,5954,2684362372,0,0,0,0,0,
0,0,0,5954,7835,0,3221233306,5954,5954,3221233308,0,0,0,0,0,0,
0,0,0,7841,7855,0,1073749646,5954,5954,7834,0,0,0,0,0,0,
0,0,0,0,0,0,3221233306,5954,5954,2147491470,0,0,0,0,0,0,
0,0,0,0,0,0,1610620547,3758104206,2684362394,7834,0,0,0,0,0,0,
0,0,0,0,0,0,0,0,0,2147491470,0,0,0,0,0,0,
7812,7812,2147491483,7812,0,0,0,0,0,2684362372,0,0,0,0,0,0,
5954,5954,5954,7834,0,7811,2684362396,1610620570,536878734,7834,0,0,0,0,0,0,
5954,5954,5954,2147491470,0,3221233306,5954,5954,5954,2147491470,0,0,0,0,0,0,
5954,5954,5954,7834,0,1073749646,5954,5954,5954,7834,0,0,0,0,0,0,
5954,5954,5954,2147491470,0,3221233306,5954,5954,5954,2147491470,0,0,0,0,0,0,
7854,7854,7841,7855,0,7841,7854,7854,7841,7855,0,0,0,0,0,0
</chunk>
   <chunk x="32" y="48" width="16" height="16">
0,0,0,0,0,0,0,0,0,0,0,0,0,0,3110,3111,
0,0,0,0,0,0,0,0,0,0,0,0,0,0,3147,3148,
0,0,0,0,0,0,0,0,0,0,0,0,0,0,3184,3185,
0,0,0,0,0,0,0,0,0,0,0,0,0,0,0,0,
0,0,0,0,0,0,0,0,0,0,0,0,0,0,0,0,
0,0,0,0,0,0,0,0,0,0,0,0,0,0,0,0,
0,0,0,0,0,0,0,0,0,0,0,0,0,0,0,0,
0,0,0,0,0,0,0,0,0,0,0,0,0,0,0,0,
0,0,0,0,0,0,0,0,0,0,0,0,0,0,0,0,
0,0,0,0,0,0,0,0,0,0,0,0,3073,3074,3075,3076,
0,0,0,0,0,0,0,0,0,0,0,0,3110,3111,3112,3113,
0,0,0,0,0,0,0,0,0,0,0,0,3147,3148,3149,3150,
0,0,0,0,0,0,0,0,0,0,0,0,3184,3185,3186,3187,
0,0,0,0,0,0,0,0,0,0,0,0,0,0,0,0,
0,0,0,0,0,0,0,0,0,0,0,0,0,0,0,0,
0,0,0,0,0,0,0,0,0,0,0,0,0,0,0,0
</chunk>
   <chunk x="48" y="48" width="16" height="16">
3112,3113,3114,3115,3116,3117,3118,3119,3120,3121,3122,0,0,0,0,0,
3149,3150,3151,3152,3153,3154,3155,3156,3157,3158,3159,0,0,0,0,0,
3186,3187,3188,3189,3190,3191,3192,3193,3194,3195,3196,0,0,0,0,0,
0,0,0,0,0,0,0,0,0,0,0,0,0,0,0,0,
0,0,0,0,0,0,0,0,0,0,0,0,0,0,0,0,
0,0,0,0,0,0,0,0,0,0,0,0,0,0,0,0,
0,0,0,0,0,0,0,0,0,0,0,0,0,0,0,0,
0,0,0,0,0,0,0,0,0,0,0,0,0,0,0,0,
0,0,0,0,0,0,0,0,0,0,0,0,0,0,0,0,
3077,3078,3079,3080,3081,3082,3083,3084,3085,0,0,0,0,0,0,0,
3114,3115,3116,3117,3118,3119,3120,3121,3122,0,0,0,0,0,0,0,
3151,3152,3153,3154,3155,3156,3157,3158,3159,0,0,0,0,0,0,0,
3188,3189,3190,3191,3192,3193,3194,3195,3196,0,0,0,0,0,0,0,
0,0,0,0,0,0,0,0,0,0,0,0,0,0,0,0,
0,0,0,0,0,0,0,0,0,0,0,0,0,0,0,0,
0,0,0,0,0,0,0,0,0,0,0,0,0,0,0,0
</chunk>
   <chunk x="-16" y="64" width="16" height="16">
536878734,1610620570,536878734,1610620571,1610620570,1610620570,536878734,1610620570,536878734,1610620571,1610620570,1610620570,1610620570,536878734,1610620571,1610620570,
0,0,0,0,0,0,0,0,0,0,0,0,0,0,0,0,
0,0,0,0,0,0,0,0,0,0,0,0,0,0,0,0,
0,0,0,0,0,0,0,0,0,0,0,0,0,0,0,0,
0,0,0,0,0,0,0,0,0,0,0,0,0,0,0,0,
0,0,0,0,0,0,0,0,0,0,0,0,0,0,0,0,
0,0,0,0,0,0,0,0,0,0,0,0,0,0,0,0,
0,0,0,0,0,0,0,0,0,0,0,0,0,0,0,0,
0,0,0,0,0,0,0,0,0,0,0,0,0,0,0,0,
0,0,0,0,0,0,0,0,0,0,0,0,0,0,0,0,
0,0,0,0,0,0,0,0,0,0,0,0,0,0,0,0,
0,0,0,0,0,0,0,0,0,0,0,0,0,0,0,0,
0,0,0,0,0,0,0,0,0,0,0,0,0,0,0,0,
0,0,0,0,0,0,0,0,0,0,0,0,0,0,0,0,
0,0,0,0,0,0,0,0,0,0,0,0,0,0,0,0,
0,0,0,0,0,0,0,0,0,0,0,0,0,0,0,0
</chunk>
   <chunk x="0" y="64" width="16" height="16">
1610620570,1610620570,1610620570,536878734,1610620571,1610620570,1610620570,1610620570,1610620570,1610620570,536878734,1610620571,1610620570,1610620570,1610620570,536878734,
0,0,0,0,0,0,0,0,0,0,0,0,0,0,0,0,
0,0,0,0,0,0,0,0,0,0,0,0,0,0,0,0,
0,0,0,0,0,0,0,0,0,0,0,0,0,0,0,0,
0,0,0,0,0,0,0,0,0,0,0,0,0,0,0,0,
0,0,0,0,0,0,0,0,0,0,0,0,0,0,0,0,
0,0,0,0,0,0,0,0,0,0,0,0,0,0,0,0,
0,0,0,0,0,0,0,0,0,0,0,0,0,0,0,0,
0,0,0,0,0,0,0,0,0,0,0,0,0,0,0,0,
0,0,0,0,0,0,0,0,0,0,0,0,0,0,0,0,
0,0,0,0,0,0,0,0,0,0,0,0,0,0,0,0,
0,0,0,0,0,0,0,0,0,0,0,0,0,0,0,0,
0,0,0,0,0,0,0,0,0,0,0,0,0,0,0,0,
0,0,0,0,0,0,0,0,0,0,0,0,0,0,0,0,
0,0,0,0,0,0,0,0,0,0,0,0,0,0,0,0,
0,0,0,0,0,0,0,0,0,0,0,0,0,0,0,0
</chunk>
   <chunk x="16" y="64" width="16" height="16">
1610620571,1610620570,536878734,1610620571,1610620570,1610620570,1610620570,536878734,1610620571,1610620570,2684362371,0,0,0,0,0,
0,0,0,0,0,0,0,0,0,0,6314,0,0,0,0,0,
0,0,0,0,0,0,0,0,0,0,0,0,0,0,0,0,
0,0,0,0,0,0,0,0,0,0,0,0,0,0,0,0,
0,0,0,0,0,0,0,0,0,0,0,0,0,0,0,0,
0,0,0,0,0,0,0,0,0,0,0,0,0,0,0,0,
0,0,0,0,0,0,0,0,0,0,0,0,0,0,0,0,
0,0,0,0,0,0,0,0,0,0,0,0,0,0,0,0,
0,0,0,0,0,0,0,0,0,0,0,0,0,0,0,0,
0,0,0,0,0,0,0,0,0,0,0,0,0,0,0,0,
0,0,0,0,0,0,0,0,0,0,0,0,0,0,0,0,
0,0,0,0,0,0,0,0,0,0,0,0,0,0,0,0,
0,0,0,0,0,0,0,0,0,0,0,0,0,0,0,0,
0,0,0,0,0,0,0,0,0,0,0,0,0,0,0,0,
0,0,0,0,0,0,0,0,0,0,0,0,0,0,0,0,
0,0,0,0,0,0,0,0,0,0,0,0,0,0,0,0
</chunk>
  </data>
 </layer>
 <layer id="208" name="main_space3" width="46" height="32">
  <data encoding="csv">
   <chunk x="-16" y="16" width="16" height="16">
0,0,0,0,0,0,0,0,0,0,0,0,0,0,0,0,
12340,12341,12342,12343,12344,0,0,0,0,0,0,0,0,0,0,0,
12348,12349,12350,12351,12352,12340,12341,12342,12343,12344,0,0,0,0,0,0,
0,0,0,0,0,12348,12349,12350,12351,12352,12340,12341,12342,12343,12344,0,
0,0,0,0,0,0,0,0,0,0,12348,12349,12350,12351,12352,12346,
0,0,0,0,0,0,0,0,0,0,0,0,0,0,0,12354,
0,0,0,0,0,0,0,0,0,0,0,0,0,0,0,0,
0,0,0,0,0,0,0,0,0,0,0,0,0,0,0,0,
0,0,0,0,0,0,0,0,0,0,0,0,0,0,0,0,
0,0,0,0,0,0,0,0,0,0,0,0,0,0,0,0,
0,0,0,0,0,0,0,0,0,0,0,0,0,0,0,0,
0,0,0,0,0,0,0,0,0,0,0,0,0,0,0,0,
0,0,0,0,0,0,0,0,0,0,0,0,0,0,0,0,
0,0,0,0,0,0,0,0,0,0,0,0,0,0,0,0,
0,0,0,0,0,0,0,0,0,0,0,0,0,0,0,0,
0,0,0,0,0,0,0,0,0,0,0,0,0,0,0,0
</chunk>
   <chunk x="0" y="16" width="16" height="16">
0,0,0,0,0,0,0,0,0,0,0,0,0,0,0,0,
0,0,0,0,0,0,0,0,0,0,0,0,0,0,0,0,
0,0,0,0,0,0,0,0,0,0,0,0,0,0,0,0,
0,0,0,0,0,0,0,0,0,0,0,0,0,0,0,0,
0,0,0,0,0,0,0,0,0,0,0,0,0,0,0,0,
12342,0,0,0,0,0,0,0,0,0,0,0,0,0,0,0,
12350,12341,12342,0,0,0,0,0,0,0,0,0,0,0,0,0,
0,12349,12350,12344,0,0,0,0,0,0,0,0,0,0,0,0,
0,0,0,12352,12340,12341,12342,0,0,0,0,0,0,0,0,0,
0,0,0,0,12348,12349,12350,11151,0,0,0,0,0,0,0,0,
0,0,0,0,0,0,0,11151,0,0,0,0,0,0,0,0,
0,0,0,0,0,0,0,12341,12342,0,0,0,0,0,0,0,
0,0,0,0,0,0,0,0,0,11151,0,0,0,0,0,0,
0,0,0,0,0,0,0,0,0,11173,0,0,0,0,0,0,
0,0,0,0,0,0,0,0,0,12341,12342,0,0,0,0,0,
0,0,0,0,0,0,0,0,0,0,0,11151,0,0,0,0
</chunk>
   <chunk x="32" y="16" width="16" height="16">
0,0,0,0,0,0,0,0,0,0,0,0,0,0,0,0,
0,0,0,0,0,0,0,0,0,0,0,0,0,0,0,0,
0,0,0,0,0,0,0,0,0,0,0,0,0,0,0,0,
0,0,0,0,0,0,0,0,0,0,0,0,0,0,0,0,
0,0,0,0,0,0,0,0,0,0,0,0,0,0,0,0,
0,0,0,0,0,0,0,0,0,0,0,0,0,0,0,0,
0,0,0,0,0,0,0,0,0,0,0,0,0,0,0,0,
0,0,0,0,0,0,0,0,0,0,0,0,0,0,0,0,
0,0,0,0,0,0,0,0,0,0,0,0,0,0,0,0,
0,0,0,0,0,0,0,0,0,0,0,0,0,0,0,0,
0,0,0,0,0,0,0,0,0,0,0,0,0,0,0,0,
0,0,0,0,0,0,0,0,0,0,0,0,0,0,0,0,
0,0,0,0,0,0,0,0,0,0,0,0,0,0,0,0,
0,0,0,0,0,0,0,0,0,5864,0,0,0,0,0,0,
0,0,0,0,0,0,0,0,0,5835,0,0,0,0,0,0,
0,0,0,0,0,0,0,0,5864,5865,0,0,0,0,0,0
</chunk>
   <chunk x="-16" y="32" width="16" height="16">
0,0,0,0,0,0,0,0,0,0,0,0,0,0,0,0,
0,10977,0,0,0,0,0,0,0,0,0,0,0,0,0,0,
0,0,0,0,0,0,0,0,0,0,0,0,0,0,0,0,
12340,12341,12342,12346,0,0,0,0,0,0,0,0,0,0,0,0,
0,0,0,12354,12357,12358,12344,0,0,0,0,0,0,0,0,0,
0,0,0,0,0,0,12352,12358,12359,12358,12358,12359,12341,12341,12341,12341,
0,0,0,0,0,0,0,0,0,0,0,0,0,0,0,0,
0,0,0,0,0,0,0,0,0,0,0,0,0,0,0,0,
0,0,0,0,0,0,0,0,0,0,0,0,0,0,0,0,
0,0,0,0,0,0,0,0,0,0,0,0,0,0,0,0,
0,0,0,0,0,0,0,0,0,0,0,0,0,0,0,0,
0,0,0,0,0,0,0,0,0,0,0,0,0,0,0,0,
0,0,0,0,0,0,0,0,0,0,0,0,0,0,0,0,
0,0,0,0,0,0,0,0,0,0,0,0,0,0,0,0,
0,0,0,0,0,0,0,0,0,0,0,0,0,0,0,0,
0,0,0,0,0,0,0,0,0,0,0,0,0,0,0,0
</chunk>
   <chunk x="0" y="32" width="16" height="16">
0,0,0,0,0,0,0,0,0,0,0,11173,0,0,0,0,
0,0,0,0,0,0,0,0,0,0,0,11151,0,0,0,0,
0,0,0,0,0,0,0,0,0,0,0,11173,9628,9629,9630,0,
0,0,0,0,0,0,0,0,0,0,0,11151,9660,9661,9662,0,
0,0,0,0,0,0,0,0,0,0,0,11173,9692,9693,9694,0,
12341,12341,12341,12341,12341,12341,12341,12341,12341,12341,12342,11128,0,0,0,0,
0,0,0,0,0,0,0,0,0,0,0,0,0,0,0,0,
0,0,0,0,0,0,0,0,0,0,0,0,0,0,0,0,
0,0,0,0,0,0,0,0,0,0,0,0,0,0,0,0,
0,0,0,0,0,0,0,0,0,0,0,0,0,0,0,0,
0,0,0,0,0,0,0,0,0,0,0,0,0,0,0,0,
0,0,0,0,0,0,0,0,0,0,0,0,0,0,0,0,
0,0,0,0,0,0,0,0,0,0,0,0,0,0,0,0,
0,0,0,0,0,0,0,0,0,0,0,0,0,0,0,0,
0,0,0,0,0,0,0,0,0,0,0,0,0,0,0,0,
0,0,0,0,0,0,0,0,0,0,0,0,0,0,0,0
</chunk>
   <chunk x="16" y="32" width="16" height="16">
0,0,0,0,0,0,0,0,0,0,0,0,0,0,0,0,
0,0,0,0,0,0,0,0,0,0,0,0,0,0,0,0,
0,0,0,0,0,0,0,0,0,0,0,0,0,0,0,0,
0,0,0,0,0,0,0,0,0,0,0,0,0,0,0,0,
0,0,0,0,0,0,0,0,0,0,0,0,0,0,0,0,
0,0,0,0,0,0,0,0,0,0,0,0,0,0,0,0,
0,0,0,0,0,0,0,0,0,0,0,0,0,0,0,0,
0,0,0,0,0,0,0,0,0,0,0,0,0,0,0,0,
0,0,0,0,0,0,0,0,0,0,0,0,0,0,0,0,
0,0,0,0,0,0,0,0,0,0,0,0,0,0,0,0,
0,0,0,0,0,0,0,0,0,0,0,0,0,0,0,0,
0,0,0,0,0,0,0,0,0,0,0,0,0,0,0,0,
0,0,0,0,0,0,0,0,0,0,0,0,0,0,0,0,
0,0,0,0,0,0,0,0,0,0,0,0,0,0,0,5864,
0,0,0,0,0,0,0,0,0,0,0,0,0,0,0,5835,
0,0,0,0,0,0,0,0,0,0,0,0,0,5864,5864,5865
</chunk>
   <chunk x="32" y="32" width="16" height="16">
0,0,0,0,0,0,0,0,5835,0,0,0,0,0,0,0,
0,0,0,0,0,0,0,0,5835,0,0,0,0,0,0,0,
0,0,0,0,5864,5864,5864,5864,5865,0,0,0,0,0,0,0,
0,0,0,0,5835,0,0,0,0,0,0,0,0,0,0,0,
0,0,0,0,5835,0,0,0,0,0,0,0,0,0,0,0,
0,0,0,5864,5865,0,0,0,0,0,0,0,0,0,0,0,
0,0,0,5835,0,0,0,0,0,0,0,0,0,0,0,0,
0,0,0,5835,0,0,0,0,0,0,0,0,0,0,0,0,
0,0,0,5835,0,0,0,0,0,0,0,0,0,0,0,0,
0,0,0,5835,0,0,0,0,0,0,0,0,0,0,0,0,
0,5864,5864,5865,0,0,0,0,0,0,0,0,0,0,0,0,
0,5835,0,0,0,0,0,0,0,0,0,0,0,0,0,0,
0,5835,0,0,0,0,0,0,0,0,0,0,0,0,0,0,
5864,5865,0,0,0,0,0,0,0,0,0,0,0,0,0,0,
0,0,0,0,0,0,0,0,0,0,0,0,0,0,0,0,
0,0,0,0,0,0,0,0,0,0,0,0,0,0,0,0
</chunk>
   <chunk x="16" y="48" width="16" height="16">
0,0,0,0,0,0,0,0,0,0,0,0,0,5835,0,0,
0,0,0,0,0,0,0,0,0,0,0,0,0,5835,0,0,
0,0,0,0,0,0,0,0,0,0,0,5864,5864,5865,0,0,
0,0,0,0,0,0,0,0,0,0,0,5835,0,0,0,0,
0,0,0,0,0,0,0,0,0,0,0,5835,0,0,0,0,
0,0,0,0,0,0,0,0,0,0,0,3221231305,0,0,0,0,
0,0,0,0,0,0,0,0,0,0,0,0,0,0,0,0,
0,0,0,0,0,0,0,0,0,0,0,0,0,0,0,0,
0,0,0,0,0,0,0,0,0,0,0,0,0,0,0,0,
0,0,0,0,0,0,0,0,0,0,0,0,0,0,0,0,
0,0,0,0,0,0,0,0,0,0,0,0,0,0,0,0,
0,0,0,0,0,0,0,0,0,0,0,0,0,0,0,0,
0,0,0,0,0,0,0,0,0,0,0,0,0,0,0,0,
0,0,0,0,0,0,0,0,0,0,0,0,0,0,0,0,
0,0,0,0,0,0,0,0,0,0,0,5835,0,0,0,0,
0,0,0,0,0,0,0,0,0,0,0,5835,0,0,0,0
</chunk>
   <chunk x="-16" y="64" width="16" height="16">
0,0,0,0,0,0,0,0,0,0,0,0,0,0,0,0,
12404,12404,12404,12404,12404,12404,12404,12404,12404,12404,12404,12404,12404,12404,12404,12404,
0,0,0,0,0,0,0,0,0,0,0,0,0,0,0,0,
0,0,0,0,0,0,0,0,0,0,0,0,0,0,0,0,
0,0,0,0,0,0,0,0,0,0,0,0,0,0,0,0,
0,0,0,0,0,0,0,0,0,0,0,0,0,0,0,0,
0,0,0,0,0,0,0,0,0,0,0,0,0,0,0,0,
0,0,0,0,0,0,0,0,0,0,0,0,0,0,0,0,
0,0,0,0,0,0,0,0,0,0,0,0,0,0,0,0,
0,0,0,0,0,0,0,0,0,0,0,0,0,0,0,0,
0,0,0,0,0,0,0,0,0,0,0,0,0,0,0,0,
0,0,0,0,0,0,0,0,0,0,0,0,0,0,0,0,
0,0,0,0,0,0,0,0,0,0,0,0,0,0,0,0,
0,0,0,0,0,0,0,0,0,0,0,0,0,0,0,0,
0,0,0,0,0,0,0,0,0,0,0,0,0,0,0,0,
0,0,0,0,0,0,0,0,0,0,0,0,0,0,0,0
</chunk>
   <chunk x="0" y="64" width="16" height="16">
0,0,0,0,0,0,0,0,0,0,0,0,0,0,0,0,
12404,12404,12404,12404,12404,12404,12404,12404,12404,12404,12404,12404,12404,12404,12404,12404,
0,0,0,0,0,0,0,0,0,0,0,0,0,0,0,0,
0,0,0,0,0,0,0,0,0,0,0,0,0,0,0,0,
0,0,0,0,0,0,0,0,0,0,0,0,0,0,0,0,
0,0,0,0,0,0,0,0,0,0,0,0,0,0,0,0,
0,0,0,0,0,0,0,0,0,0,0,0,0,0,0,0,
0,0,0,0,0,0,0,0,0,0,0,0,0,0,0,0,
0,0,0,0,0,0,0,0,0,0,0,0,0,0,0,0,
0,0,0,0,0,0,0,0,0,0,0,0,0,0,0,0,
0,0,0,0,0,0,0,0,0,0,0,0,0,0,0,0,
0,0,0,0,0,0,0,0,0,0,0,0,0,0,0,0,
0,0,0,0,0,0,0,0,0,0,0,0,0,0,0,0,
0,0,0,0,0,0,0,0,0,0,0,0,0,0,0,0,
0,0,0,0,0,0,0,0,0,0,0,0,0,0,0,0,
0,0,0,0,0,0,0,0,0,0,0,0,0,0,0,0
</chunk>
   <chunk x="16" y="64" width="16" height="16">
0,0,0,0,0,0,0,0,0,0,0,5835,0,0,0,0,
12404,12405,12404,12404,12404,12404,12404,12404,12404,12405,11173,5865,0,0,0,0,
0,0,0,0,0,0,0,0,0,0,0,0,0,0,0,0,
0,0,0,0,0,0,0,0,0,0,0,0,0,0,0,0,
0,0,0,0,0,0,0,0,0,0,0,0,0,0,0,0,
0,0,0,0,0,0,0,0,0,0,0,0,0,0,0,0,
0,0,0,0,0,0,0,0,0,0,0,0,0,0,0,0,
0,0,0,0,0,0,0,0,0,0,0,0,0,0,0,0,
0,0,0,0,0,0,0,0,0,0,0,0,0,0,0,0,
0,0,0,0,0,0,0,0,0,0,0,0,0,0,0,0,
0,0,0,0,0,0,0,0,0,0,0,0,0,0,0,0,
0,0,0,0,0,0,0,0,0,0,0,0,0,0,0,0,
0,0,0,0,0,0,0,0,0,0,0,0,0,0,0,0,
0,0,0,0,0,0,0,0,0,0,0,0,0,0,0,0,
0,0,0,0,0,0,0,0,0,0,0,0,0,0,0,0,
0,0,0,0,0,0,0,0,0,0,0,0,0,0,0,0
</chunk>
  </data>
 </layer>
 <layer id="217" name="down_piles" width="46" height="32">
  <data encoding="csv">
   <chunk x="16" y="48" width="16" height="16">
0,0,0,0,0,0,0,0,0,0,0,0,0,0,0,0,
0,0,0,0,0,0,0,0,0,0,0,0,0,0,0,0,
0,0,0,0,0,0,0,0,0,0,0,0,0,0,0,0,
0,0,0,0,0,0,0,0,0,0,0,0,0,0,0,0,
0,0,0,0,0,0,0,0,0,0,0,0,0,0,0,0,
0,0,0,0,0,0,0,0,0,0,0,0,0,0,0,0,
0,0,0,0,0,0,0,0,0,0,0,0,0,0,0,0,
0,0,0,0,0,0,0,0,0,0,0,0,0,0,0,0,
0,0,0,0,0,0,0,0,0,0,0,0,0,0,0,0,
0,0,0,0,0,0,0,0,0,0,0,0,0,0,0,0,
0,0,0,0,0,0,0,0,0,0,0,0,0,0,0,0,
0,0,0,0,0,0,0,0,0,0,0,0,0,0,0,0,
0,0,0,0,0,0,0,0,0,0,0,0,0,0,0,0,
0,0,0,0,0,0,0,0,0,0,14257,14257,14257,0,0,0,
0,0,0,0,0,0,0,0,0,0,14260,14260,14260,0,0,0,
0,0,0,0,0,0,0,0,0,0,0,0,0,13970,13971,13972
</chunk>
   <chunk x="32" y="48" width="16" height="16">
0,0,0,0,0,0,0,0,0,0,0,0,0,0,0,0,
0,0,0,0,0,0,0,0,0,0,0,0,0,0,0,0,
0,0,0,0,0,0,0,0,0,0,0,0,0,0,0,0,
0,0,0,0,0,0,0,0,0,0,0,0,0,0,0,0,
0,0,0,0,0,0,0,0,0,0,0,0,0,0,0,0,
0,0,0,0,0,0,0,0,0,0,0,0,0,0,0,0,
0,0,0,0,0,0,0,0,0,0,0,0,0,0,0,0,
0,0,0,0,0,0,0,0,0,0,0,0,0,0,0,0,
0,0,0,0,0,0,0,0,0,0,0,0,0,0,0,0,
0,0,0,0,0,0,0,0,0,0,0,0,0,0,0,0,
0,0,0,0,0,0,0,0,0,0,0,0,0,0,0,0,
0,0,0,0,0,0,0,0,0,0,0,0,0,0,0,0,
0,0,0,0,0,14257,0,14257,14257,14257,14257,14257,14257,0,0,0,
0,14257,14257,14257,14257,14257,0,14260,14260,14260,14260,14260,14260,0,0,0,
0,14260,14260,14260,14260,14260,0,0,0,0,0,0,0,0,0,0,
13973,0,0,0,0,0,0,0,0,0,0,0,0,0,0,0
</chunk>
   <chunk x="16" y="64" width="16" height="16">
0,0,0,0,0,0,0,0,0,0,0,0,0,13859,13860,13860,
0,0,0,0,0,0,0,0,0,0,0,0,0,0,0,0,
0,0,0,0,0,0,0,0,0,0,0,0,0,0,0,0,
0,0,0,0,0,0,0,0,0,0,0,0,0,0,0,0,
0,0,0,0,0,0,0,0,0,0,0,0,0,0,0,0,
0,0,0,0,0,0,0,0,0,0,0,0,0,0,0,0,
0,0,0,0,0,0,0,0,0,0,0,0,0,0,0,0,
0,0,0,0,0,0,0,0,0,0,0,0,0,0,0,0,
0,0,0,0,0,0,0,0,0,0,0,0,0,0,0,0,
0,0,0,0,0,0,0,0,0,0,0,0,0,0,0,0,
0,0,0,0,0,0,0,0,0,0,0,0,0,0,0,0,
0,0,0,0,0,0,0,0,0,0,0,0,0,0,0,0,
0,0,0,0,0,0,0,0,0,0,0,0,0,0,0,0,
0,0,0,0,0,0,0,0,0,0,0,0,0,0,0,0,
0,0,0,0,0,0,0,0,0,0,0,0,0,0,0,0,
0,0,0,0,0,0,0,0,0,0,0,0,0,0,0,0
</chunk>
   <chunk x="32" y="64" width="16" height="16">
13861,0,0,0,0,0,0,0,0,0,0,0,0,0,0,0,
0,0,0,0,0,0,0,0,0,0,0,0,0,0,0,0,
0,0,0,0,0,0,0,0,0,0,0,0,0,0,0,0,
0,0,0,0,0,0,0,0,0,0,0,0,0,0,0,0,
0,0,0,0,0,0,0,0,0,0,0,0,0,0,0,0,
0,0,0,0,0,0,0,0,0,0,0,0,0,0,0,0,
0,0,0,0,0,0,0,0,0,0,0,0,0,0,0,0,
0,0,0,0,0,0,0,0,0,0,0,0,0,0,0,0,
0,0,0,0,0,0,0,0,0,0,0,0,0,0,0,0,
0,0,0,0,0,0,0,0,0,0,0,0,0,0,0,0,
0,0,0,0,0,0,0,0,0,0,0,0,0,0,0,0,
0,0,0,0,0,0,0,0,0,0,0,0,0,0,0,0,
0,0,0,0,0,0,0,0,0,0,0,0,0,0,0,0,
0,0,0,0,0,0,0,0,0,0,0,0,0,0,0,0,
0,0,0,0,0,0,0,0,0,0,0,0,0,0,0,0,
0,0,0,0,0,0,0,0,0,0,0,0,0,0,0,0
</chunk>
  </data>
 </layer>
 <layer id="216" name="wooden_dock" width="46" height="32">
  <data encoding="csv">
   <chunk x="16" y="48" width="16" height="16">
0,0,0,0,0,0,0,0,0,0,0,0,0,0,0,0,
0,0,0,0,0,0,0,0,0,0,0,0,0,0,0,0,
0,0,0,0,0,0,0,0,0,0,0,0,0,0,0,0,
0,0,0,0,0,0,0,0,0,0,0,0,0,0,0,0,
0,0,0,0,0,0,0,0,0,0,0,0,0,0,0,0,
0,0,0,0,0,0,0,0,0,0,0,0,0,0,0,0,
0,0,0,0,0,0,0,0,0,0,13831,13820,13821,13822,13823,13824,
0,0,0,0,0,0,0,0,0,2147497522,2147497521,13848,13849,13850,13851,13852,
0,0,0,0,0,0,0,0,0,2147497536,2147497535,13834,13835,13836,13837,13838,
0,0,0,0,0,0,0,0,0,2147497550,2147497549,13848,13849,13850,13851,13852,
0,0,0,0,0,0,0,0,0,2147497550,2147497549,13848,13849,13850,13851,13852,
0,0,0,0,0,0,0,0,0,2147497564,2147497563,13835,13836,13837,13838,13837,
0,0,0,0,0,0,0,0,0,2147497578,2147497577,13835,13836,13837,13838,13837,
0,0,0,0,0,0,0,0,0,0,13859,13863,13864,13956,13957,13958,
0,0,0,0,0,0,0,0,0,0,0,0,0,13970,13971,13972,
0,0,0,0,0,0,0,0,0,0,0,0,0,0,0,0
</chunk>
   <chunk x="32" y="48" width="16" height="16">
0,0,0,0,0,0,0,0,0,0,0,0,0,0,0,0,
0,0,0,0,0,0,0,0,0,0,0,0,0,0,0,0,
0,0,0,0,0,0,0,0,0,0,0,0,0,0,0,0,
0,0,0,0,0,0,0,0,0,0,0,0,0,0,0,0,
0,0,0,0,0,0,0,0,0,0,0,0,0,0,0,0,
0,0,0,0,0,0,0,0,0,0,0,0,0,0,0,0,
13825,13826,13826,13826,13826,13826,13833,13874,0,0,0,0,0,0,0,0,
13853,13854,13854,13854,13854,13854,13873,13874,13875,0,0,0,0,0,0,0,
13839,13840,13840,13840,13840,13840,13887,13888,13822,13822,13823,13824,13825,13833,0,0,
13853,13854,13854,13854,13854,13854,13901,13902,13835,13836,13837,13838,13846,13847,0,0,
13853,13854,13854,13854,13854,13854,13901,13902,13835,13836,13837,13838,13839,13847,0,0,
13838,13839,13839,13839,13839,13839,13915,13916,13849,13850,13851,13852,13853,13847,0,0,
13838,13839,13839,13839,13839,13839,13929,13930,13863,13864,13865,13866,13867,13861,0,0,
13959,13867,13867,13867,13867,13867,13861,0,0,0,0,0,0,0,0,0,
13973,0,0,0,0,0,0,0,0,0,0,0,0,0,0,0,
0,0,0,0,0,0,0,0,0,0,0,0,0,0,0,0
</chunk>
  </data>
 </layer>
 <layer id="218" name="top_piles" width="46" height="32">
  <data encoding="csv">
   <chunk x="16" y="48" width="16" height="16">
0,0,0,0,0,0,0,0,0,0,0,0,0,0,0,0,
0,0,0,0,0,0,0,0,0,0,0,0,0,0,0,0,
0,0,0,0,0,0,0,0,0,0,0,0,0,0,0,0,
0,0,0,0,0,0,0,0,0,0,0,0,0,0,0,0,
0,0,0,0,0,0,0,0,0,0,0,0,0,0,0,0,
0,0,0,0,0,0,0,0,0,0,0,0,0,0,0,0,
0,0,0,0,0,0,0,0,0,0,0,0,0,0,0,0,
0,0,0,0,0,0,0,0,0,0,0,0,0,0,0,0,
0,0,0,0,0,0,0,0,0,0,0,0,0,0,0,0,
0,0,0,0,0,0,0,0,0,0,0,0,0,0,0,0,
0,0,0,0,0,0,0,0,0,0,0,0,0,0,0,0,
0,0,0,0,0,0,0,0,0,0,0,0,0,0,0,0,
0,0,0,0,0,0,0,0,0,0,13949,13949,13949,0,0,0,
0,0,0,0,0,0,0,0,0,0,0,0,0,0,0,0,
0,0,0,0,0,0,0,0,0,0,0,0,0,0,0,0,
0,0,0,0,0,0,0,0,0,0,0,0,0,0,0,0
</chunk>
   <chunk x="32" y="48" width="16" height="16">
0,0,0,0,0,0,0,0,0,0,0,0,0,0,0,0,
0,0,0,0,0,0,0,0,0,0,0,0,0,0,0,0,
0,0,0,0,0,0,0,0,0,0,0,0,0,0,0,0,
0,0,0,0,0,0,0,0,0,0,0,0,0,0,0,0,
0,0,0,0,0,0,0,0,0,0,0,0,0,0,0,0,
0,0,0,0,0,0,0,0,0,0,0,0,0,0,0,0,
0,0,0,0,0,0,0,0,0,0,0,0,0,0,0,0,
0,0,0,0,0,0,0,0,0,0,0,0,0,0,0,0,
0,0,0,0,0,0,0,13949,13949,13949,13949,13949,13949,0,0,0,
0,0,0,0,0,0,0,0,0,0,0,0,0,0,0,0,
0,0,0,0,0,0,0,0,0,0,0,0,0,0,0,0,
0,0,0,0,0,0,16161,13949,13949,13949,13949,13949,13949,0,0,0,
0,13949,13949,13949,13949,13949,16197,16198,16199,0,0,0,0,0,0,0,
0,0,0,0,0,0,16233,16234,16235,0,0,0,0,0,0,0,
0,0,0,0,0,0,16269,16270,16271,0,0,0,0,0,0,0,
0,0,0,0,0,0,16305,16306,16307,0,0,0,0,0,0,0
</chunk>
   <chunk x="32" y="64" width="16" height="16">
0,0,0,0,0,0,16341,16342,16343,0,0,0,0,0,0,0,
0,0,0,0,0,0,0,0,0,0,0,0,0,0,0,0,
0,0,0,0,0,0,0,0,0,0,0,0,0,0,0,0,
0,0,0,0,0,0,0,0,0,0,0,0,0,0,0,0,
0,0,0,0,0,0,0,0,0,0,0,0,0,0,0,0,
0,0,0,0,0,0,0,0,0,0,0,0,0,0,0,0,
0,0,0,0,0,0,0,0,0,0,0,0,0,0,0,0,
0,0,0,0,0,0,0,0,0,0,0,0,0,0,0,0,
0,0,0,0,0,0,0,0,0,0,0,0,0,0,0,0,
0,0,0,0,0,0,0,0,0,0,0,0,0,0,0,0,
0,0,0,0,0,0,0,0,0,0,0,0,0,0,0,0,
0,0,0,0,0,0,0,0,0,0,0,0,0,0,0,0,
0,0,0,0,0,0,0,0,0,0,0,0,0,0,0,0,
0,0,0,0,0,0,0,0,0,0,0,0,0,0,0,0,
0,0,0,0,0,0,0,0,0,0,0,0,0,0,0,0,
0,0,0,0,0,0,0,0,0,0,0,0,0,0,0,0
</chunk>
  </data>
 </layer>
 <layer id="220" name="boat" width="46" height="32">
  <data encoding="csv">
   <chunk x="32" y="48" width="16" height="16">
0,0,0,0,0,0,0,0,0,0,0,0,0,0,0,0,
0,0,0,0,0,0,0,0,0,0,0,0,0,0,0,0,
0,0,0,0,0,0,15105,15106,15107,15108,15109,15110,15111,15112,15113,15114,
0,0,0,0,0,0,15149,15150,15151,15152,15153,15154,15155,15156,15157,15158,
0,0,0,0,0,0,15193,15194,15195,15196,15197,15198,15199,15200,15201,15202,
0,0,0,0,0,0,15237,15238,15239,15240,15241,15242,15243,15244,15245,15246,
0,0,0,0,0,0,15281,15282,15283,15284,15285,15286,15287,15288,15289,15290,
0,0,0,0,0,0,15325,15326,15327,15328,15329,15330,15331,15332,15333,15334,
0,0,0,0,0,0,15369,15370,15371,15372,15373,15374,15375,15376,15377,15378,
0,0,0,0,0,0,0,0,0,0,0,0,0,0,0,0,
0,0,0,0,0,0,0,0,0,0,0,0,0,0,0,0,
0,0,0,0,0,0,0,0,0,16161,16162,16163,16163,0,0,0,
0,0,0,0,0,0,0,0,0,16197,16198,16199,16199,0,0,0,
0,0,0,0,0,0,0,0,0,16233,16234,16235,16235,0,0,0,
0,0,0,0,0,0,0,0,0,16269,16270,16271,0,0,0,0,
0,0,0,0,0,0,0,0,0,16305,16306,16307,0,0,0,0
</chunk>
   <chunk x="48" y="48" width="16" height="16">
0,0,0,0,0,0,0,0,0,0,0,0,0,0,0,0,
0,0,0,0,0,0,0,0,0,0,0,0,0,0,0,0,
15115,0,0,0,0,0,0,0,0,0,0,0,0,0,0,0,
15159,0,0,0,0,0,0,0,0,0,0,0,0,0,0,0,
15203,0,0,0,0,0,0,0,0,0,0,0,0,0,0,0,
15247,0,0,0,0,0,0,0,0,0,0,0,0,0,0,0,
15291,0,0,0,0,0,0,0,0,0,0,0,0,0,0,0,
15335,0,0,0,0,0,0,0,0,0,0,0,0,0,0,0,
15379,0,0,0,0,0,0,0,0,0,0,0,0,0,0,0,
0,0,0,0,0,0,0,0,0,0,0,0,0,0,0,0,
0,0,0,0,0,0,0,0,0,0,0,0,0,0,0,0,
0,0,0,0,0,0,0,0,0,0,0,0,0,0,0,0,
0,0,0,0,0,0,0,0,0,0,0,0,0,0,0,0,
0,0,0,0,0,0,0,0,0,0,0,0,0,0,0,0,
0,0,0,0,0,0,0,0,0,0,0,0,0,0,0,0,
0,0,0,0,0,0,0,0,0,0,0,0,0,0,0,0
</chunk>
   <chunk x="32" y="64" width="16" height="16">
0,0,0,0,0,0,0,0,0,16341,16342,16343,16343,0,0,0,
0,0,0,0,0,0,0,0,0,0,0,0,0,0,0,0,
0,0,0,0,0,0,0,0,0,0,0,0,0,0,0,0,
0,0,0,0,0,0,0,0,0,0,0,0,0,0,0,0,
0,0,0,0,0,0,0,0,0,0,0,0,0,0,0,0,
0,0,0,0,0,0,0,0,0,0,0,0,0,0,0,0,
0,0,0,0,0,0,0,0,0,0,0,0,0,0,0,0,
0,0,0,0,0,0,0,0,0,0,0,0,0,0,0,0,
0,0,0,0,0,0,0,0,0,0,0,0,0,0,0,0,
0,0,0,0,0,0,0,0,0,0,0,0,0,0,0,0,
0,0,0,0,0,0,0,0,0,0,0,0,0,0,0,0,
0,0,0,0,0,0,0,0,0,0,0,0,0,0,0,0,
0,0,0,0,0,0,0,0,0,0,0,0,0,0,0,0,
0,0,0,0,0,0,0,0,0,0,0,0,0,0,0,0,
0,0,0,0,0,0,0,0,0,0,0,0,0,0,0,0,
0,0,0,0,0,0,0,0,0,0,0,0,0,0,0,0
</chunk>
  </data>
 </layer>
 <layer id="212" name="wicket" width="46" height="32">
  <data encoding="csv">
   <chunk x="-16" y="32" width="16" height="16">
0,0,0,0,0,0,0,0,0,0,0,0,0,0,0,0,
0,0,0,0,0,0,0,0,0,0,0,0,0,0,0,0,
0,0,0,0,0,0,0,0,0,0,0,0,0,0,0,0,
0,0,0,0,0,0,0,0,0,0,0,0,0,0,0,0,
0,0,0,0,0,0,0,0,0,0,0,0,0,0,0,0,
0,0,0,0,0,0,0,0,0,0,0,0,0,0,0,0,
0,0,0,0,0,0,0,0,0,0,0,0,0,0,0,0,
0,0,0,0,0,0,0,0,0,0,0,0,0,0,0,0,
0,0,0,0,0,0,0,0,0,0,0,0,0,0,0,0,
0,0,0,0,0,0,0,0,0,0,0,0,0,0,0,0,
0,0,0,0,0,0,0,0,0,0,0,0,0,0,0,0,
0,0,0,0,0,0,0,0,0,0,0,0,0,0,0,0,
0,0,0,0,0,0,0,0,0,0,0,0,0,0,0,0,
0,0,0,0,0,0,0,0,0,0,0,0,0,0,0,0,
0,0,0,0,0,0,0,0,0,0,0,0,0,0,0,0,
0,11133,11134,11134,11134,11134,11134,11134,11134,11135,0,0,0,0,0,0
</chunk>
   <chunk x="0" y="32" width="16" height="16">
0,0,0,0,0,0,0,0,0,0,0,0,0,0,0,0,
0,0,0,0,0,0,0,0,0,0,0,0,0,0,0,0,
0,0,0,0,0,0,0,0,0,0,0,0,0,0,0,0,
0,0,0,0,0,0,0,0,0,0,0,0,0,0,0,0,
0,0,0,0,0,0,0,0,0,0,0,0,0,0,0,0,
0,0,0,0,0,0,0,0,0,0,0,11128,0,0,0,0,
0,0,0,0,0,0,0,0,0,0,0,11127,0,0,0,0,
0,0,0,0,0,0,0,0,0,0,0,11127,11128,11128,11128,11128,
0,0,0,0,0,0,0,0,0,0,0,0,0,0,0,0,
0,0,0,0,0,0,0,0,0,0,0,0,0,0,0,0,
0,0,0,0,0,0,0,0,0,0,0,0,0,0,0,0,
0,0,0,0,0,0,0,0,0,0,0,0,0,0,0,0,
0,0,0,0,0,0,0,0,0,0,0,0,0,0,0,0,
0,0,0,0,0,0,0,0,0,0,0,0,0,0,0,0,
0,0,0,0,0,0,0,0,0,0,0,0,0,0,0,0,
0,0,0,0,0,0,0,0,0,0,0,0,0,0,0,0
</chunk>
   <chunk x="16" y="32" width="16" height="16">
0,0,0,0,0,0,0,0,0,0,0,0,0,0,0,0,
0,0,0,0,0,0,0,0,0,0,0,0,0,0,0,0,
0,0,0,0,0,0,0,0,0,0,0,0,0,0,0,0,
0,0,0,0,0,0,0,0,0,0,0,0,0,0,0,0,
0,0,0,0,0,0,0,0,0,0,0,0,0,0,0,0,
0,0,0,0,0,0,0,0,0,0,0,0,0,0,0,0,
0,0,0,0,0,0,0,0,0,0,0,0,0,0,0,0,
11128,11128,11128,11129,0,0,0,0,0,0,0,0,0,0,0,0,
0,0,0,11157,0,0,0,0,0,0,0,0,0,0,0,0,
0,0,0,11157,0,0,0,0,0,0,0,0,0,0,0,0,
0,0,0,11157,0,0,0,0,0,0,0,0,0,0,0,0,
0,0,0,11157,0,0,0,0,0,0,0,0,0,0,0,0,
0,0,0,11151,0,0,0,0,0,0,0,0,0,0,0,0,
0,0,0,11151,0,0,0,0,0,0,0,0,0,0,0,0,
0,0,0,11151,0,0,0,0,0,0,0,0,0,0,0,0,
0,0,0,11151,0,0,0,0,0,0,0,0,0,0,0,0
</chunk>
   <chunk x="-16" y="48" width="16" height="16">
0,11155,0,0,0,0,0,0,0,11157,0,0,0,0,0,0,
0,11155,0,0,0,0,0,0,0,11179,0,0,0,0,0,0,
0,11155,0,0,0,0,0,0,0,11157,0,0,0,0,0,0,
0,11155,0,0,0,0,0,0,0,11157,0,0,0,0,0,0,
0,11155,0,0,0,0,0,0,0,11179,0,0,0,0,0,0,
0,11155,0,0,0,0,0,0,0,11179,0,0,0,0,0,0,
0,11155,11178,11178,11178,11178,11178,11178,11178,11179,0,0,0,0,0,0,
0,0,0,0,0,0,0,0,0,0,0,0,0,0,0,0,
0,0,0,0,0,0,0,0,0,0,0,0,0,0,0,0,
0,0,0,0,0,0,0,0,0,0,0,0,0,0,0,0,
0,11785,11786,11786,11786,11786,11786,11786,11786,11787,0,11130,11131,11131,11131,11131,
0,11796,0,0,0,0,0,0,0,11798,0,11152,0,0,0,0,
0,11796,0,0,0,0,0,0,0,11842,0,11152,0,0,0,0,
0,11796,0,0,0,0,0,0,0,11842,0,11152,0,0,0,0,
0,11796,0,0,0,0,0,0,0,11842,0,11174,0,0,0,0,
0,11807,11808,11852,11852,11852,11852,11852,11852,11853,0,11174,11175,11175,11175,11175
</chunk>
   <chunk x="0" y="48" width="16" height="16">
0,0,0,0,0,0,0,0,0,0,0,0,0,0,0,0,
0,0,0,0,0,0,0,0,0,0,0,0,0,0,0,0,
0,0,0,0,0,0,0,0,0,0,0,0,0,0,0,0,
0,0,0,0,0,0,0,0,0,0,0,0,0,0,0,0,
0,0,0,0,0,0,0,0,0,0,0,0,0,0,0,0,
0,0,0,0,0,0,0,0,0,0,0,0,0,0,0,0,
0,0,0,0,0,0,0,0,0,0,0,0,0,0,0,0,
0,0,0,0,0,0,0,0,0,0,0,0,0,0,0,0,
0,0,0,0,0,0,0,0,0,0,0,0,0,0,0,0,
0,0,0,0,0,0,0,0,0,0,0,0,0,0,0,0,
11131,11131,11132,0,0,0,0,0,11130,11131,11131,11131,11131,11131,11131,11132,
0,0,11154,0,0,0,0,0,11152,0,0,0,0,0,0,11154,
0,0,11154,0,0,0,0,0,11152,0,0,0,0,0,0,11154,
0,0,11154,0,0,0,0,0,11152,0,0,0,0,0,0,11154,
0,0,11154,0,0,0,0,0,11174,0,0,0,0,0,0,11154,
11175,11175,11176,0,0,0,0,0,11174,11175,11175,11175,11175,11175,11175,11176
</chunk>
   <chunk x="16" y="48" width="16" height="16">
0,0,0,11151,0,0,0,0,0,0,0,0,0,0,0,0,
0,0,0,11151,0,0,0,0,0,0,0,0,0,0,0,0,
0,0,0,11151,0,0,0,0,0,0,0,0,0,0,0,0,
0,0,0,11151,0,0,0,0,0,0,0,0,0,0,0,0,
0,0,0,11151,0,0,0,0,0,0,0,0,0,0,0,0,
0,0,0,11151,0,0,0,0,0,0,0,0,0,0,0,0,
0,0,0,11151,0,0,0,0,0,0,0,0,0,0,0,0,
0,0,0,11151,0,0,0,0,0,0,0,0,0,0,0,0,
0,0,0,0,0,0,0,0,0,0,0,0,0,0,0,0,
0,0,0,0,0,0,0,0,0,0,0,0,0,0,0,0,
0,0,0,0,0,0,0,0,0,0,0,0,0,0,0,0,
0,0,0,0,0,0,0,0,0,0,0,0,0,0,0,0,
0,0,0,0,0,0,0,0,0,0,0,0,0,0,0,0,
0,0,0,0,0,0,0,0,0,0,0,0,0,0,0,0,
0,0,0,0,0,0,0,0,0,0,0,0,0,0,0,0,
0,0,0,0,0,0,0,0,0,0,0,0,0,0,0,0
</chunk>
  </data>
 </layer>
 <layer id="205" name="water_lilies" width="46" height="32">
  <data encoding="csv">
   <chunk x="-16" y="-16" width="16" height="16">
0,0,0,0,0,0,0,0,0,0,0,0,0,0,0,0,
0,0,0,0,0,0,0,0,0,0,0,0,0,0,0,0,
0,0,0,0,0,0,0,0,0,0,0,0,0,0,0,0,
0,0,0,0,0,10389,10390,0,0,0,0,0,0,0,0,0,
0,10421,10422,0,0,10396,10397,0,0,0,0,0,0,0,0,0,
0,10428,10429,0,0,0,0,0,0,0,10421,10422,0,0,0,10389,
0,0,0,0,0,0,0,0,0,0,10428,10429,0,0,0,10396,
0,0,0,0,0,0,0,0,0,0,0,0,0,0,0,0,
0,0,0,0,0,0,0,0,0,0,0,0,0,0,0,0,
0,0,0,0,0,0,0,0,0,0,0,0,0,0,0,0,
0,0,0,0,0,0,0,0,0,0,0,0,0,0,0,0,
0,0,0,0,0,0,0,0,0,0,0,0,0,0,0,0,
0,0,0,0,0,0,0,0,0,0,0,0,0,0,0,0,
0,0,0,0,0,0,0,0,0,0,0,0,0,0,0,0,
0,0,0,0,0,0,0,0,0,0,0,0,0,0,0,0,
0,0,0,0,0,0,0,0,0,0,0,0,0,0,0,0
</chunk>
   <chunk x="0" y="-16" width="16" height="16">
0,0,0,0,0,0,0,0,0,0,0,0,0,0,0,0,
0,0,0,0,0,0,0,0,0,0,0,0,0,0,0,0,
0,0,0,0,10407,10408,0,0,0,0,0,0,0,0,0,0,
10389,10390,0,0,10414,10415,0,0,0,0,0,0,0,0,0,0,
10396,10397,0,0,0,0,0,0,10417,10418,0,0,0,0,0,0,
10390,0,0,0,0,0,0,0,10424,10425,0,0,0,0,0,0,
10397,0,10389,10390,0,0,10389,10390,0,0,10389,10390,0,0,0,10421,
0,0,10396,10397,0,0,10396,10397,0,0,10396,10397,0,0,0,10428,
0,0,0,0,0,0,0,0,0,0,0,0,0,0,0,0,
0,0,0,0,0,0,0,0,0,0,0,0,0,0,0,0,
0,0,0,0,0,0,0,0,0,0,0,0,0,0,0,0,
0,0,0,0,0,0,0,0,0,0,0,0,0,0,0,0,
0,0,0,0,0,0,0,0,0,0,0,0,0,0,0,0,
0,0,0,0,0,0,0,0,0,0,0,0,0,0,0,0,
0,0,0,0,0,0,0,0,0,0,0,0,0,0,0,0,
0,0,0,0,0,0,0,0,0,0,0,0,0,0,0,0
</chunk>
   <chunk x="16" y="-16" width="16" height="16">
0,0,0,0,0,0,0,0,0,0,0,0,0,0,0,0,
0,0,0,0,0,0,0,0,0,0,0,0,0,0,0,0,
0,0,0,0,0,0,0,0,0,0,0,0,0,0,0,0,
0,0,0,0,0,0,0,0,10389,10390,0,0,0,0,0,0,
0,0,0,0,0,0,0,0,10396,10397,0,0,0,0,0,0,
0,0,0,0,0,0,0,0,0,0,0,0,0,0,0,0,
10422,0,0,0,0,0,0,0,0,0,0,0,0,0,10421,10422,
10429,0,0,0,0,0,0,0,0,0,0,0,0,0,10428,10429,
0,0,0,0,0,0,0,0,0,0,0,0,0,0,0,0,
0,0,0,0,0,0,0,0,0,0,0,0,0,0,0,0,
0,0,0,0,0,0,0,0,0,0,0,0,0,0,0,0,
0,0,0,0,0,0,0,0,0,0,0,0,0,0,0,0,
0,0,0,0,0,0,0,0,0,0,0,0,0,0,0,0,
0,0,0,0,0,0,0,0,0,0,0,0,0,0,0,0,
0,0,0,0,0,0,0,0,0,0,0,0,0,0,0,0,
0,0,0,0,0,0,0,0,0,0,0,0,0,0,0,0
</chunk>
   <chunk x="32" y="-16" width="16" height="16">
0,0,0,0,0,0,0,0,0,0,0,0,0,0,0,0,
0,0,0,0,0,0,0,0,0,0,0,0,0,0,0,0,
0,0,0,0,0,0,0,0,0,0,0,0,0,0,0,0,
0,0,0,0,0,0,0,0,0,0,0,0,0,0,0,0,
0,0,0,0,0,0,0,0,0,0,0,0,0,0,0,0,
0,0,0,0,0,0,0,0,0,0,0,0,0,0,0,0,
0,0,10389,10390,0,0,0,0,0,0,0,0,0,0,0,0,
0,0,10396,10397,0,0,0,10389,10390,0,0,0,0,0,0,0,
0,0,0,0,0,0,0,10396,10397,0,0,0,0,0,0,0,
0,0,10421,10422,0,0,0,0,0,0,0,0,0,0,10389,10390,
0,0,10428,10429,0,0,0,0,0,0,0,0,0,0,10396,10397,
0,0,0,0,0,0,0,0,0,0,0,10421,10422,0,0,0,
0,0,0,0,0,0,0,0,0,0,0,10428,10429,0,0,0,
0,0,0,0,0,0,0,0,0,0,0,0,0,0,0,0,
0,0,0,0,0,0,0,0,0,0,0,0,0,0,0,0,
0,0,0,0,0,0,0,0,0,0,0,0,0,0,0,0
</chunk>
   <chunk x="48" y="-16" width="16" height="16">
0,0,0,0,0,0,0,0,0,0,0,0,0,0,0,0,
0,0,0,0,0,0,0,0,0,0,0,0,0,0,0,0,
0,0,0,0,0,0,0,0,0,0,0,0,0,0,0,0,
0,0,0,0,0,0,0,0,0,0,0,0,0,0,0,0,
0,0,0,0,0,0,0,0,0,0,0,0,0,0,0,0,
0,0,0,0,0,0,0,0,0,0,0,0,0,0,0,0,
0,0,0,0,0,0,0,0,0,0,0,0,0,0,0,0,
0,0,0,0,0,0,0,0,0,0,0,0,0,0,0,0,
0,0,0,0,0,0,0,0,0,0,0,0,0,0,0,0,
0,0,0,0,0,0,0,0,0,0,0,0,0,0,0,0,
0,0,0,0,0,0,0,0,0,0,0,0,0,0,0,0,
0,0,0,0,0,0,0,0,0,0,0,0,0,0,0,0,
0,10389,10390,0,0,0,0,0,0,0,0,0,0,0,0,0,
0,10396,10397,0,0,0,0,0,0,0,0,0,0,0,0,0,
0,0,0,0,0,10417,10418,0,0,0,0,0,0,0,0,0,
0,0,0,0,0,10424,10425,0,0,0,0,0,0,0,0,0
</chunk>
   <chunk x="-16" y="0" width="16" height="16">
0,0,0,0,0,0,0,0,0,0,0,0,0,0,0,0,
0,0,0,0,0,0,0,0,0,0,0,0,0,0,0,0,
0,0,0,0,0,0,0,0,0,0,0,0,0,0,0,0,
0,0,0,0,0,0,0,0,0,0,0,0,0,0,0,0,
0,0,0,0,0,0,0,0,0,0,0,0,0,0,0,0,
0,0,0,0,0,0,0,0,0,0,0,0,0,0,0,0,
0,0,0,0,0,0,0,0,0,0,0,0,0,0,0,0,
0,0,0,0,0,10389,10390,0,0,0,0,0,0,0,0,0,
0,0,0,0,0,10396,10397,0,10421,10422,0,0,0,0,0,0,
0,0,0,0,0,0,0,0,10428,10429,0,0,0,0,0,0,
0,0,0,0,0,0,0,0,0,0,0,0,0,0,0,0,
0,0,0,0,0,0,10405,10406,0,0,0,0,0,0,0,0,
0,0,0,0,0,0,0,0,0,10400,10401,0,0,0,0,0,
0,0,0,0,0,0,0,0,0,0,0,0,0,0,10421,0,
0,0,0,0,0,0,0,0,0,0,0,0,0,10421,10422,0,
0,0,0,0,0,0,0,0,0,0,0,0,0,10428,10429,0
</chunk>
   <chunk x="0" y="0" width="16" height="16">
0,0,0,0,0,0,0,0,0,0,0,0,0,0,0,0,
0,0,0,0,0,0,0,0,0,0,0,0,0,0,0,0,
0,0,0,0,0,0,0,0,0,0,0,0,0,0,0,0,
0,0,0,0,0,0,0,0,0,0,0,0,0,0,0,0,
0,0,0,0,0,0,0,0,0,0,0,0,0,0,0,0,
0,0,0,0,0,0,0,0,0,0,0,0,0,0,0,0,
0,0,0,0,0,0,0,0,0,0,0,0,0,0,0,0,
0,0,0,0,0,0,0,0,0,0,0,0,0,0,0,0,
0,0,0,0,0,0,0,0,0,0,0,0,0,0,0,0,
0,0,0,0,0,0,0,0,0,0,0,0,0,0,0,0,
0,0,0,0,0,0,0,0,0,0,0,0,0,0,0,0,
0,0,0,0,0,0,0,0,0,0,0,0,0,0,0,0,
0,0,0,0,0,0,0,0,0,0,0,0,0,0,0,0,
0,0,0,0,0,0,2147494056,2147494055,0,0,0,0,0,0,0,0,
0,0,10421,10422,0,0,2147494063,2147494062,0,0,0,0,0,0,0,0,
0,0,10428,10429,0,0,0,0,0,0,0,0,0,0,0,0
</chunk>
   <chunk x="16" y="0" width="16" height="16">
0,0,0,0,0,0,0,0,0,0,0,0,0,0,0,0,
0,0,0,0,0,0,0,0,0,0,0,0,0,0,0,0,
0,0,0,0,0,0,0,0,0,0,0,0,0,0,0,0,
0,0,0,0,0,0,0,0,0,0,0,0,0,0,0,0,
0,0,0,0,0,0,0,0,0,2147494038,2147494037,2147494036,10405,10406,0,0,
0,0,0,0,0,0,0,0,0,2147494045,2147494044,2147494043,0,0,0,0,
0,0,0,0,0,0,0,0,0,0,0,0,0,0,0,0,
0,0,0,0,0,0,0,0,0,0,0,0,0,0,0,0,
0,0,0,0,0,0,0,0,0,0,0,0,0,0,0,0,
0,0,0,0,0,0,0,0,0,0,0,0,0,0,0,0,
0,0,0,0,0,0,0,0,0,0,0,0,0,0,0,0,
0,0,0,0,0,0,0,0,0,0,0,0,0,0,0,0,
0,0,0,0,0,0,0,0,0,0,0,0,0,0,0,0,
0,0,0,0,0,0,0,0,0,0,0,0,0,0,0,0,
0,0,0,0,0,0,0,0,0,0,0,0,0,0,0,0,
0,0,0,0,0,0,0,0,0,0,0,0,0,0,0,0
</chunk>
   <chunk x="32" y="0" width="16" height="16">
0,0,0,0,0,0,0,0,0,0,0,0,0,0,0,0,
0,0,0,0,0,0,0,0,0,0,0,0,0,0,0,0,
0,0,0,0,0,0,0,0,0,0,0,0,0,0,0,0,
0,0,0,0,0,0,0,0,0,0,0,0,0,0,0,0,
0,0,0,0,0,0,0,0,0,0,0,0,0,0,0,0,
0,0,0,0,0,0,0,0,0,0,0,0,0,0,0,0,
0,0,0,0,0,0,0,0,0,0,0,0,0,0,0,0,
0,0,0,0,0,0,0,0,0,0,0,0,0,0,0,0,
0,10421,10422,10423,0,2147494052,2147494051,0,0,0,0,0,0,0,0,0,
0,10428,10429,10430,0,2147494059,2147494058,0,0,0,0,0,0,0,0,0,
0,0,0,0,0,10388,10389,10390,0,0,0,0,0,0,0,0,
2147494040,2147494039,0,0,0,10395,10396,10397,0,0,0,0,0,0,0,0,
2147494047,2147494046,0,0,0,0,0,0,0,0,0,0,0,0,0,0,
0,0,0,0,0,0,0,0,0,0,0,0,0,0,0,0,
0,0,0,0,0,0,0,0,0,0,0,0,0,0,0,0,
0,0,0,0,0,0,0,0,0,0,0,0,0,0,0,0
</chunk>
   <chunk x="0" y="16" width="16" height="16">
0,0,0,0,0,0,0,0,0,0,0,0,0,0,0,0,
0,0,0,0,0,10400,10401,0,0,0,0,0,0,0,0,0,
0,0,0,0,0,0,0,0,0,0,0,0,0,0,0,0,
0,0,10405,10406,0,0,0,0,0,0,0,0,0,0,0,0,
0,0,0,0,0,0,0,0,0,0,0,0,0,0,0,0,
0,0,0,0,0,0,0,0,0,0,0,0,0,0,0,0,
0,0,0,0,0,0,0,0,0,0,0,0,0,0,0,0,
0,0,0,0,0,0,0,0,0,0,0,0,0,0,0,0,
0,0,0,0,0,0,0,0,0,0,0,0,0,0,0,0,
0,0,0,0,0,0,0,0,0,0,0,0,0,0,0,0,
0,0,0,0,0,0,0,0,0,0,0,0,0,0,0,0,
0,0,0,0,0,0,0,0,0,0,0,0,0,0,0,0,
0,0,0,0,0,0,0,0,0,0,0,0,0,0,0,0,
0,0,0,0,0,0,0,0,0,0,0,0,0,0,0,0,
0,0,0,0,0,0,0,0,0,0,0,0,0,0,0,0,
0,0,0,0,0,0,0,0,0,0,0,0,0,0,0,0
</chunk>
   <chunk x="16" y="16" width="16" height="16">
0,0,0,0,0,0,0,0,0,0,0,0,0,0,0,0,
0,0,0,0,0,0,0,0,0,0,0,0,0,0,0,0,
0,0,0,0,0,0,0,0,0,0,0,0,0,0,0,0,
0,0,0,0,0,0,0,0,0,0,0,0,0,0,0,0,
0,0,0,0,0,0,0,0,0,0,0,0,0,0,0,0,
0,0,0,0,0,0,0,0,0,0,0,0,0,0,0,0,
0,0,0,0,0,0,0,0,0,0,0,0,0,0,0,0,
0,0,0,0,0,0,0,0,0,0,0,0,0,0,0,0,
0,0,0,0,0,0,0,0,0,0,0,0,0,0,0,0,
0,0,0,0,0,0,0,0,0,0,0,0,0,0,0,0,
0,0,0,0,0,0,0,0,0,0,0,0,0,0,10417,10418,
0,0,0,0,0,0,0,0,0,0,0,0,0,0,10424,10425,
0,0,0,0,0,0,0,0,0,0,0,0,0,0,0,0,
0,0,0,0,0,0,0,0,0,0,0,0,0,0,0,0,
0,0,0,0,0,0,0,0,0,0,0,0,0,0,0,0,
0,0,0,0,0,0,0,0,0,0,0,0,0,0,0,0
</chunk>
   <chunk x="32" y="16" width="16" height="16">
0,0,0,0,0,0,0,0,0,0,0,0,0,0,0,0,
0,0,0,0,0,0,0,0,0,0,0,0,0,0,0,0,
0,0,0,0,0,0,0,0,0,0,0,0,0,0,0,0,
0,0,0,0,0,0,0,0,0,0,0,10391,10392,0,0,0,
0,0,0,0,0,0,0,0,0,0,0,10398,10399,0,0,0,
0,0,0,0,0,0,0,0,0,10389,10390,0,0,0,0,0,
0,0,0,0,0,0,0,0,0,10396,10397,0,0,0,0,0,
0,0,0,0,0,0,10408,0,0,0,0,0,0,0,0,0,
0,0,0,0,0,0,10415,0,0,0,0,0,0,0,0,0,
2147494056,0,0,0,0,0,0,0,0,0,0,0,0,0,0,0,
2147494063,0,0,0,0,0,0,0,0,0,0,0,0,0,0,0,
0,0,0,0,0,0,0,0,0,0,0,0,0,0,0,0,
0,0,0,0,0,0,0,0,0,0,0,0,0,0,0,0,
0,0,0,0,0,0,0,0,0,0,0,0,0,0,10407,10408,
0,0,0,0,0,0,0,0,0,0,0,0,0,0,10414,10415,
0,0,0,0,0,0,0,0,0,0,0,0,0,0,0,0
</chunk>
   <chunk x="48" y="16" width="16" height="16">
0,0,0,0,0,0,0,0,0,0,0,0,0,0,0,0,
0,0,10421,10422,0,10407,10408,0,0,0,0,0,0,0,0,0,
0,0,10428,10429,0,10414,10415,0,0,0,0,0,0,0,0,0,
0,0,0,0,0,0,0,0,0,0,0,0,0,0,0,0,
0,0,0,10389,10390,0,0,0,0,0,0,0,0,0,0,0,
0,0,0,10396,10397,0,0,0,0,0,0,0,0,0,0,0,
0,0,0,0,0,0,0,10407,10408,0,0,0,0,0,0,0,
0,0,0,0,0,0,0,10414,10415,0,0,0,0,0,0,0,
0,0,0,0,0,0,0,0,0,0,0,0,0,0,0,0,
0,0,10407,10408,0,0,0,0,0,0,0,0,0,0,0,0,
0,0,10414,10415,0,0,0,0,0,0,0,0,0,0,0,0,
0,0,0,0,0,0,0,0,0,0,0,0,0,0,0,0,
0,0,0,0,0,0,0,0,0,0,0,0,0,0,0,0,
0,0,0,0,0,0,0,0,0,0,0,0,0,0,0,0,
0,0,0,0,0,0,0,0,0,0,0,0,0,0,0,0,
0,0,0,0,0,0,0,0,0,0,0,0,0,0,0,0
</chunk>
   <chunk x="32" y="32" width="16" height="16">
0,0,0,0,0,0,0,0,0,10421,10422,0,0,0,0,0,
0,0,0,0,0,0,0,0,0,10428,10429,0,0,0,0,0,
0,0,0,0,0,0,0,0,0,0,0,0,0,0,0,0,
0,0,0,0,0,0,0,0,0,0,0,0,10407,10408,0,0,
0,0,0,0,0,0,0,0,0,0,0,0,10414,10415,0,0,
0,0,0,0,0,0,0,0,10389,10390,0,0,0,0,0,0,
0,0,0,0,10421,10422,0,0,10396,10397,0,0,0,0,0,0,
0,0,0,0,10428,10429,0,0,0,0,0,0,0,0,0,0,
0,0,0,0,0,0,0,0,0,0,0,0,0,0,0,0,
0,0,0,0,10389,10390,0,0,0,0,0,0,0,0,0,0,
0,0,0,0,10396,10397,0,0,0,0,0,0,0,0,0,0,
0,0,0,10389,10390,0,0,0,0,10421,10422,0,0,0,0,0,
0,0,0,10396,10397,0,0,0,0,10428,10429,0,0,0,0,0,
0,0,0,0,0,0,0,0,0,0,0,0,0,0,0,0,
10421,10422,0,0,0,10389,10390,0,0,0,0,0,0,0,0,0,
10428,10429,0,0,0,10396,10397,0,0,0,0,0,0,0,0,0
</chunk>
   <chunk x="16" y="48" width="16" height="16">
0,0,0,0,0,0,0,0,0,0,0,0,0,0,0,0,
0,0,0,0,0,0,0,0,0,0,0,0,0,0,0,10389,
0,0,0,0,0,0,0,0,0,0,0,0,0,0,0,10396,
0,0,0,0,0,0,0,0,0,0,0,0,0,0,0,0,
0,0,0,0,0,0,0,0,0,0,0,0,0,0,0,0,
0,0,0,0,0,0,0,0,0,0,0,0,0,0,0,0,
0,0,0,0,0,0,0,0,0,0,0,0,0,0,0,0,
0,0,0,0,0,0,0,0,0,0,0,0,0,0,0,0,
0,0,0,0,0,0,0,0,0,0,0,0,0,0,0,0,
0,0,0,0,0,0,0,0,0,0,0,0,0,0,0,0,
0,0,0,0,0,0,0,0,0,0,0,0,0,0,0,0,
0,0,0,0,0,0,0,0,0,0,0,0,0,0,0,0,
0,0,0,0,0,0,0,0,0,0,0,0,0,0,0,0,
0,0,0,0,0,0,0,0,0,0,0,0,0,0,0,0,
0,0,0,0,0,0,0,0,0,0,0,0,0,0,0,0,
0,0,0,0,0,0,0,0,0,0,0,0,0,0,0,0
</chunk>
   <chunk x="32" y="48" width="16" height="16">
0,0,0,0,0,0,0,0,0,0,0,0,0,0,0,0,
10390,0,0,0,0,0,0,0,0,0,0,0,0,0,0,0,
10397,0,0,0,10407,10408,0,0,0,0,0,0,0,0,0,0,
0,0,0,0,10414,10415,0,0,0,0,0,0,0,0,0,0,
0,0,0,0,0,0,0,0,0,0,0,0,0,0,0,0,
0,0,0,0,0,0,0,0,0,0,0,0,0,0,0,0,
0,0,0,0,0,0,0,0,0,0,0,0,0,0,0,0,
0,0,0,0,0,0,0,0,0,0,0,0,0,0,0,0,
0,0,0,0,0,0,0,0,0,0,0,0,0,0,0,0,
0,0,0,0,0,0,0,0,0,0,0,0,0,0,0,0,
0,0,0,0,0,0,0,0,0,0,0,0,0,0,0,0,
0,0,0,0,0,0,0,0,0,0,0,0,0,0,0,0,
0,0,0,0,0,0,0,0,0,0,0,0,0,0,0,0,
0,0,0,0,0,0,0,0,0,0,0,0,0,0,0,0,
0,0,0,0,0,0,0,0,0,0,0,0,0,0,0,0,
0,0,0,0,0,0,0,0,0,0,0,0,0,0,0,0
</chunk>
  </data>
 </layer>
 <layer id="170" name="shadow" width="46" height="32">
  <data encoding="csv">
   <chunk x="0" y="0" width="16" height="16">
0,0,0,0,0,0,0,0,0,0,0,0,0,0,0,0,
0,0,0,0,0,0,0,0,0,0,0,0,0,0,0,0,
0,0,0,0,0,0,0,0,0,0,0,0,7719,7719,7719,7700,
0,0,0,0,0,0,0,0,0,7719,7719,7719,7700,7785,7740,7741,
0,0,0,0,0,0,7719,7719,7719,7700,7740,7785,7741,0,0,0,
0,0,0,0,0,7719,7700,7740,7785,7741,0,0,0,0,0,0,
0,0,7719,7719,7719,7700,7741,0,0,0,0,0,0,0,0,0,
0,0,7740,7785,7786,7741,0,0,0,0,0,0,0,0,0,0,
0,0,0,0,0,0,0,0,0,0,0,0,0,0,0,0,
0,0,0,0,0,0,0,0,0,0,0,0,0,0,0,0,
0,0,0,0,0,0,0,0,0,0,0,0,0,0,0,0,
0,0,0,0,0,0,0,0,0,0,0,0,0,0,0,0,
0,0,0,0,0,0,0,0,0,0,0,0,0,0,0,0,
0,0,0,0,0,0,0,0,0,0,0,0,0,0,0,0,
0,0,0,0,0,0,0,0,0,0,0,0,0,0,0,0,
0,0,0,0,0,0,0,0,0,0,0,0,0,0,0,0
</chunk>
   <chunk x="16" y="0" width="16" height="16">
0,0,0,0,0,0,0,0,0,0,0,0,0,0,0,0,
7700,7741,0,0,0,0,0,0,0,0,0,0,0,0,0,0,
2147491387,0,0,0,0,0,0,0,0,0,0,0,0,0,0,0,
0,0,0,0,0,0,0,0,0,0,0,0,0,0,0,0,
0,0,0,0,0,0,0,0,0,0,0,0,0,0,0,0,
0,0,0,0,0,0,0,0,0,0,0,0,0,0,0,0,
0,0,0,0,0,0,0,0,0,0,0,7592,7617,0,0,7616,
0,0,0,0,0,0,0,0,0,0,0,7634,7596,7614,7614,7595,
0,0,0,0,0,0,0,0,0,0,0,0,7634,7680,7680,7636,
0,0,0,0,0,0,0,0,0,0,0,0,0,0,0,0,
0,0,0,0,0,0,0,0,0,0,0,0,0,0,0,0,
0,0,0,0,0,0,0,0,0,0,0,0,0,0,0,0,
0,0,0,0,0,0,0,0,0,0,0,0,0,0,0,0,
0,0,0,0,0,0,0,0,0,0,0,0,0,0,0,0,
0,0,0,0,0,0,0,0,0,0,0,0,0,0,0,0,
0,0,0,0,0,0,0,0,0,0,0,0,0,0,0,0
</chunk>
   <chunk x="32" y="0" width="16" height="16">
0,0,0,0,0,0,0,0,0,0,0,0,0,0,0,0,
7592,7593,0,0,0,0,0,0,0,0,0,0,0,0,0,0,
7613,7614,0,0,0,0,0,0,0,0,0,0,0,0,0,0,
7634,7596,7614,7614,7614,0,0,0,0,0,0,0,0,0,0,0,
0,7634,7635,7596,7614,0,0,0,0,0,0,0,0,0,0,0,
0,0,0,7634,7596,7614,7614,7614,0,0,0,0,0,0,0,0,
7594,0,0,0,7634,7635,7596,7614,7614,7614,0,0,0,0,0,0,
7636,0,0,0,0,0,7634,7635,7681,7596,7614,7614,7614,7614,7614,0,
0,0,0,0,0,0,0,0,0,7634,7681,7635,7680,7681,7635,0,
0,0,0,0,0,0,0,0,0,0,0,0,0,0,0,0,
0,0,0,0,0,0,0,0,0,0,0,0,0,0,0,0,
0,0,0,0,0,0,0,0,0,0,0,0,0,0,0,0,
0,0,0,0,0,0,0,0,0,0,0,0,0,0,0,0,
0,0,0,0,0,0,0,0,0,0,0,0,0,0,0,0,
0,0,0,0,0,0,0,0,0,0,0,0,0,0,0,0,
0,0,0,0,0,0,0,0,0,0,0,0,0,0,0,0
</chunk>
   <chunk x="16" y="16" width="16" height="16">
0,0,0,0,0,0,0,0,0,0,0,0,0,0,0,0,
0,0,0,0,0,7697,0,0,0,0,0,0,0,0,0,0,
0,0,0,0,7697,7722,0,0,0,0,0,0,0,0,0,0,
0,0,0,0,7718,7719,0,0,0,0,0,0,0,0,0,0,
0,0,0,0,2147491389,2147491348,7719,7719,7719,0,0,0,0,0,0,7719,
0,0,0,0,0,7739,7740,7701,7719,7719,0,0,0,0,7719,2147491349,
0,0,0,0,0,0,0,2147491389,7786,2147491348,7719,7719,7719,7719,7700,7741,
0,0,0,0,0,0,0,0,0,7739,7786,7740,7740,7786,2147491387,0,
0,0,0,0,0,0,0,0,0,0,0,0,0,0,0,0,
0,0,0,0,0,0,0,0,0,0,0,0,0,0,0,0,
0,0,0,0,0,0,0,0,0,0,0,0,0,0,0,0,
0,0,0,0,0,0,0,0,0,0,0,0,0,0,0,0,
0,0,0,0,0,0,0,0,0,0,0,0,0,0,0,0,
0,0,0,0,0,0,0,0,0,0,0,0,0,0,0,0,
0,0,0,0,0,0,0,0,0,0,0,0,0,0,0,0,
0,0,0,0,0,0,0,0,0,0,0,0,0,0,0,0
</chunk>
   <chunk x="32" y="16" width="16" height="16">
0,0,0,0,0,0,0,0,0,0,0,0,0,0,0,0,
7699,0,0,0,0,0,0,0,0,0,0,0,0,0,0,0,
7721,7699,0,0,0,0,0,0,0,0,0,0,0,0,0,0,
7719,7720,0,0,0,0,0,0,0,0,0,0,0,0,0,0,
7700,7741,0,0,0,0,0,0,0,0,0,0,0,0,0,0,
2147491387,0,0,0,0,0,0,0,0,0,0,0,0,0,0,0,
0,0,0,0,0,0,0,0,0,0,0,0,0,0,0,0,
0,0,0,0,0,0,0,0,0,0,0,0,0,0,0,0,
0,0,0,0,0,0,0,0,0,0,0,0,0,0,0,0,
0,0,0,0,0,0,0,0,0,0,0,0,0,0,0,0,
0,0,0,0,0,0,0,0,0,0,0,0,0,0,0,0,
0,0,0,0,0,0,0,0,0,0,0,0,0,0,0,0,
0,0,0,0,0,0,0,0,0,0,0,0,0,0,0,0,
0,0,0,0,0,0,0,0,0,0,0,0,0,0,0,0,
0,0,0,0,0,0,0,0,0,0,0,0,0,0,0,0,
0,0,0,0,0,0,0,0,0,0,0,0,0,0,0,0
</chunk>
  </data>
 </layer>
 <layer id="199" name="objects_under_elevated_space" width="46" height="32">
  <data encoding="csv">
   <chunk x="16" y="0" width="16" height="16">
0,0,0,0,0,0,0,0,0,0,0,0,0,0,0,0,
0,0,0,0,0,0,0,0,0,0,0,0,0,0,0,0,
0,0,0,0,0,0,0,0,0,0,0,0,0,0,0,0,
0,0,0,0,0,0,0,0,0,0,0,0,0,0,0,0,
0,0,0,0,0,0,0,0,0,0,0,0,0,0,0,0,
0,0,0,0,0,0,0,0,0,0,0,0,0,0,0,0,
0,0,0,0,0,0,0,0,0,0,0,0,0,0,0,0,
0,0,0,0,0,0,0,0,0,0,0,0,0,0,0,0,
0,0,0,0,0,0,0,0,0,0,0,0,0,0,0,0,
0,0,0,0,0,0,0,0,0,0,0,0,0,0,0,0,
0,0,0,0,0,0,0,0,0,0,0,0,0,0,0,0,
0,0,0,0,0,0,0,0,0,0,0,0,0,0,0,0,
0,0,0,0,0,9498,9499,9500,9501,0,0,0,0,0,0,0,
0,0,0,0,0,9530,9531,9532,9533,0,0,0,0,0,0,0,
0,0,0,0,0,9562,9563,9564,0,0,0,0,0,0,0,0,
0,0,0,0,0,9594,9595,9596,0,0,0,0,0,0,0,0
</chunk>
   <chunk x="0" y="16" width="16" height="16">
0,0,0,0,0,0,0,0,0,0,0,0,0,0,0,0,
0,0,0,0,0,0,0,0,0,0,0,0,0,0,0,0,
0,0,0,0,0,0,0,0,0,0,0,0,0,0,0,0,
0,0,0,0,0,0,0,0,0,0,0,0,0,0,0,0,
0,0,0,0,0,0,0,0,0,0,0,0,0,0,0,0,
0,0,0,0,0,0,0,0,0,0,0,0,0,0,0,0,
0,0,0,0,0,0,0,0,0,0,0,0,0,0,0,0,
0,0,0,0,0,0,0,0,0,0,0,0,0,0,0,0,
0,0,0,0,0,0,0,0,0,0,0,0,0,0,0,0,
0,0,0,0,0,0,0,0,0,0,0,0,0,0,0,0,
0,0,0,0,5954,0,0,0,0,0,0,0,0,0,0,0,
0,0,0,0,0,0,0,0,0,0,0,0,0,0,0,0,
0,0,0,0,0,0,0,0,0,0,0,0,0,0,0,0,
0,0,0,0,0,0,0,0,0,0,0,0,0,0,0,0,
0,0,0,0,0,0,0,0,0,0,0,0,0,0,0,0,
0,0,0,0,0,0,0,0,0,0,0,0,0,0,0,0
</chunk>
  </data>
 </layer>
 <layer id="169" name="elevated_space" width="46" height="32">
  <data encoding="csv">
   <chunk x="0" y="0" width="16" height="16">
0,0,0,0,0,0,0,0,0,0,0,0,0,0,0,0,
0,0,7812,7839,7854,7815,0,0,0,0,0,0,0,0,0,7514,
0,0,0,7835,7812,7839,7815,0,0,0,0,0,7514,7386,7467,7535,
0,0,0,0,0,7835,7839,7815,0,7514,8735,7467,7535,7407,7488,0,
0,0,0,0,0,7388,7386,7467,7385,7535,7407,7488,7489,0,0,0,
0,0,0,0,0,7409,7407,7488,7406,7489,0,0,0,0,0,0,
7466,7467,7467,7385,8735,7468,0,0,0,0,0,0,0,0,0,0,
0,0,7488,7406,7407,7489,0,0,0,0,0,0,0,0,0,0,
0,0,0,0,0,0,0,0,0,0,0,0,0,0,0,0,
0,0,0,0,0,0,0,0,0,0,0,0,0,0,0,0,
0,0,0,0,0,0,0,0,0,0,0,0,0,0,0,0,
0,0,0,0,0,0,0,0,0,0,0,0,0,0,0,0,
0,0,0,0,0,0,0,0,0,0,0,0,0,0,0,0,
0,0,0,0,0,0,0,0,0,0,0,0,0,0,0,0,
0,0,0,0,0,0,0,0,0,0,0,0,0,0,0,0,
0,0,0,0,0,0,0,0,0,0,0,0,0,0,0,0
</chunk>
   <chunk x="16" y="0" width="16" height="16">
0,0,0,0,0,0,0,0,0,0,0,0,0,0,0,0,
7386,7467,7468,0,0,0,0,0,0,0,0,0,0,0,0,0,
7489,0,0,0,0,0,0,0,0,0,0,0,0,0,0,0,
0,0,0,0,0,0,0,0,0,0,0,0,0,0,0,0,
0,0,0,0,0,0,0,0,0,0,0,0,7643,7644,7644,7645,
0,0,0,0,0,0,0,0,0,0,0,0,7664,7665,0,7666,
0,0,0,0,0,0,0,0,0,0,0,0,7351,7343,7352,7353,
0,0,0,0,0,0,0,0,0,0,0,0,7288,7436,7318,7290,
0,0,0,0,0,0,0,0,0,0,0,0,0,0,0,0,
0,0,0,0,0,0,0,0,0,0,0,0,0,0,0,0,
0,0,0,0,0,0,0,0,0,0,0,0,0,0,0,0,
0,0,0,0,0,0,0,0,7748,7749,7757,7749,7749,7750,0,0,
0,0,0,0,0,0,0,0,7769,7770,7770,0,7770,7772,7750,0,
0,0,0,0,0,0,0,7748,7773,0,0,0,7770,7770,7771,0,
0,0,0,0,0,0,0,7769,0,0,7770,7770,7770,7770,7772,7749,
0,0,0,0,0,7748,7749,7773,7770,7770,7770,7770,7770,7770,7770,7770
</chunk>
   <chunk x="32" y="0" width="16" height="16">
0,0,0,0,0,0,0,0,0,0,0,0,0,0,0,0,
0,2147491419,7770,7770,7770,7770,7770,7770,7770,7770,7770,7770,7770,0,0,0,
0,7267,8657,7268,7266,7770,7770,7770,7770,7770,7770,7770,7770,0,0,0,
0,8777,7319,8992,7287,7770,7770,7770,7770,7770,7770,7770,7770,0,0,0,
0,0,0,0,7267,7268,7266,7770,7770,7770,7770,7770,7770,0,0,0,
0,0,0,0,7288,8779,8791,8950,8657,7266,7770,7770,7770,0,0,0,
0,0,0,0,0,0,7288,7289,8693,7292,7339,7268,8657,7268,7268,7269,
0,0,0,0,0,0,0,0,0,7288,7289,7318,8695,7318,7318,7290,
0,0,0,0,0,0,0,0,0,0,0,0,0,0,0,0,
0,0,0,0,0,0,0,0,0,0,0,0,0,0,0,0,
0,0,0,0,0,0,0,0,0,0,0,0,0,0,0,0,
0,0,0,0,0,0,0,0,0,0,0,0,0,0,0,0,
0,0,0,0,0,0,0,0,0,0,0,0,0,0,0,0,
0,0,0,0,0,0,0,0,0,0,0,0,0,0,0,0,
7750,0,0,0,0,0,0,0,0,0,0,0,0,0,0,0,
7771,0,0,0,0,0,0,0,0,0,0,0,0,0,0,0
</chunk>
   <chunk x="0" y="16" width="16" height="16">
0,0,0,0,0,0,0,0,0,0,0,0,0,0,0,0,
0,0,0,0,0,0,0,0,0,0,0,0,0,0,0,0,
0,0,0,0,0,0,0,0,0,0,0,0,0,0,0,0,
0,0,0,0,0,0,0,0,0,0,0,0,0,0,0,0,
0,0,0,0,0,0,0,0,0,0,0,0,0,0,0,0,
0,0,0,0,0,0,0,0,0,0,0,0,0,0,0,0,
0,7756,0,0,0,0,0,0,0,0,0,0,0,0,0,0,
0,0,0,0,0,0,0,0,0,0,0,0,0,0,0,0,
0,0,0,0,0,0,0,0,0,0,0,0,0,0,0,0,
0,0,0,0,0,0,0,0,0,0,0,0,0,0,0,0,
0,0,0,0,0,0,0,0,0,0,0,0,0,0,0,0,
0,0,0,0,0,0,0,0,0,0,0,0,0,0,0,0,
0,0,0,0,0,0,0,0,0,0,0,0,0,0,0,0,
0,0,0,0,0,0,0,0,0,0,0,0,0,0,0,0,
0,0,0,0,0,0,0,0,0,0,0,0,0,0,0,0,
0,0,0,0,0,0,0,0,0,0,0,0,0,0,0,0
</chunk>
   <chunk x="16" y="16" width="16" height="16">
0,0,0,0,0,7769,0,0,0,7770,7770,7770,7770,7770,7770,7770,
0,0,0,0,0,7267,7268,7266,0,7770,7770,7770,7770,7770,7770,7265,
0,0,0,0,0,7309,9034,9039,7268,7266,7770,7770,7770,0,7265,9037,
0,0,0,0,0,8914,7712,7277,8920,7313,8657,7268,8657,8657,7312,8737,
0,0,0,0,0,7382,8784,8615,7710,8739,7712,7714,7712,7706,8737,7448,
0,0,0,0,0,0,0,7382,8699,7449,8878,7710,7712,8834,8613,7384,
0,0,0,0,0,0,0,0,0,7382,7280,7281,7383,8697,7384,0,
0,0,0,0,0,0,0,0,0,0,0,0,7404,0,0,0,
0,0,0,0,0,0,0,0,0,0,0,0,0,0,0,0,
0,0,0,0,0,0,0,0,0,0,0,0,0,0,0,0,
0,0,0,0,0,0,0,0,0,0,0,0,0,0,0,0,
0,0,0,0,0,0,0,0,0,0,0,0,0,0,0,0,
0,0,0,0,0,0,0,0,0,0,0,0,0,0,0,0,
0,0,0,0,0,0,0,0,0,0,0,0,0,0,0,0,
0,0,0,0,0,0,0,0,0,0,0,0,0,0,0,0,
0,0,0,0,0,0,0,0,0,0,0,0,0,0,0,0
</chunk>
   <chunk x="32" y="16" width="16" height="16">
2147491417,0,0,0,0,0,0,0,0,0,0,0,0,0,0,0,
8952,0,0,0,0,0,0,0,0,0,0,0,0,0,0,0,
8912,0,0,0,0,0,0,0,0,0,0,0,0,0,0,0,
7399,0,0,0,0,0,0,0,0,0,0,0,0,0,0,0,
8786,0,0,0,0,0,0,0,0,0,0,0,0,0,0,0,
0,0,0,0,0,0,0,0,0,0,0,0,0,0,0,0,
0,0,0,0,0,0,0,0,0,0,0,0,0,0,0,0,
0,0,0,0,0,0,0,0,0,0,0,0,0,0,0,0,
0,0,0,0,0,0,0,0,0,0,0,0,0,0,0,0,
0,0,0,0,0,0,0,0,0,0,0,0,0,0,0,0,
0,0,0,0,0,0,0,0,0,0,0,0,0,0,0,0,
0,0,0,0,0,0,0,0,0,0,0,0,0,0,0,0,
0,0,0,0,0,0,0,0,0,0,0,0,0,0,0,0,
0,0,0,0,0,0,0,0,0,0,0,0,0,0,0,0,
0,0,0,0,0,0,0,0,0,0,0,0,0,0,0,0,
0,0,0,0,0,0,0,0,0,0,0,0,0,0,0,0
</chunk>
  </data>
 </layer>
 <layer id="179" name="spots3" width="46" height="32">
  <data encoding="csv">
   <chunk x="16" y="0" width="16" height="16">
0,0,0,0,0,0,0,0,0,0,0,0,0,0,0,0,
0,0,0,0,0,0,0,0,0,0,0,0,0,0,0,0,
0,0,0,0,0,0,0,0,0,0,0,0,0,0,0,0,
0,0,0,0,0,0,0,0,0,0,0,0,0,0,0,0,
0,0,0,0,0,0,0,0,0,0,0,0,0,0,0,0,
0,0,0,0,0,0,0,0,0,0,0,0,0,0,0,0,
0,0,0,0,0,0,0,0,0,0,0,0,0,0,0,0,
0,0,0,0,0,0,0,0,0,0,0,0,0,0,7902,7903,
0,0,0,0,0,0,0,0,0,0,0,0,0,0,7923,7924,
0,0,0,0,0,0,0,0,0,0,0,0,0,0,0,0,
0,0,0,0,0,0,0,0,0,0,0,0,0,0,0,0,
0,0,0,0,0,0,0,0,0,0,0,0,0,0,0,0,
0,0,0,0,0,0,0,0,0,0,0,0,0,0,0,0,
0,0,0,0,0,0,0,0,0,0,0,0,0,0,0,0,
0,0,0,0,0,0,0,0,0,0,0,0,0,0,0,0,
0,0,0,0,0,0,0,0,0,0,0,0,0,0,0,0
</chunk>
   <chunk x="32" y="0" width="16" height="16">
0,0,0,0,0,0,0,0,0,0,0,0,0,0,0,0,
0,0,0,0,0,0,0,0,0,0,0,0,0,0,0,0,
0,0,0,0,0,0,0,0,0,0,0,0,0,0,0,0,
0,0,0,7898,7899,0,0,0,0,0,0,0,0,0,0,0,
0,0,0,7919,7920,0,0,0,0,0,0,0,0,0,0,0,
0,0,0,0,0,0,0,0,0,0,0,0,0,0,0,0,
0,0,0,0,0,0,0,7946,7947,0,0,0,0,0,0,0,
0,0,0,0,0,0,0,7967,7968,0,0,7944,7945,0,0,0,
0,0,0,0,0,0,0,0,0,0,0,7965,7966,0,0,0,
0,0,0,0,0,0,0,0,0,0,0,0,0,0,0,0,
0,0,0,0,0,0,0,0,0,0,0,0,0,0,0,0,
0,0,0,0,0,0,0,0,0,0,0,0,0,0,0,0,
0,0,0,0,0,0,0,0,0,0,0,0,0,0,0,0,
0,0,0,0,0,0,0,0,0,0,0,0,0,0,0,0,
0,0,0,0,0,0,0,0,0,0,0,0,0,0,0,0,
0,0,0,0,0,0,0,0,0,0,0,0,0,0,0,0
</chunk>
  </data>
 </layer>
 <layer id="184" name="stairs" width="46" height="32">
  <data encoding="csv">
   <chunk x="0" y="0" width="16" height="16">
0,0,0,0,0,0,0,0,0,0,0,0,0,0,0,0,
0,0,0,0,0,0,0,0,0,0,0,0,0,0,0,0,
0,0,0,0,0,0,0,0,0,0,0,0,0,8310,8311,0,
0,0,0,0,0,0,0,0,0,0,0,0,0,8331,8332,0,
0,0,0,0,0,0,8262,8263,0,0,0,0,0,0,0,0,
0,0,0,0,0,0,8283,8284,0,0,0,0,0,0,0,0,
0,0,0,0,0,0,0,0,0,0,0,0,0,0,0,0,
0,0,0,0,0,0,0,0,0,0,0,0,0,0,0,0,
0,0,0,0,0,0,0,0,0,0,0,0,0,0,0,0,
0,0,0,0,0,0,0,0,0,0,0,0,0,0,0,0,
0,0,0,0,0,0,0,0,0,0,0,0,0,0,0,0,
0,0,0,0,0,0,0,0,0,0,0,0,0,0,0,0,
0,0,0,0,0,0,0,0,0,0,0,0,0,0,0,0,
0,0,0,0,0,0,0,0,0,0,0,0,0,0,0,0,
0,0,0,0,0,0,0,0,0,0,0,0,0,0,0,0,
0,0,0,0,0,0,0,0,0,0,0,0,0,0,0,0
</chunk>
   <chunk x="16" y="0" width="16" height="16">
0,0,0,0,0,0,0,0,0,0,0,0,0,0,0,0,
0,0,0,0,0,0,0,0,0,0,0,0,0,0,0,0,
0,0,0,0,0,0,0,0,0,0,0,0,0,0,0,0,
0,0,0,0,0,0,0,0,0,0,0,0,0,0,0,0,
0,0,0,0,0,0,0,0,0,0,0,0,0,0,0,0,
0,0,0,0,0,0,0,0,0,0,0,0,0,0,0,0,
0,0,0,0,0,0,0,0,0,0,0,0,0,8265,8266,0,
0,0,0,0,0,0,0,0,0,0,0,0,0,8307,8308,0,
0,0,0,0,0,0,0,0,0,0,0,0,0,0,0,0,
0,0,0,0,0,0,0,0,0,0,0,0,0,0,0,0,
0,0,0,0,0,0,0,0,0,0,0,0,0,0,0,0,
0,0,0,0,0,0,0,0,0,0,0,0,0,0,0,0,
0,0,0,0,0,0,0,0,0,0,0,0,0,0,0,0,
0,0,0,0,0,0,0,0,0,0,0,0,0,0,0,0,
0,0,0,0,0,0,0,0,0,0,0,0,0,0,0,0,
0,0,0,0,0,0,0,0,0,0,0,0,0,0,0,0
</chunk>
   <chunk x="32" y="0" width="16" height="16">
0,0,0,0,0,0,0,0,0,0,0,0,0,0,0,0,
0,0,0,0,0,0,0,0,0,0,0,0,0,0,0,0,
0,0,0,0,0,0,0,0,0,0,0,0,0,0,0,0,
0,0,0,0,0,0,0,0,0,0,0,0,0,0,0,0,
0,0,0,0,0,0,0,0,0,0,0,0,0,0,0,0,
0,0,0,0,0,0,0,0,0,0,0,0,0,0,0,0,
0,0,0,0,0,0,0,0,0,0,8253,8254,0,0,0,0,
0,0,0,0,0,0,0,0,0,0,8304,8305,0,0,0,0,
0,0,0,0,0,0,0,0,0,0,0,0,0,0,0,0,
0,0,0,0,0,0,0,0,0,0,0,0,0,0,0,0,
0,0,0,0,0,0,0,0,0,0,0,0,0,0,0,0,
0,0,0,0,0,0,0,0,0,0,0,0,0,0,0,0,
0,0,0,0,0,0,0,0,0,0,0,0,0,0,0,0,
0,0,0,0,0,0,0,0,0,0,0,0,0,0,0,0,
0,0,0,0,0,0,0,0,0,0,0,0,0,0,0,0,
0,0,0,0,0,0,0,0,0,0,0,0,0,0,0,0
</chunk>
   <chunk x="16" y="16" width="16" height="16">
0,0,0,0,0,0,0,0,0,0,0,0,0,0,0,0,
0,0,0,0,0,0,0,0,0,0,0,0,0,0,0,0,
0,0,0,0,0,0,0,0,0,0,0,0,0,0,0,0,
0,0,0,0,0,0,0,0,0,0,0,8253,8254,0,0,0,
0,0,0,0,0,0,0,0,0,0,0,8274,8275,0,0,0,
0,0,0,0,0,0,0,0,0,0,0,8295,8296,0,0,0,
0,0,0,0,0,0,0,0,0,0,0,8316,8317,0,0,0,
0,0,0,0,0,0,0,0,0,0,0,8337,8338,0,0,0,
0,0,0,0,0,0,0,0,0,0,0,0,0,0,0,0,
0,0,0,0,0,0,0,0,0,0,0,0,0,0,0,0,
0,0,0,0,0,0,0,0,0,0,0,0,0,0,0,0,
0,0,0,0,0,0,0,0,0,0,0,0,0,0,0,0,
0,0,0,0,0,0,0,0,0,0,0,0,0,0,0,0,
0,0,0,0,0,0,0,0,0,0,0,0,0,0,0,0,
0,0,0,0,0,0,0,0,0,0,0,0,0,0,0,0,
0,0,0,0,0,0,0,0,0,0,0,0,0,0,0,0
</chunk>
  </data>
 </layer>
 <layer id="185" name="grass_elements" width="46" height="32">
  <data encoding="csv">
   <chunk x="0" y="0" width="16" height="16">
0,0,0,0,0,0,0,8407,0,0,0,0,0,0,0,0,
0,0,0,0,0,8426,8427,8428,0,0,0,0,0,0,0,0,
0,0,0,0,0,8447,8448,8449,0,3221233918,3221233917,3221233916,0,0,0,0,
0,0,0,8454,8455,0,0,0,8452,3221233897,3221233896,3221233895,0,0,0,0,
0,0,0,8475,8476,0,0,0,8473,0,0,0,0,0,0,0,
0,0,0,2147492164,2147492163,2147492162,0,0,0,0,0,0,8343,8344,0,0,
0,0,0,2147492185,2147492184,2147492183,0,0,0,0,0,0,8364,8365,0,0,
0,0,0,0,0,0,0,0,0,0,0,0,8385,8386,0,8405,
0,0,0,0,2147492161,2147492160,2147492159,0,0,0,8517,8518,0,0,0,8426,
0,0,0,0,2147492182,2147492181,2147492180,0,0,0,8538,8539,0,0,0,8447,
0,0,0,0,0,0,0,0,0,0,0,0,0,0,0,0,
0,0,0,0,0,0,0,0,0,0,0,0,0,0,0,0,
0,0,0,0,0,0,0,0,0,0,0,0,0,0,0,0,
0,0,0,0,0,0,0,0,0,0,0,0,0,0,0,0,
0,0,0,0,0,0,0,0,0,0,0,0,8462,8463,8464,0,
0,0,0,0,0,0,0,0,0,2147491995,2147491994,2147491993,8483,8484,8485,0
</chunk>
   <chunk x="16" y="0" width="16" height="16">
0,0,0,0,0,0,0,0,0,0,0,0,0,0,0,0,
0,0,0,0,0,0,0,0,0,0,0,0,8475,8476,0,0,
0,0,0,0,0,0,0,0,0,0,0,8471,8472,0,0,0,
0,0,0,8517,8518,0,0,0,0,0,0,8492,8493,0,0,0,
0,3221233965,3221233964,8538,8539,0,0,0,0,0,0,0,0,0,0,0,
0,3221233944,3221233943,0,0,0,0,0,0,0,0,0,0,0,0,0,
0,0,0,0,0,8405,8406,0,0,0,0,0,0,0,0,0,
8406,0,8557,8558,8559,8426,8427,8399,8400,8401,0,0,0,0,0,0,
8427,0,8578,8579,8405,8406,8407,8420,8421,8422,0,0,0,0,0,0,
8448,0,0,0,8426,8427,8428,8441,8442,8443,0,0,0,0,0,0,
0,0,0,0,8447,8448,8449,0,0,0,0,0,0,0,0,0,
0,0,0,0,0,0,0,0,0,0,0,0,8405,8406,0,0,
0,0,0,0,0,0,0,0,0,0,0,8454,8455,8427,0,0,
0,0,0,0,0,0,0,8462,8463,8464,0,8475,8476,8448,8400,8401,
0,0,0,0,0,0,0,8483,8484,8485,0,0,0,8420,8421,8422,
0,0,0,0,0,8504,8505,0,0,0,0,0,0,8441,8442,8443
</chunk>
   <chunk x="32" y="0" width="16" height="16">
0,0,0,0,0,0,0,0,0,0,0,0,0,0,0,0,
0,0,0,0,8483,8484,8485,0,0,0,0,0,0,0,0,0,
0,0,0,0,0,0,0,8405,8406,8407,0,0,0,0,0,0,
0,0,0,0,0,8471,8472,8426,8427,8428,0,0,0,0,0,0,
0,0,0,0,0,8492,8493,8447,8448,8449,8345,8346,8347,0,0,0,
0,0,0,0,0,0,0,0,0,0,8366,8367,8368,0,0,0,
0,0,0,0,0,0,0,0,0,0,8387,8388,8389,0,0,0,
0,0,0,0,0,0,0,0,0,0,0,0,0,0,0,0,
0,0,0,0,0,0,0,0,0,0,0,0,0,0,0,0,
0,0,0,0,0,0,0,0,0,0,0,0,0,0,0,0,
0,0,0,0,0,0,0,0,0,0,0,0,0,0,0,0,
0,0,0,0,0,0,0,0,0,0,0,0,0,0,0,0,
0,0,0,0,0,0,8423,8424,8425,0,0,0,0,0,0,0,
0,0,0,8343,8344,0,8444,8445,8446,0,0,0,0,0,0,0,
0,0,0,8364,8365,0,8454,8455,0,0,0,0,0,0,0,0,
0,0,0,8385,8386,0,8475,8476,0,0,0,0,0,0,0,0
</chunk>
   <chunk x="0" y="16" width="16" height="16">
0,0,0,0,0,0,0,0,0,2147492016,2147492015,2147492014,0,0,0,0,
0,0,0,0,0,0,0,0,0,2147492037,2147492036,2147492035,0,0,0,0,
0,0,0,0,8343,8344,0,0,0,0,0,0,8508,8509,8510,0,
0,0,0,0,8364,8365,0,0,0,0,0,0,8529,8530,8514,8515,
0,0,0,0,8385,2147492166,2147492165,0,0,0,8348,8349,8350,0,8535,8536,
0,0,0,0,0,2147492187,2147492186,0,0,0,8369,8370,8371,0,0,0,
0,0,536879343,2147491998,2147491997,2147491996,0,0,0,0,8390,8391,8392,8407,8408,8409,
0,0,536879344,2147492019,2147492018,2147492017,0,0,0,0,0,0,0,8428,8429,8430,
0,0,8558,8559,2147492039,2147492166,2147492165,0,0,0,0,0,0,8449,8454,8455,
0,0,8579,8580,0,2147492187,2147492186,0,0,0,0,0,0,0,8475,8476,
0,0,0,0,0,0,8511,8512,2147492100,0,0,0,0,0,0,8532,
0,0,0,0,0,0,8532,8533,2147492121,8405,8406,0,0,0,0,0,
0,0,8454,8455,0,0,0,0,0,8426,8427,0,0,0,0,0,
0,0,8475,8476,0,0,0,0,0,8447,8448,8508,8509,8510,0,0,
0,0,0,0,0,0,0,0,0,0,0,0,0,0,0,0,
0,0,0,0,0,0,0,0,0,0,0,0,0,0,0,0
</chunk>
   <chunk x="16" y="16" width="16" height="16">
0,0,0,0,0,8525,2147492158,2147492157,2147492156,0,0,0,0,0,0,0,
0,0,0,0,0,0,2147492179,2147492178,2147492177,0,0,0,0,8508,8509,8510,
0,0,0,0,0,0,0,0,8535,0,0,0,0,8529,8530,8531,
8516,0,0,0,0,0,0,0,0,0,0,0,0,0,0,0,
8537,0,0,0,8454,8455,0,0,0,0,0,0,0,0,0,0,
0,2147492161,2147492160,2147492159,8475,8476,0,0,0,0,0,0,0,0,0,0,
0,2147492182,2147492181,2147492180,8557,8558,8559,0,0,0,0,0,0,0,0,0,
0,0,0,0,8578,8579,8580,0,0,0,0,0,0,0,0,0,
0,0,0,0,0,8508,8509,8510,0,8471,8472,0,0,2147492164,2147492163,2147492162,
8512,8414,8415,0,0,8529,8530,8531,0,8492,8493,0,0,2147492185,2147492184,2147492183,
8533,8435,8436,0,0,0,0,0,536879322,536879343,0,2147491998,2147491997,2147491996,0,0,
0,0,0,0,0,0,0,0,536879323,536879344,0,2147492019,2147492018,2147492017,0,0,
0,0,0,0,0,0,8551,8462,8463,8464,8547,8548,2147492039,8351,8352,0,
0,0,0,0,0,0,8572,8483,8484,8485,8568,8569,0,8372,8373,0,
0,0,0,0,0,0,0,0,0,0,0,0,0,0,0,0,
0,0,0,0,0,0,0,0,0,0,0,0,0,0,0,0
</chunk>
   <chunk x="32" y="16" width="16" height="16">
8405,8406,0,0,8547,8548,0,0,0,0,0,0,8471,0,0,0,
8426,8427,0,0,8568,8569,0,0,0,0,0,0,8492,0,0,0,
8447,8448,8545,8546,8547,8548,0,0,0,8514,8515,8516,0,0,0,0,
0,0,8566,8567,8568,8569,0,0,2147492166,2147492165,8536,8537,0,0,0,0,
0,0,0,0,0,8498,0,0,2147492187,2147492186,0,0,0,0,0,0,
0,0,2147492207,2147492206,2147492205,8511,8512,8513,0,0,8343,8344,0,0,0,0,
0,0,2147492228,2147492227,2147492226,8532,8533,8534,0,0,8364,8365,0,0,0,0,
0,0,8508,8509,8510,0,0,0,0,0,8385,8386,0,0,0,0,
0,0,8529,8530,8531,0,0,0,0,0,0,0,0,0,0,0,
0,0,0,0,0,0,0,0,0,0,8455,0,0,0,0,0,
0,0,0,0,0,8517,8518,0,0,0,0,0,0,0,0,0,
0,8348,8349,8350,0,8538,8539,0,0,0,0,0,0,0,0,0,
0,8369,8370,8371,0,8455,0,0,0,0,0,0,0,0,0,0,
0,8390,8391,8392,0,0,0,0,8560,0,0,0,0,0,0,0,
0,0,0,0,0,0,0,0,0,0,0,0,0,0,0,0,
0,0,0,0,0,0,0,0,0,0,0,0,0,0,0,0
</chunk>
  </data>
 </layer>
 <layer id="186" name="grass_elements2" width="46" height="32">
  <data encoding="csv">
   <chunk x="-16" y="-16" width="16" height="16">
0,0,0,0,0,0,0,0,0,0,0,0,0,0,0,0,
0,0,0,0,0,0,0,0,0,0,0,0,0,0,0,0,
0,0,0,0,0,0,0,0,0,0,0,0,0,0,0,0,
0,0,0,0,0,0,0,0,0,0,0,0,0,0,0,0,
0,0,0,0,0,0,0,0,0,0,0,0,0,0,0,0,
0,0,0,0,0,0,0,0,0,0,0,0,0,0,0,0,
0,0,0,0,0,0,0,0,0,0,0,0,0,0,0,0,
0,0,0,0,0,0,0,0,0,0,0,0,0,0,0,0,
0,8495,0,0,0,0,0,0,0,8495,0,0,0,0,0,0,
0,0,8509,8529,8529,8494,0,0,0,0,0,0,0,0,0,0,
0,0,8495,0,8531,8531,0,0,8495,0,0,8495,0,0,0,0,
8509,0,0,0,0,8495,8508,8529,0,0,0,0,0,0,0,0,
0,0,8494,0,0,0,0,8494,8530,8531,8509,0,0,0,0,0,
0,0,0,0,0,0,0,0,0,8509,0,0,8494,0,8494,0,
8495,0,0,8494,0,0,0,0,0,8494,0,0,0,0,0,0,
0,8509,0,0,0,0,0,0,0,0,0,0,0,0,8494,0
</chunk>
   <chunk x="0" y="-16" width="16" height="16">
0,0,0,0,0,0,0,0,0,0,0,0,0,0,0,0,
0,0,0,0,0,0,0,0,0,0,0,0,0,0,0,0,
0,0,0,0,0,0,0,0,0,0,0,0,0,0,0,0,
0,0,0,0,0,0,0,0,0,0,0,0,0,0,0,0,
0,0,0,0,0,0,0,0,0,0,0,0,0,0,0,0,
0,0,0,0,0,0,0,0,0,0,0,0,0,0,0,0,
0,0,0,0,0,0,0,0,0,0,0,0,0,0,0,0,
0,0,0,0,0,0,0,0,0,0,0,0,0,0,0,0,
0,0,0,0,0,0,0,0,0,0,0,0,0,0,0,0,
0,0,0,0,0,0,0,0,0,0,0,0,0,0,0,8509,
0,0,0,0,0,0,0,0,0,0,0,0,0,0,8530,0,
0,0,8495,0,8495,0,0,0,0,0,0,0,0,8494,8530,0,
0,0,0,8495,0,0,8495,8494,0,8494,0,0,8510,8529,8510,8508,
0,0,0,0,0,8494,0,0,0,0,0,8531,0,8509,8509,8510,
0,0,0,8495,8494,0,0,8494,0,8494,8508,8509,0,0,0,0,
0,0,0,0,0,0,0,0,0,0,8510,8531,8509,0,8494,0
</chunk>
   <chunk x="16" y="-16" width="16" height="16">
0,0,0,0,0,0,0,0,0,0,0,0,0,0,0,0,
0,0,0,0,0,0,0,0,0,0,0,0,0,0,0,0,
0,0,0,0,0,0,0,0,0,0,0,0,0,0,0,0,
0,0,0,0,0,0,0,0,0,0,0,0,0,0,0,0,
0,0,0,0,0,0,0,0,0,0,0,0,0,0,0,0,
0,0,0,0,0,0,0,0,0,0,0,0,0,0,0,0,
0,0,0,0,0,0,0,0,0,0,0,0,0,0,0,0,
0,0,0,0,0,0,0,0,0,8495,0,0,0,0,0,0,
0,0,0,0,8509,0,0,8509,0,0,0,0,8509,0,0,0,
0,0,8509,0,8495,0,8494,0,0,0,8509,0,0,0,0,0,
0,0,0,0,0,0,0,8509,0,0,0,0,0,8494,0,0,
0,8494,0,0,8509,0,8494,0,0,0,0,0,0,0,0,0,
8509,8530,0,0,0,0,0,0,0,0,0,0,8531,8508,0,8510,
8509,8509,8510,8509,0,0,0,0,0,0,0,8510,8529,0,8529,8531,
0,0,0,0,0,0,0,0,0,0,0,8508,8495,8531,8508,8509,
0,0,0,0,0,0,0,0,0,0,0,0,0,8510,0,8530
</chunk>
   <chunk x="32" y="-16" width="16" height="16">
0,0,0,0,0,0,0,0,0,0,0,0,0,0,0,0,
0,0,0,0,0,0,0,0,0,0,0,0,0,0,0,0,
0,0,0,0,0,0,0,0,0,0,0,0,0,0,0,0,
0,0,0,0,0,0,0,0,0,0,0,0,0,0,0,0,
0,0,0,0,0,0,0,0,0,0,0,0,0,0,0,0,
0,0,0,0,0,0,0,0,0,0,0,0,0,0,0,0,
0,0,0,0,0,0,0,0,0,0,0,0,0,0,0,0,
0,0,0,0,0,0,0,0,0,0,0,0,0,0,0,0,
0,0,0,0,0,0,0,0,0,0,0,0,0,0,0,0,
0,0,0,0,0,0,0,0,0,0,0,0,0,0,0,0,
0,0,0,0,0,0,0,0,0,0,0,0,0,0,0,0,
0,0,0,0,0,0,0,0,0,0,0,0,0,0,0,0,
0,0,0,0,0,0,0,0,0,0,0,0,0,0,0,0,
0,0,0,0,8531,8530,0,0,0,0,0,0,0,0,0,0,
0,8495,0,8529,8509,8529,0,8495,0,0,0,0,0,0,0,0,
0,0,0,0,0,8508,0,0,0,8529,8510,0,8509,8509,0,0
</chunk>
   <chunk x="-16" y="0" width="16" height="16">
0,0,0,0,0,0,0,8494,0,0,0,0,0,0,0,0,
0,0,0,0,0,0,0,0,0,0,0,0,0,0,0,0,
0,0,0,0,0,0,0,0,0,0,0,0,0,0,0,0,
0,0,0,0,0,0,0,0,8471,8472,0,0,0,0,8471,8472,
0,0,0,0,0,0,0,0,8492,8493,0,0,0,0,8492,8493,
0,0,0,0,0,0,0,0,0,0,0,0,0,0,0,0,
0,0,0,0,0,0,0,0,0,0,0,0,0,0,0,0,
0,0,0,0,0,0,0,0,0,0,0,0,0,0,0,0,
0,0,0,0,0,0,0,0,0,0,0,0,0,0,0,0,
0,0,0,0,0,0,0,0,0,0,0,0,0,0,0,0,
0,0,0,0,0,0,0,0,0,0,0,0,0,0,0,0,
0,0,0,0,0,0,0,0,0,0,0,0,0,0,0,0,
0,0,0,0,0,0,0,0,0,0,0,0,0,0,0,0,
0,0,0,0,0,0,0,0,0,0,0,0,0,0,0,0,
0,0,0,0,0,0,0,0,0,0,0,0,0,0,0,0,
0,0,0,0,0,0,0,0,0,0,0,0,0,0,0,0
</chunk>
   <chunk x="0" y="0" width="16" height="16">
0,0,0,0,0,0,0,0,0,0,0,8495,0,0,0,0,
0,0,0,0,0,0,0,0,0,0,0,0,0,0,0,0,
0,8471,8472,0,0,0,0,0,0,0,8508,8509,8510,0,0,0,
0,8492,8493,8471,8472,0,0,0,0,0,8529,8530,8531,0,0,0,
0,0,0,8492,8493,0,0,0,0,0,0,0,0,0,0,0,
0,0,0,0,0,0,0,0,0,0,0,0,0,8348,8349,8350,
8471,8472,0,0,0,0,0,0,0,0,0,0,0,8369,8370,8371,
8492,8493,0,0,0,0,0,1073750265,1073750266,1073750267,0,0,0,8390,8391,8392,
0,0,8471,8472,8471,8472,0,1073750244,1073750245,1073750246,0,0,0,0,0,0,
0,0,8492,8493,8492,8493,0,1073750223,1073750224,1073750225,0,0,0,8461,8462,8463,
0,0,0,0,0,0,0,0,8410,8411,0,0,0,8482,8483,8484,
0,0,0,0,0,0,0,0,8431,8432,0,0,0,0,0,0,
0,0,0,0,0,0,0,0,2147492158,2147492157,2147492156,0,0,0,0,0,
0,0,0,0,0,0,0,0,2147492179,2147492178,2147492177,0,0,0,0,0,
0,0,0,0,0,0,0,0,0,0,0,0,0,0,0,0,
0,0,0,0,0,0,0,0,0,0,0,0,0,0,0,0
</chunk>
   <chunk x="16" y="0" width="16" height="16">
0,0,0,0,0,0,0,0,0,0,0,0,0,8510,8510,8510,
0,0,0,0,0,0,0,0,0,0,0,0,0,0,0,0,
0,0,0,0,0,0,0,0,0,0,0,0,0,0,0,0,
0,0,0,0,0,0,0,0,0,0,0,0,0,0,0,0,
0,0,0,0,0,0,0,0,0,0,0,0,0,0,0,0,
0,0,0,0,0,0,0,0,0,0,0,0,0,0,0,0,
0,0,0,0,0,8399,8400,8401,0,0,0,0,0,0,0,0,
0,0,0,0,0,8420,8421,8422,0,0,0,0,0,0,0,0,
0,0,0,0,0,8441,8442,8443,0,0,0,0,0,0,0,0,
8464,0,0,0,0,0,0,0,0,0,0,0,0,0,0,0,
8485,0,0,0,0,0,0,0,0,0,0,0,0,0,0,0,
0,0,0,0,0,0,0,0,8462,8463,8464,1073750310,1073750311,0,0,0,
0,0,0,8469,8470,0,0,0,8483,8484,8485,1073750289,1073750290,0,0,0,
0,0,0,8490,8491,0,0,0,0,0,0,0,0,0,0,0,
0,0,0,0,0,0,0,0,0,0,0,0,0,0,0,2147491992,
0,0,0,0,0,0,0,0,0,0,0,0,0,0,0,2147492013
</chunk>
   <chunk x="32" y="0" width="16" height="16">
0,0,0,0,0,0,0,0,0,8510,0,0,0,0,0,0,
0,2147492158,2147492157,2147492156,0,0,0,0,0,0,0,0,0,0,0,0,
0,2147492179,2147492178,2147492177,2147492155,2147492154,0,0,0,0,0,0,0,0,0,0,
0,0,0,0,2147492176,2147492175,0,0,0,0,0,0,0,0,0,0,
0,0,0,0,0,0,0,2147492158,2147492157,2147492156,0,0,0,0,0,0,
0,0,0,0,0,0,0,2147492179,2147492178,2147492177,0,0,0,0,0,0,
0,0,0,0,0,0,0,0,0,0,0,0,0,0,0,0,
0,0,0,0,0,0,0,0,0,0,0,0,0,8508,8509,8510,
0,0,0,0,0,0,0,0,0,0,0,0,0,8529,8530,8531,
0,0,0,0,0,0,0,0,0,0,0,0,0,0,0,0,
0,0,0,0,0,0,0,0,0,0,0,0,0,0,0,0,
0,0,0,0,0,0,0,0,0,0,0,0,0,0,0,8514,
0,0,0,0,0,0,0,0,8407,8408,8409,0,0,0,0,8535,
0,0,0,0,0,0,0,0,8428,8429,8430,8496,8497,0,0,8509,
2147491991,536879322,536879343,8461,8462,8463,8464,0,8449,8450,8451,0,0,0,0,0,
2147492012,536879323,536879344,8482,8483,8484,8485,0,0,0,0,0,0,0,0,0
</chunk>
   <chunk x="48" y="0" width="16" height="16">
8509,0,0,0,0,0,0,0,0,0,0,0,0,0,0,0,
0,0,0,0,0,0,0,0,0,0,0,0,0,0,0,0,
0,0,0,8509,0,0,0,0,0,0,0,0,0,0,0,0,
0,0,0,8529,0,0,8509,0,0,0,0,0,0,0,0,0,
0,0,0,0,8508,0,8529,0,0,0,0,0,0,0,0,0,
0,0,0,0,8508,0,0,0,0,0,0,0,0,0,0,0,
0,8462,8463,8464,0,0,0,0,0,0,0,0,0,0,0,0,
0,8483,8484,8485,0,8471,8472,0,0,0,0,0,0,0,0,0,
0,8462,8463,8464,0,8492,8493,0,0,0,0,0,0,0,0,0,
0,8483,8484,8485,0,0,0,0,0,0,0,0,0,0,0,0,
0,0,0,8509,0,0,8509,0,0,0,0,0,0,0,0,0,
8515,8516,8530,8530,0,8531,0,0,0,0,0,0,0,0,0,0,
8536,8537,8530,0,8530,8508,0,0,0,0,0,0,0,0,0,0,
0,0,0,8508,0,0,0,0,0,0,0,0,0,0,0,0,
0,0,0,8510,0,0,0,0,0,0,0,0,0,0,0,0,
0,0,0,0,0,0,0,0,0,0,0,0,0,0,0,0
</chunk>
   <chunk x="-16" y="16" width="16" height="16">
0,0,0,0,0,0,0,0,0,0,0,0,0,0,0,0,
0,0,0,0,0,0,0,0,0,0,0,0,0,0,0,0,
0,0,0,0,0,0,0,0,0,0,0,0,0,0,0,0,
0,8495,0,0,0,0,0,0,0,0,0,0,0,0,0,0,
0,0,0,0,0,0,0,0,0,8494,0,0,0,0,0,0,
0,0,0,8494,8495,8483,8484,8485,0,0,0,0,0,0,0,0,
0,0,0,0,0,0,0,8509,0,0,8494,8495,0,8494,8495,0,
0,8494,8495,0,0,0,0,0,8494,8495,0,0,0,0,0,0,
0,0,0,0,0,0,0,0,0,0,0,8483,8484,8485,0,0,
0,0,8483,8484,8485,8483,8484,8485,8494,8495,0,0,8508,8509,0,0,
0,0,0,8508,8509,0,0,0,0,0,0,0,0,0,0,0,
0,0,0,0,0,0,0,0,0,0,0,0,0,0,8508,8509,
8494,8495,0,0,0,0,8508,8509,8510,8483,8484,0,0,0,8529,8530,
0,0,8483,8484,0,0,8529,8530,8531,0,8508,8509,0,0,0,0,
0,0,0,8508,8509,0,0,0,0,0,0,0,0,8508,8509,8510,
0,0,0,0,0,0,0,0,0,0,0,0,0,8529,8530,8531
</chunk>
   <chunk x="0" y="16" width="16" height="16">
0,0,0,0,0,0,0,0,0,0,0,0,0,0,0,0,
0,0,0,0,0,0,0,0,0,0,0,0,0,0,0,0,
0,0,0,0,0,0,0,0,0,0,8514,8515,8516,0,0,0,
0,0,0,0,0,0,0,0,0,0,8535,8536,8537,0,0,0,
0,0,0,0,0,0,0,8348,8349,8350,0,0,0,0,0,0,
0,0,0,0,0,0,0,8369,8370,8371,0,0,2147492166,2147492165,0,0,
0,0,0,0,0,0,0,8390,8391,8392,0,0,2147492187,2147492186,0,0,
0,0,0,0,0,0,0,0,0,0,0,0,0,0,0,0,
8494,8495,0,0,0,0,0,0,0,0,0,0,0,0,0,0,
0,0,0,0,0,0,0,0,0,0,0,0,0,0,0,0,
0,0,0,0,0,0,0,0,0,0,0,0,0,0,8511,8512,
8510,0,8461,8462,8463,8464,2147492163,2147492162,0,0,0,0,2147492164,2147492163,8532,8533,
8531,0,8482,8483,8484,8485,2147492184,2147492183,0,0,0,0,2147492185,2147492184,2147492183,0,
0,0,0,0,8508,8509,8510,0,0,0,0,0,0,0,0,8410,
0,0,0,0,0,0,0,0,0,0,0,0,0,0,0,0,
0,0,0,0,0,0,0,8506,8507,0,0,0,0,0,0,0
</chunk>
   <chunk x="16" y="16" width="16" height="16">
0,0,0,0,0,8467,8468,0,0,0,0,0,0,0,0,2147492034,
0,0,0,0,0,8488,8489,0,1073750391,0,0,0,0,0,0,0,
0,0,0,0,0,0,0,0,1073750370,0,8471,8472,0,2147492116,2147492115,0,
0,0,0,0,0,0,0,0,0,0,8492,8493,0,2147492137,2147492136,0,
0,0,0,0,0,0,0,0,0,0,0,0,0,0,0,0,
0,0,0,0,0,0,0,0,0,0,0,0,0,0,0,0,
0,0,0,0,0,0,0,0,0,0,0,0,0,0,0,0,
0,0,0,0,0,0,0,0,0,0,0,0,0,0,0,0,
0,0,0,8345,8346,8347,0,0,0,0,8465,8466,0,0,0,0,
0,0,0,8366,8367,8368,0,0,0,0,8486,8487,0,0,0,0,
8513,0,0,8387,8388,8389,2147492057,2147492056,0,0,0,0,0,0,0,0,
8534,0,0,0,0,0,2147492078,2147492077,0,0,0,0,0,0,0,0,
0,0,0,0,0,0,2147492099,2147492098,0,0,8514,8515,8516,0,0,0,
8411,0,0,0,0,0,0,8514,8515,8516,8535,8536,8537,0,0,0,
0,0,0,0,0,0,0,8535,8536,8537,0,0,0,0,0,0,
0,0,0,0,0,0,0,0,0,0,0,0,0,0,0,0
</chunk>
   <chunk x="32" y="16" width="16" height="16">
2147492033,0,0,0,0,0,0,0,0,0,0,0,0,0,0,0,
0,0,0,0,0,0,0,0,0,0,0,0,0,0,0,0,
0,0,0,0,0,0,0,0,0,0,0,0,0,0,0,0,
0,0,0,0,0,0,0,0,0,0,0,0,0,0,0,0,
0,0,0,0,0,0,0,8351,8352,0,0,0,0,0,0,0,
0,0,0,0,0,0,0,8372,8373,0,0,0,0,0,0,0,
0,0,0,0,0,8452,0,8393,8394,0,0,0,0,0,0,0,
0,0,0,0,0,8473,0,0,0,0,0,0,0,0,0,0,
8508,8509,8510,0,0,0,8423,8424,8425,0,0,0,0,0,0,0,
8529,8530,8531,0,0,0,8444,8445,8446,0,0,0,0,0,0,0,
0,0,0,0,0,0,8461,8462,0,0,0,0,0,0,0,0,
0,0,0,0,0,0,0,0,0,0,0,0,0,0,0,0,
0,0,0,0,0,0,0,0,0,0,0,0,0,0,0,0,
0,0,0,0,0,0,0,0,0,0,0,0,0,0,0,0,
0,0,0,0,0,0,0,0,0,0,0,0,0,0,0,0,
0,0,0,0,0,0,0,0,0,0,0,0,0,0,0,0
</chunk>
   <chunk x="48" y="16" width="16" height="16">
0,0,0,0,0,0,0,0,0,0,0,0,0,0,0,0,
0,0,0,0,0,0,0,0,0,0,0,0,0,0,0,0,
0,0,0,0,0,0,0,0,0,0,0,0,0,0,0,0,
0,0,0,0,0,0,0,0,0,0,0,0,0,0,0,0,
0,0,0,0,0,0,0,0,0,0,0,0,0,0,0,0,
0,0,0,0,0,0,0,0,0,0,0,0,0,0,0,0,
0,0,0,0,0,0,0,0,0,0,0,0,0,0,0,0,
0,0,0,0,0,0,0,0,0,0,0,0,0,0,0,0,
0,0,0,0,0,0,0,0,0,0,0,0,0,0,0,0,
0,0,0,0,0,0,0,0,0,0,0,0,0,0,0,0,
0,0,0,0,0,0,8462,8463,8464,0,0,0,0,0,0,0,
0,0,0,0,0,0,8483,8484,8485,0,0,0,0,0,0,0,
0,0,0,0,0,0,0,0,0,0,0,0,0,0,0,0,
0,0,0,8469,8470,0,0,0,0,0,0,0,0,0,0,0,
0,0,0,8490,8491,0,0,0,0,0,0,0,0,0,0,0,
0,0,0,0,0,0,0,0,0,0,0,0,0,0,0,0
</chunk>
   <chunk x="-16" y="32" width="16" height="16">
0,0,0,0,0,0,0,0,0,8483,8484,0,0,0,0,0,
0,8494,8495,0,0,8483,8484,8485,0,0,8508,8509,0,0,0,0,
0,0,0,0,0,0,8508,8509,0,0,0,0,0,8494,8495,0,
0,0,0,0,0,0,0,0,0,0,8494,8495,0,0,0,8494,
0,0,0,0,0,0,0,0,0,0,0,0,0,0,0,0,
0,0,0,0,0,0,0,0,0,0,0,0,0,0,0,0,
0,0,0,0,0,0,0,0,0,0,0,0,0,0,0,0,
0,0,0,0,0,0,0,0,0,0,0,0,0,0,0,0,
0,0,0,0,0,0,0,0,0,0,0,0,0,0,0,0,
0,0,0,0,0,0,0,0,0,0,0,0,0,0,0,0,
0,0,0,0,0,0,0,0,0,0,0,0,0,0,0,0,
0,0,0,0,0,0,0,0,0,0,0,0,0,0,0,0,
0,0,0,0,0,0,0,0,0,0,0,0,0,0,0,0,
0,0,0,0,0,0,0,0,0,0,0,0,0,0,0,0,
0,0,0,0,0,0,0,0,0,0,0,0,0,0,0,0,
0,0,0,0,0,0,0,0,0,0,0,0,0,0,0,0
</chunk>
   <chunk x="0" y="32" width="16" height="16">
8483,8484,8485,0,8506,8507,0,8527,8528,0,0,0,0,0,0,0,
0,8508,8509,0,8527,8528,0,0,8506,8507,0,0,8469,8470,0,0,
0,0,0,0,0,0,0,0,8527,8528,0,0,8490,8491,0,0,
8495,0,0,8494,8495,0,8471,8472,0,0,0,0,0,0,0,0,
0,0,0,0,0,0,8492,8493,0,0,0,0,0,0,8494,8495,
0,0,0,0,0,0,0,0,0,0,0,0,0,0,0,0,
0,0,0,0,0,0,0,0,0,0,0,0,0,0,0,0,
0,0,0,0,0,0,0,0,0,0,0,0,0,0,0,0,
0,0,0,0,0,0,0,0,0,0,0,0,0,0,0,0,
0,0,0,0,0,0,0,0,0,0,0,0,0,0,0,0,
0,0,0,0,0,0,0,0,0,0,0,0,0,0,0,0,
0,0,0,0,0,0,0,0,0,0,0,0,0,0,0,0,
0,0,0,0,0,0,0,0,0,0,0,0,0,0,0,0,
0,0,0,0,0,0,0,0,0,0,0,0,0,0,0,0,
0,0,0,0,0,0,0,0,0,0,0,0,0,0,0,0,
0,0,0,0,0,0,0,0,0,0,0,0,0,0,0,0
</chunk>
   <chunk x="16" y="32" width="16" height="16">
0,0,0,0,0,0,0,0,0,0,0,0,0,0,0,0,
8494,8495,0,0,0,0,0,0,0,0,0,0,0,0,0,0,
0,0,0,0,0,0,0,0,0,0,0,0,0,0,0,0,
0,8469,8470,0,0,0,0,0,0,0,0,0,0,0,0,0,
0,8490,8491,0,0,0,0,0,0,8483,8484,8485,0,0,0,0,
0,0,0,0,0,0,0,0,8471,8472,8508,8509,0,0,0,8483,
0,0,0,0,0,0,0,0,8492,8493,0,0,0,0,0,0,
0,0,0,0,0,0,0,0,0,0,0,0,0,0,8469,8470,
0,0,0,0,0,0,0,0,0,0,0,0,0,0,8490,8491,
0,0,0,0,0,0,0,0,0,0,0,0,0,8471,8472,0,
0,0,0,0,0,0,0,0,8483,8484,8485,0,0,8492,8493,0,
0,0,0,0,0,0,0,0,0,8508,8509,0,0,0,0,0,
0,0,0,0,0,0,0,0,0,0,0,0,0,0,0,0,
0,0,0,0,0,0,0,0,0,0,0,0,0,0,0,0,
0,0,0,0,0,0,0,0,0,0,0,0,0,0,0,0,
0,0,0,0,0,0,0,0,0,0,0,0,0,0,0,0
</chunk>
   <chunk x="32" y="32" width="16" height="16">
0,0,8471,8472,0,0,0,0,0,0,0,0,0,0,0,0,
0,0,8492,8493,0,0,0,0,0,0,0,0,0,0,0,0,
0,0,0,0,0,0,0,0,0,0,0,0,0,0,0,0,
0,0,0,0,0,0,0,0,0,0,0,0,0,0,0,0,
0,0,0,0,0,0,0,0,0,0,0,0,0,0,0,0,
8484,8485,0,0,0,0,0,0,0,0,0,0,0,0,0,0,
8508,8509,0,0,0,0,0,0,0,0,0,0,0,0,0,0,
0,0,0,0,0,0,0,0,0,0,0,0,0,0,0,0,
0,0,0,0,0,0,0,0,0,0,0,0,0,0,0,0,
0,0,0,0,0,0,0,0,0,0,0,0,0,0,0,0,
0,0,0,0,0,0,0,0,0,0,0,0,0,0,0,0,
0,0,0,0,0,0,0,0,0,0,0,0,0,0,0,0,
0,0,0,0,0,0,0,0,0,0,0,0,0,0,0,0,
0,0,0,0,0,0,0,0,0,0,0,0,0,0,0,0,
0,0,0,0,0,0,0,0,0,0,0,0,0,0,0,0,
0,0,0,0,0,0,0,0,0,0,0,0,0,0,0,0
</chunk>
   <chunk x="48" y="32" width="16" height="16">
0,0,0,0,0,0,0,0,8465,8466,0,0,0,0,0,0,
0,0,0,0,0,8465,8466,0,8486,8487,0,0,0,0,0,0,
0,0,0,0,0,8486,8487,0,0,0,0,0,0,0,0,0,
0,0,0,0,0,0,0,0,0,0,0,0,0,0,0,0,
0,0,0,0,0,0,0,0,0,0,0,0,0,0,0,0,
0,0,0,0,0,0,0,0,0,0,0,0,0,0,0,0,
0,0,0,0,0,0,0,0,0,0,0,0,0,0,0,0,
0,0,0,0,0,0,0,0,0,0,0,0,0,0,0,0,
0,0,0,0,0,0,0,0,0,0,0,0,0,0,0,0,
0,0,0,0,0,0,0,0,0,0,0,0,0,0,0,0,
0,0,0,0,0,0,0,0,0,0,0,0,0,0,0,0,
0,0,0,0,0,0,0,0,0,0,0,0,0,0,0,0,
0,0,0,0,0,0,0,0,0,0,0,0,0,0,0,0,
0,0,0,0,0,0,0,0,0,0,0,0,0,0,0,0,
0,0,0,0,0,0,0,0,0,0,0,0,0,0,0,0,
0,0,0,0,0,0,0,0,0,0,0,0,0,0,0,0
</chunk>
   <chunk x="-16" y="48" width="16" height="16">
0,0,0,0,0,0,0,0,0,0,0,0,0,0,0,0,
0,0,0,0,0,0,0,0,0,0,0,0,0,0,0,0,
0,0,0,0,0,0,0,0,0,0,0,0,0,0,0,0,
0,0,0,0,0,0,0,0,0,0,0,0,0,0,0,0,
0,0,0,0,0,0,0,0,0,0,0,0,0,0,0,0,
0,0,0,0,0,0,0,0,0,0,0,0,0,0,0,0,
0,0,0,0,0,0,0,0,0,0,0,0,0,0,0,0,
0,0,0,0,0,0,0,0,0,0,0,0,0,0,0,0,
0,0,0,0,0,0,0,0,0,0,0,0,0,0,0,0,
0,0,0,0,0,0,0,0,0,0,0,0,0,0,0,0,
0,0,0,0,0,0,0,0,0,0,0,0,0,0,0,0,
0,0,0,0,0,0,0,0,0,0,0,0,0,0,0,0,
0,0,0,0,0,0,0,0,0,0,0,0,0,0,0,8484,
0,0,0,0,0,0,0,0,0,0,0,0,0,0,8470,0,
0,0,0,0,0,0,0,0,0,0,0,0,0,8484,0,8509,
0,0,0,0,0,0,0,0,0,0,0,0,0,0,0,0
</chunk>
   <chunk x="0" y="48" width="16" height="16">
0,0,0,0,0,0,0,0,0,0,0,0,0,0,0,0,
0,0,0,0,0,0,0,0,0,0,0,0,0,0,0,0,
0,0,0,0,0,0,0,0,0,0,0,0,0,0,0,0,
0,0,0,0,0,0,0,0,0,0,0,0,0,0,0,0,
0,0,0,0,0,0,0,0,0,0,0,0,0,0,0,0,
0,0,0,0,0,0,0,0,0,0,0,0,0,0,0,0,
0,0,0,0,0,0,0,0,0,0,0,0,0,0,0,0,
0,0,0,0,0,0,0,0,0,0,0,0,0,0,0,0,
0,0,0,0,0,0,0,0,0,0,0,0,0,0,0,0,
0,0,0,0,0,0,0,0,0,0,0,0,0,0,0,0,
0,0,0,0,0,0,0,0,0,0,0,0,0,0,0,0,
0,0,0,0,0,0,0,0,0,8494,0,0,0,8495,0,8514,
8484,0,0,0,0,0,0,0,0,0,8494,8529,8509,0,0,8535,
8490,0,0,0,0,0,0,0,0,8508,0,8531,8529,0,8509,0,
0,0,0,0,0,0,0,0,0,0,0,8509,8510,0,0,0,
0,0,0,0,0,0,0,0,0,0,0,0,0,0,0,0
</chunk>
   <chunk x="16" y="48" width="16" height="16">
0,0,0,0,0,0,0,0,0,0,0,0,0,0,0,0,
0,0,0,0,0,0,0,0,0,0,0,0,0,0,0,0,
0,0,0,0,0,0,0,0,0,0,0,0,0,0,0,0,
0,0,0,0,0,0,0,0,0,0,0,0,0,0,0,0,
0,0,0,0,0,0,0,0,0,0,0,0,0,0,0,0,
0,0,0,0,0,0,0,8514,8515,8516,0,0,0,0,0,0,
0,0,0,0,0,0,0,8535,8536,8537,0,0,0,0,0,0,
0,0,0,0,0,0,0,0,0,0,0,0,0,0,0,0,
0,0,0,0,0,0,0,0,0,0,0,0,0,0,0,0,
0,0,0,0,0,0,0,0,0,0,0,0,0,0,0,0,
0,0,0,0,0,0,0,0,0,0,0,0,0,0,0,0,
8515,8516,0,0,0,0,0,0,0,0,0,0,0,0,0,0,
8536,8537,8516,0,0,0,8508,8509,8510,0,0,0,0,0,0,0,
8535,8536,8537,0,0,0,8529,8530,8531,0,0,0,0,0,0,0,
0,0,0,0,0,0,0,0,0,0,0,0,0,0,0,0,
0,0,0,0,0,0,0,0,0,0,0,0,0,0,0,0
</chunk>
  </data>
 </layer>
 <layer id="188" name="grass_elements3" width="46" height="32">
  <data encoding="csv">
   <chunk x="-16" y="-16" width="16" height="16">
0,0,0,0,0,0,0,0,0,0,0,0,0,0,0,0,
0,0,0,0,0,0,0,0,0,0,0,0,0,0,0,0,
0,0,0,0,0,0,0,0,0,0,0,0,0,0,0,0,
0,0,0,0,0,0,0,0,0,0,0,0,0,0,0,0,
0,0,0,0,0,0,0,0,0,0,0,0,0,0,0,0,
0,0,0,0,0,0,0,0,0,0,0,0,0,0,0,0,
0,0,0,0,0,0,0,0,0,0,0,0,0,0,0,0,
0,0,0,0,0,0,0,0,0,0,0,0,0,0,0,0,
0,0,0,0,0,0,0,0,0,0,0,0,0,0,0,0,
0,0,0,0,0,0,0,0,0,0,0,0,0,0,0,0,
0,0,0,0,0,0,0,0,0,0,0,0,0,0,0,0,
0,0,0,0,0,0,0,0,0,0,0,8509,0,0,0,0,
0,0,0,0,0,0,0,0,0,0,0,0,0,0,0,0,
0,0,0,0,0,0,0,0,0,0,0,0,0,0,0,0,
0,0,0,0,0,0,0,0,0,0,0,0,0,0,0,0,
0,0,0,0,0,0,0,0,0,0,0,0,0,0,0,0
</chunk>
   <chunk x="0" y="0" width="16" height="16">
0,0,0,0,0,0,0,0,0,0,0,0,0,0,0,0,
0,0,0,0,0,0,0,0,0,0,0,0,0,0,0,0,
0,0,0,0,0,0,0,0,0,0,0,0,0,0,0,0,
0,0,0,0,0,0,0,0,0,0,0,0,0,0,0,0,
0,0,0,0,0,0,0,0,0,0,0,0,0,0,0,0,
0,0,0,0,0,0,0,0,0,0,0,0,0,0,0,0,
0,0,0,0,0,0,0,0,0,0,0,0,0,0,0,0,
0,0,0,0,0,0,0,0,0,0,0,0,0,0,0,0,
0,0,0,0,0,0,0,0,0,0,0,0,0,0,0,0,
0,0,0,0,0,0,0,0,0,0,0,0,0,0,0,0,
0,0,0,0,0,0,0,0,0,0,0,0,0,0,0,0,
0,0,0,0,0,0,0,0,0,0,0,0,0,0,0,0,
0,0,0,0,0,0,0,0,0,0,8423,8424,8425,0,0,0,
0,0,0,0,0,0,0,0,0,0,8444,8445,8446,0,0,0,
0,0,0,0,0,0,0,0,0,0,0,0,0,0,0,0,
0,0,0,0,0,0,0,0,0,0,0,0,0,0,0,0
</chunk>
   <chunk x="16" y="0" width="16" height="16">
0,0,0,0,0,0,0,0,0,0,0,0,0,0,0,0,
0,0,0,0,0,0,0,0,0,0,0,0,0,8414,8415,0,
0,0,0,0,0,0,8414,8415,0,0,0,0,0,8435,8436,0,
0,0,0,0,0,8506,8435,8436,0,0,0,0,0,0,0,0,
0,0,0,0,0,8527,8528,0,0,0,0,0,0,0,0,0,
1073750314,1073750315,0,0,0,0,0,0,0,0,0,0,0,0,0,0,
1073750293,1073750294,0,0,0,0,0,0,0,0,0,0,0,0,0,0,
0,0,0,0,0,0,0,0,0,0,0,0,0,0,0,0,
0,0,0,0,0,0,0,0,0,0,0,0,0,0,0,0,
0,0,0,0,0,0,0,0,0,0,0,0,0,0,0,0,
0,0,0,0,0,0,0,0,0,0,0,0,0,0,0,0,
0,0,0,0,8423,8424,8425,0,0,0,0,0,0,0,0,0,
0,0,0,0,8444,8445,8446,0,0,0,0,0,0,0,0,0,
0,0,0,0,0,0,0,0,0,0,0,0,0,8551,0,0,
0,0,0,0,0,0,0,0,0,0,0,0,0,8572,0,0,
0,0,0,0,0,0,0,0,0,0,0,0,0,0,0,0
</chunk>
   <chunk x="32" y="0" width="16" height="16">
0,0,0,0,0,0,0,0,0,0,0,0,0,0,0,0,
0,0,0,0,0,0,0,0,0,0,0,0,0,0,0,0,
0,0,0,0,0,0,0,0,0,0,0,0,0,0,0,0,
0,0,0,0,0,0,0,0,0,0,0,0,0,0,0,0,
0,0,0,0,0,0,0,0,0,0,0,0,0,0,0,0,
0,0,0,0,0,0,0,0,0,0,0,0,0,0,0,0,
0,0,0,0,0,0,0,0,0,0,0,0,0,0,0,0,
0,0,0,0,0,0,0,0,0,0,0,0,0,0,0,0,
0,0,0,0,0,0,0,0,0,0,0,0,0,0,0,0,
0,0,0,0,0,0,0,0,0,0,0,0,0,0,0,0,
0,0,0,0,0,0,0,0,0,0,0,0,0,0,0,0,
0,0,0,0,0,0,0,0,0,0,0,0,0,0,0,0,
0,0,0,0,0,2147492070,2147492069,2147492068,0,0,0,0,0,0,0,0,
0,0,0,0,0,2147492091,2147492090,2147492089,0,0,0,0,0,0,0,0,
0,0,0,0,0,0,0,0,0,0,0,0,0,0,0,0,
0,0,0,0,0,0,0,0,0,0,0,0,0,0,0,0
</chunk>
   <chunk x="-16" y="16" width="16" height="16">
0,0,0,0,0,0,0,0,0,0,0,0,0,0,0,0,
0,0,0,0,0,0,0,0,0,0,0,0,0,0,0,0,
0,0,0,0,0,0,0,0,0,0,0,0,0,0,0,0,
0,0,0,0,0,0,0,0,0,0,0,0,0,0,0,0,
0,0,0,0,0,0,0,0,0,0,0,0,0,0,0,0,
0,0,0,0,0,0,0,0,0,0,0,0,0,0,0,0,
0,0,0,0,0,0,0,0,0,0,8558,8435,0,0,0,0,
0,0,0,0,0,0,0,0,0,0,0,0,0,0,0,0,
0,0,0,0,0,0,0,0,0,0,0,0,0,0,0,0,
0,0,0,0,0,0,0,0,0,0,0,0,0,0,0,0,
0,0,0,0,0,0,0,0,0,0,0,0,0,0,0,0,
0,0,0,0,0,0,0,0,0,0,0,0,0,8558,8435,0,
0,0,0,0,0,0,0,0,0,0,0,0,0,0,0,0,
0,0,0,0,0,0,0,0,0,0,0,0,0,0,8558,8435,
0,9959,9960,0,0,0,0,0,0,0,0,0,0,0,0,0,
0,9991,9992,0,0,0,0,0,0,0,0,0,0,0,8558,8435
</chunk>
   <chunk x="0" y="16" width="16" height="16">
0,0,0,0,0,0,0,0,0,0,0,0,0,0,0,0,
0,0,0,0,0,0,0,0,0,0,0,0,0,0,0,0,
0,0,0,0,0,0,0,0,0,0,0,0,0,0,0,0,
0,0,0,0,0,0,0,0,0,0,0,0,0,0,0,0,
0,0,0,0,0,0,0,0,0,0,0,0,0,0,0,0,
0,0,0,0,0,0,0,0,0,0,0,0,0,0,0,0,
0,0,0,0,0,0,0,0,0,0,0,0,8414,8415,0,0,
0,0,0,0,0,0,0,0,0,8423,8424,8425,8435,8436,0,0,
0,0,0,0,0,0,0,0,0,8444,8445,8446,0,0,0,0,
0,0,0,0,0,0,0,0,8414,8415,0,0,0,0,0,0,
0,0,0,0,0,0,0,8558,8435,8436,0,0,0,0,0,0,
0,0,0,0,0,0,0,0,0,0,0,0,0,0,0,0,
0,0,2147492206,0,0,0,0,0,0,0,0,0,0,0,0,0,
0,0,0,0,0,0,0,0,0,0,0,0,0,0,0,0,
0,0,0,0,0,0,0,0,0,0,0,0,0,0,0,0,
0,0,0,0,0,0,0,0,0,0,0,0,0,0,0,0
</chunk>
   <chunk x="16" y="16" width="16" height="16">
0,0,0,0,0,0,0,0,0,0,0,0,0,0,0,8465,
0,0,0,0,0,0,0,0,2147492161,2147492160,2147492159,0,0,0,0,8486,
0,0,0,0,0,0,0,0,2147492182,2147492181,2147492180,8508,8509,8510,0,0,
0,0,0,0,0,0,0,0,0,0,0,8529,8530,8531,0,0,
0,0,0,0,0,0,0,0,0,0,0,0,0,0,0,0,
0,0,0,0,0,0,0,0,0,0,0,0,0,0,0,0,
0,0,0,0,0,0,0,0,0,0,0,0,0,0,0,0,
8504,8505,0,0,0,0,0,0,0,0,0,0,0,0,0,3221233923,
8525,8526,0,0,8558,0,0,0,0,0,0,8508,8509,8510,0,3221233902,
0,0,0,0,0,0,0,0,0,0,0,8529,8530,8531,0,3221233881,
0,0,0,0,0,0,0,0,0,0,0,0,0,0,0,0,
0,0,0,0,0,0,0,0,0,0,0,0,0,0,0,0,
0,0,0,0,0,0,0,0,0,0,0,0,0,0,0,0,
0,2147492206,0,0,0,0,0,0,0,0,0,0,0,0,0,0,
0,0,0,0,0,0,0,0,0,0,0,0,0,0,0,0,
0,0,0,0,0,0,0,0,0,0,0,0,0,0,0,0
</chunk>
   <chunk x="32" y="16" width="16" height="16">
8466,0,0,0,0,0,0,0,0,0,0,0,0,0,0,0,
8487,0,8558,0,0,0,0,0,0,0,0,0,0,0,0,0,
0,0,0,0,0,0,0,0,0,0,0,0,0,0,0,0,
0,0,0,0,0,0,0,0,0,0,0,0,0,0,0,0,
0,0,0,0,0,0,0,0,0,0,0,0,0,0,0,0,
0,0,0,0,0,0,0,0,0,0,0,0,0,0,0,0,
0,0,0,0,0,0,0,0,0,0,0,0,0,0,0,0,
3221233922,0,0,0,0,0,0,0,0,0,0,0,0,0,0,0,
3221233901,0,0,0,0,0,0,0,0,0,0,0,0,0,0,0,
3221233880,0,0,0,0,0,0,0,0,0,0,0,0,0,0,0,
0,0,0,0,0,0,0,0,0,0,0,0,0,0,0,0,
0,0,0,0,0,0,0,0,0,0,0,0,0,0,0,0,
0,0,0,0,0,0,0,0,0,0,0,0,0,0,0,0,
0,0,0,0,0,0,0,0,0,0,0,0,0,0,0,0,
0,0,0,0,0,0,0,0,0,0,0,0,0,0,0,0,
0,0,0,0,0,0,0,0,0,0,0,0,0,0,0,0
</chunk>
   <chunk x="-16" y="32" width="16" height="16">
0,0,0,0,0,0,0,0,0,0,0,0,0,0,0,0,
0,0,0,0,0,0,0,0,0,0,0,0,0,8558,8435,0,
0,0,0,0,0,0,0,0,0,0,0,0,0,0,0,0,
0,0,0,0,0,0,0,0,0,0,0,0,0,0,8558,8435,
0,0,0,0,0,0,0,0,0,0,0,0,0,0,0,0,
0,0,0,0,0,0,0,0,0,0,0,0,0,0,0,0,
0,0,0,0,0,0,0,0,0,0,0,0,0,0,0,0,
0,0,0,0,0,0,0,0,0,0,0,0,0,0,0,0,
0,0,0,0,0,0,0,0,0,0,0,0,0,0,0,0,
0,0,0,0,0,0,0,0,0,0,0,0,0,0,0,0,
0,0,0,0,0,0,0,0,0,0,0,0,0,0,0,0,
0,0,0,0,0,0,0,0,0,0,0,0,0,0,0,0,
0,0,0,0,0,0,0,0,0,0,0,0,0,0,0,0,
0,0,0,0,0,0,0,0,0,0,0,0,0,0,0,0,
0,0,0,0,0,0,0,0,0,0,0,0,0,0,0,0,
0,0,0,0,0,0,0,0,0,0,0,0,0,0,0,0
</chunk>
   <chunk x="0" y="32" width="16" height="16">
0,0,0,0,0,8558,8435,0,0,0,0,0,0,0,0,0,
0,0,0,0,0,0,0,0,0,0,0,0,0,0,0,0,
0,0,0,0,0,0,0,0,0,0,0,0,0,0,0,0,
0,0,0,0,0,8558,8435,0,0,0,0,0,0,0,0,0,
0,0,0,0,0,0,0,0,0,0,0,0,0,0,0,0,
0,0,0,0,0,0,0,0,0,0,0,0,0,0,0,0,
0,0,0,0,0,0,0,0,0,0,0,0,0,0,0,0,
0,0,0,0,0,0,0,0,0,0,0,0,0,0,0,0,
0,0,0,0,0,0,0,0,0,0,0,0,0,0,0,0,
0,0,0,0,0,0,0,0,0,0,0,0,0,0,0,0,
0,0,0,0,0,0,0,0,0,0,0,0,0,0,0,0,
0,0,0,0,0,0,0,0,0,0,0,0,0,0,0,0,
0,0,0,0,0,0,0,0,0,0,0,0,0,0,0,0,
0,0,0,0,0,0,0,0,0,0,0,0,0,0,0,0,
0,0,0,0,0,0,0,0,0,0,0,0,0,0,0,0,
0,0,0,0,0,0,0,0,0,0,0,0,0,0,0,0
</chunk>
   <chunk x="16" y="32" width="16" height="16">
0,0,0,0,0,0,0,0,0,0,0,0,0,0,0,0,
0,0,0,0,0,0,0,0,0,0,0,0,0,0,0,0,
0,0,0,0,0,0,0,0,0,0,0,0,0,0,0,0,
0,0,0,0,0,0,0,0,0,0,0,0,0,0,0,0,
9517,0,0,0,0,0,0,0,0,0,0,0,0,0,0,0,
0,0,0,0,0,0,0,0,0,0,0,0,0,0,0,0,
0,0,0,0,0,0,0,0,0,0,0,0,0,0,0,0,
0,0,0,0,0,0,0,0,0,0,0,0,0,0,0,0,
0,0,0,0,0,0,0,0,0,0,0,0,0,0,0,0,
0,0,0,0,0,0,0,0,0,0,0,0,0,0,0,0,
0,0,0,0,0,0,0,0,0,0,0,0,0,0,0,0,
0,0,0,0,0,0,0,0,0,0,0,0,0,0,0,0,
0,0,0,0,0,0,0,0,0,0,0,0,0,0,0,0,
0,0,0,0,0,0,0,0,0,0,0,0,0,0,0,0,
0,0,0,0,0,0,0,0,0,0,0,0,0,0,0,0,
0,0,0,0,0,0,0,0,0,0,0,0,0,0,0,0
</chunk>
  </data>
 </layer>
 <layer id="193" name="lianas5" width="46" height="32">
  <data encoding="csv">
   <chunk x="32" y="0" width="16" height="16">
0,0,0,0,0,0,0,0,0,0,0,0,0,0,0,0,
0,0,0,0,0,0,0,0,0,0,0,0,0,0,0,0,
0,0,9201,0,0,0,0,0,0,0,0,0,0,0,0,0,
0,0,9227,0,0,0,0,0,0,0,0,0,0,0,0,0,
0,0,0,0,0,0,0,0,0,0,0,0,0,0,0,0,
0,0,0,0,0,0,0,0,0,9202,0,0,0,0,0,0,
0,0,0,0,0,0,0,0,0,9228,0,0,0,0,0,0,
0,0,0,0,0,0,0,0,0,9254,0,0,0,0,0,0,
0,0,0,0,0,0,0,0,0,0,0,0,0,0,0,0,
0,0,0,0,0,0,0,0,0,0,0,0,0,0,0,0,
0,0,0,0,0,0,0,0,0,0,0,0,0,0,0,0,
0,0,0,0,0,0,0,0,0,0,0,0,0,0,0,0,
0,0,0,0,0,0,0,0,0,0,0,0,0,0,0,0,
0,0,0,0,0,0,0,0,0,0,0,0,0,0,0,0,
0,0,0,0,0,0,0,0,0,0,0,0,0,0,0,0,
0,0,0,0,0,0,0,0,0,0,0,0,0,0,0,0
</chunk>
   <chunk x="16" y="16" width="16" height="16">
0,0,0,0,0,0,0,0,0,0,0,0,0,0,0,0,
0,0,0,0,0,0,9202,0,0,0,0,0,0,0,0,0,
0,0,0,0,0,0,9228,0,9099,0,0,0,0,0,0,0,
0,0,0,0,0,0,9254,0,9125,0,0,0,0,9205,9125,0,
0,0,0,0,0,0,0,0,9151,0,9202,0,0,9231,9151,0,
0,0,0,0,0,0,0,0,0,0,9228,0,0,9257,0,0,
0,0,0,0,0,0,0,0,0,0,9254,0,0,9283,0,0,
0,0,0,0,0,0,0,0,0,0,0,0,0,0,0,0,
0,0,0,0,0,0,0,0,0,0,0,0,0,0,0,0,
0,0,0,0,0,0,0,0,0,0,0,0,0,0,0,0,
0,0,0,0,0,0,0,0,0,0,0,0,0,0,0,0,
0,0,0,0,0,0,0,0,0,0,0,0,0,0,0,0,
0,0,0,0,0,0,0,0,0,0,0,0,0,0,0,0,
0,0,0,0,0,0,0,0,0,0,0,0,0,0,0,0,
0,0,0,0,0,0,0,0,0,0,0,0,0,0,0,0,
0,0,0,0,0,0,0,0,0,0,0,0,0,0,0,0
</chunk>
  </data>
 </layer>
 <layer id="189" name="lianas" width="46" height="32">
  <data encoding="csv">
   <chunk x="32" y="0" width="16" height="16">
0,0,0,0,0,0,0,0,0,0,0,0,0,0,0,0,
0,0,0,0,0,0,0,0,0,0,0,0,0,0,0,0,
0,0,9155,2147492844,2147492843,0,0,0,0,0,0,0,0,0,0,0,
0,0,0,2147492870,2147492869,0,0,0,0,0,0,0,0,0,0,0,
0,0,0,2147492896,2147492895,0,0,0,0,0,0,0,0,0,0,0,
0,0,0,0,0,0,9264,9265,9266,0,0,0,0,0,0,0,
0,0,0,0,0,0,9290,9291,9292,0,0,9157,9158,0,0,0,
0,0,0,0,0,0,0,0,0,0,0,9183,9184,0,0,0,
0,0,0,0,0,0,0,0,0,0,0,0,0,0,0,0,
0,0,0,0,0,0,0,0,0,0,0,0,0,0,0,0,
0,0,0,0,0,0,0,0,0,0,0,0,0,0,0,0,
0,0,0,0,0,0,0,0,0,0,0,0,0,0,0,0,
0,0,0,0,0,0,0,0,0,0,0,0,0,0,0,0,
0,0,0,0,0,0,0,0,0,0,0,0,0,0,0,0,
0,0,0,0,0,0,0,0,0,0,0,0,0,0,0,0,
0,0,0,0,0,0,0,0,0,0,0,0,0,0,0,0
</chunk>
   <chunk x="0" y="16" width="16" height="16">
0,0,0,0,0,0,0,0,0,0,0,0,0,0,0,0,
0,0,0,0,0,0,0,0,0,0,0,0,0,0,0,0,
0,0,0,0,0,0,0,0,0,0,0,0,0,0,0,0,
0,0,0,0,0,0,0,0,0,0,0,0,0,0,0,0,
0,0,0,0,0,0,0,0,0,0,0,0,0,0,0,0,
0,0,0,0,0,0,0,0,0,0,0,0,0,0,0,0,
0,0,0,0,0,0,0,0,0,0,0,0,0,0,0,0,
0,0,0,0,0,0,0,0,0,0,0,0,0,0,0,0,
0,0,0,0,0,0,0,0,0,0,0,0,0,0,0,0,
0,0,0,0,0,0,0,0,0,0,0,0,0,0,0,0,
0,0,0,0,0,0,0,0,0,0,0,0,0,0,0,0,
0,0,0,0,0,0,0,9195,9196,9160,0,0,0,0,0,0,
0,0,0,0,0,0,9183,9221,9222,9186,0,0,0,0,0,0,
0,0,0,0,0,0,0,9247,9248,0,0,0,0,0,0,0,
0,0,0,0,0,0,0,0,0,0,0,0,0,0,0,0,
0,0,0,0,0,0,0,0,0,0,0,0,0,0,0,0
</chunk>
   <chunk x="16" y="16" width="16" height="16">
0,0,0,0,0,0,0,0,0,0,0,0,0,0,0,0,
0,0,0,0,0,0,9192,0,0,0,0,0,0,0,0,0,
0,0,0,0,0,0,9218,9219,9220,0,0,0,0,9114,9115,9116,
0,0,0,0,0,0,9244,9245,9246,0,9155,0,0,9140,9141,9142,
0,0,0,0,0,0,0,0,0,0,0,0,0,9166,9167,9168,
0,0,0,0,0,0,0,0,0,0,0,0,0,0,9193,0,
0,0,0,0,0,0,0,0,0,0,0,0,0,0,0,0,
0,0,0,0,0,0,0,0,0,0,0,0,0,0,0,0,
0,0,0,0,0,0,0,0,0,0,0,0,0,0,0,0,
0,0,0,0,0,0,0,0,0,0,0,0,0,0,0,0,
0,0,0,0,0,0,0,0,0,0,0,0,0,0,0,0,
0,0,0,0,0,0,0,0,0,0,0,0,0,0,0,0,
0,0,0,0,0,0,0,0,0,0,0,0,0,0,0,0,
0,0,0,0,0,0,0,0,0,0,0,0,0,0,0,0,
0,0,0,0,0,0,0,0,0,0,0,0,0,0,0,0,
0,0,0,0,0,0,0,0,0,0,0,0,0,0,0,0
</chunk>
  </data>
 </layer>
 <layer id="190" name="lianas2" width="46" height="32">
  <data encoding="csv">
   <chunk x="32" y="0" width="16" height="16">
0,0,0,0,0,0,0,0,0,0,0,0,0,0,0,0,
0,0,0,0,0,0,0,0,0,0,0,0,0,0,0,0,
0,0,0,0,0,0,0,0,0,0,0,0,0,0,0,0,
0,0,0,0,0,0,0,0,0,0,0,0,0,0,0,0,
0,0,0,0,0,9158,0,0,0,0,0,0,0,0,0,0,
0,0,0,0,0,9184,9185,9186,0,0,0,0,0,0,0,0,
0,0,0,0,0,0,0,0,0,2147492769,2147492768,0,0,0,0,0,
0,0,0,0,0,0,0,0,0,2147492795,2147492794,0,0,0,0,0,
0,0,0,0,0,0,0,0,0,0,0,0,0,0,0,0,
0,0,0,0,0,0,0,0,0,0,0,0,0,0,0,0,
0,0,0,0,0,0,0,0,0,0,0,0,0,0,0,0,
0,0,0,0,0,0,0,0,0,0,0,0,0,0,0,0,
0,0,0,0,0,0,0,0,0,0,0,0,0,0,0,0,
0,0,0,0,0,0,0,0,0,0,0,0,0,0,0,0,
0,0,0,0,0,0,0,0,0,0,0,0,0,0,0,0,
0,0,0,0,0,0,0,0,0,0,0,0,0,0,0,0
</chunk>
   <chunk x="16" y="16" width="16" height="16">
0,0,0,0,0,0,0,0,0,0,0,0,0,0,0,0,
0,0,0,0,0,0,0,0,0,0,0,0,0,0,0,0,
0,0,0,0,0,0,0,0,2147492767,2147492766,2147492765,0,0,0,0,0,
0,0,0,0,0,0,0,0,2147492793,2147492792,2147492791,0,0,0,0,0,
0,0,0,0,0,0,0,0,2147492819,2147492818,2147492817,0,0,0,0,0,
0,0,0,0,0,0,0,0,0,0,0,0,0,0,0,0,
0,0,0,0,0,0,0,0,0,0,0,0,0,0,0,0,
0,0,0,0,0,0,0,0,0,0,0,0,0,0,0,0,
0,0,0,0,0,0,0,0,0,0,0,0,0,0,0,0,
0,0,0,0,0,0,0,0,0,0,0,0,0,0,0,0,
0,0,0,0,0,0,0,0,0,0,0,0,0,0,0,0,
0,0,0,0,0,0,0,0,0,0,0,0,0,0,0,0,
0,0,0,0,0,0,0,0,0,0,0,0,0,0,0,0,
0,0,0,0,0,0,0,0,0,0,0,0,0,0,0,0,
0,0,0,0,0,0,0,0,0,0,0,0,0,0,0,0,
0,0,0,0,0,0,0,0,0,0,0,0,0,0,0,0
</chunk>
  </data>
 </layer>
 <layer id="192" name="lianas3" width="46" height="32">
  <data encoding="csv">
   <chunk x="0" y="16" width="16" height="16">
0,0,0,0,0,0,0,0,0,0,0,0,0,0,0,0,
0,0,0,0,0,0,0,0,0,0,0,0,0,0,0,0,
0,0,0,0,0,0,0,0,0,0,0,0,0,0,0,0,
0,0,0,0,0,0,0,0,0,0,0,0,0,0,0,0,
0,0,0,0,0,0,0,0,0,0,0,0,0,0,0,0,
0,0,0,0,0,0,0,0,0,0,0,0,0,0,0,0,
0,0,0,0,0,0,0,0,0,0,0,0,0,0,0,0,
0,0,0,0,0,0,0,0,0,0,0,0,0,0,0,0,
0,0,0,0,0,0,0,0,0,0,0,0,0,0,0,0,
0,0,0,0,0,0,0,0,0,0,0,0,0,0,0,0,
0,0,0,0,0,0,0,0,0,0,0,0,0,0,0,0,
0,0,0,0,0,0,0,0,9200,9201,0,0,0,0,0,0,
0,0,0,0,0,0,0,0,9226,9227,0,0,0,0,0,0,
0,0,0,0,0,0,0,0,0,0,0,0,0,0,0,0,
0,0,0,0,0,0,0,0,0,0,0,0,0,0,0,0,
0,0,0,0,0,0,0,0,0,0,0,0,0,0,0,0
</chunk>
   <chunk x="16" y="16" width="16" height="16">
0,0,0,0,0,0,0,0,0,0,0,0,0,0,0,0,
0,0,0,0,0,0,0,0,0,0,0,0,0,0,0,9118,
0,0,0,0,0,0,0,0,0,0,0,0,0,0,0,9144,
0,0,0,0,0,0,0,9229,0,9269,9270,9271,0,0,0,9170,
0,0,0,0,0,0,0,9255,0,9295,9296,9297,0,0,0,9124,
0,0,0,0,0,0,0,0,0,9321,9322,9323,0,0,0,9150,
0,0,0,0,0,0,0,0,0,0,0,0,0,0,0,0,
0,0,0,0,0,0,0,0,0,0,0,0,0,0,0,0,
0,0,0,0,0,0,0,0,0,0,0,0,0,0,0,0,
0,0,0,0,0,0,0,0,0,0,0,0,0,0,0,0,
0,0,0,0,0,0,0,0,0,0,0,0,0,0,0,0,
0,0,0,0,0,0,0,0,0,0,0,0,0,0,0,0,
0,0,0,0,0,0,0,0,0,0,0,0,0,0,0,0,
0,0,0,0,0,0,0,0,0,0,0,0,0,0,0,0,
0,0,0,0,0,0,0,0,0,0,0,0,0,0,0,0,
0,0,0,0,0,0,0,0,0,0,0,0,0,0,0,0
</chunk>
   <chunk x="32" y="16" width="16" height="16">
0,0,0,0,0,0,0,0,0,0,0,0,0,0,0,0,
9119,0,0,0,0,0,0,0,0,0,0,0,0,0,0,0,
9145,0,0,0,0,0,0,0,0,0,0,0,0,0,0,0,
9171,0,0,0,0,0,0,0,0,0,0,0,0,0,0,0,
0,0,0,0,0,0,0,0,0,0,0,0,0,0,0,0,
0,0,0,0,0,0,0,0,0,0,0,0,0,0,0,0,
0,0,0,0,0,0,0,0,0,0,0,0,0,0,0,0,
0,0,0,0,0,0,0,0,0,0,0,0,0,0,0,0,
0,0,0,0,0,0,0,0,0,0,0,0,0,0,0,0,
0,0,0,0,0,0,0,0,0,0,0,0,0,0,0,0,
0,0,0,0,0,0,0,0,0,0,0,0,0,0,0,0,
0,0,0,0,0,0,0,0,0,0,0,0,0,0,0,0,
0,0,0,0,0,0,0,0,0,0,0,0,0,0,0,0,
0,0,0,0,0,0,0,0,0,0,0,0,0,0,0,0,
0,0,0,0,0,0,0,0,0,0,0,0,0,0,0,0,
0,0,0,0,0,0,0,0,0,0,0,0,0,0,0,0
</chunk>
  </data>
 </layer>
 <layer id="194" name="lianas4" width="46" height="32">
  <data encoding="csv">
   <chunk x="16" y="16" width="16" height="16">
0,0,0,0,0,0,0,0,0,0,0,0,0,0,0,0,
0,0,0,0,0,0,0,0,0,0,0,0,0,0,0,0,
0,0,0,0,0,0,0,0,0,0,0,0,0,0,0,0,
0,0,0,0,0,0,0,0,0,0,0,0,0,0,0,0,
0,0,0,0,0,0,0,0,0,0,0,0,0,9195,9196,0,
0,0,0,0,0,0,0,0,0,0,0,0,0,9221,9222,0,
0,0,0,0,0,0,0,0,0,0,0,0,0,9247,9248,0,
0,0,0,0,0,0,0,0,0,0,0,0,0,0,0,0,
0,0,0,0,0,0,0,0,0,0,0,0,0,0,0,0,
0,0,0,0,0,0,0,0,0,0,0,0,0,0,0,0,
0,0,0,0,0,0,0,0,0,0,0,0,0,0,0,0,
0,0,0,0,0,0,0,0,0,0,0,0,0,0,0,0,
0,0,0,0,0,0,0,0,0,0,0,0,0,0,0,0,
0,0,0,0,0,0,0,0,0,0,0,0,0,0,0,0,
0,0,0,0,0,0,0,0,0,0,0,0,0,0,0,0,
0,0,0,0,0,0,0,0,0,0,0,0,0,0,0,0
</chunk>
  </data>
 </layer>
 <layer id="200" name="objects2" width="46" height="32">
  <data encoding="csv">
   <chunk x="-32" y="-16" width="16" height="16">
0,0,0,0,0,0,0,0,0,0,0,0,0,0,0,0,
0,0,0,0,0,0,0,0,0,0,0,0,0,0,0,0,
0,0,0,0,0,0,0,0,0,0,0,0,0,0,0,0,
0,0,0,0,0,0,0,0,0,0,0,0,0,0,0,0,
0,0,0,0,0,0,0,0,0,0,0,0,0,0,0,0,
0,0,0,0,0,0,0,0,0,0,0,0,0,0,0,0,
0,0,0,0,0,0,0,0,0,0,0,0,0,0,0,0,
0,0,0,0,0,0,0,0,0,0,0,0,0,0,0,0,
0,0,0,0,0,0,0,0,0,0,0,0,0,0,0,0,
0,0,0,0,0,0,0,0,0,0,0,0,0,0,0,9347,
0,0,0,0,0,0,0,0,0,0,0,0,0,0,0,0,
0,0,0,0,0,0,0,0,0,0,0,0,0,0,0,0,
0,0,0,0,0,0,0,0,0,0,0,0,0,0,0,0,
0,0,0,0,0,0,0,0,0,0,0,0,0,0,0,0,
0,0,0,0,0,0,0,0,0,0,0,0,0,0,0,0,
0,0,0,0,0,0,0,0,0,0,0,0,0,0,0,0
</chunk>
   <chunk x="-16" y="-16" width="16" height="16">
0,0,0,0,0,0,0,0,0,0,0,0,0,0,0,0,
0,0,0,0,0,0,0,0,0,0,0,0,0,0,0,0,
0,0,0,0,0,0,0,0,0,0,0,0,0,0,0,0,
0,0,0,0,0,0,0,0,0,0,0,0,0,0,0,0,
0,0,0,0,0,0,0,0,0,0,0,0,0,0,0,0,
0,0,0,0,0,0,0,0,0,0,0,0,0,0,0,0,
0,0,0,0,0,0,0,0,0,0,0,0,0,0,0,0,
0,0,0,0,0,0,0,0,0,0,0,0,0,0,0,0,
0,0,0,0,0,0,0,0,0,0,0,0,0,0,0,0,
9348,9349,9350,9351,9352,0,0,0,0,0,0,0,0,0,0,0,
9380,9381,9382,9383,9384,9639,9640,9727,9728,9729,9730,0,0,0,0,0,
9412,9413,9414,9415,9416,9671,9672,9759,9760,9761,9762,10089,10090,0,0,0,
9444,9445,9446,9447,9448,0,0,9791,9792,9793,9794,10121,10122,0,0,0,
9476,9477,9478,9479,9480,0,0,9823,9824,9825,9826,0,9573,9574,0,0,
0,0,0,0,0,0,0,0,0,0,0,0,9605,9606,0,0,
0,0,0,0,0,0,0,10089,10090,0,0,0,0,0,0,0
</chunk>
   <chunk x="0" y="-16" width="16" height="16">
0,0,0,0,0,0,0,0,0,0,0,0,0,0,0,0,
0,0,0,0,0,0,0,0,0,0,0,0,0,0,0,0,
0,0,0,0,0,0,0,0,0,0,0,0,0,0,0,0,
0,0,0,0,0,0,0,0,0,0,0,0,0,0,0,0,
0,0,0,0,0,0,0,0,0,0,0,0,0,0,0,0,
0,0,0,0,0,0,0,0,0,0,0,0,0,0,0,0,
0,0,0,0,0,0,0,0,0,0,0,0,0,0,0,0,
0,0,0,0,0,0,0,0,0,0,0,0,0,0,0,0,
0,0,0,0,0,0,0,0,0,0,0,0,0,0,0,0,
0,0,0,0,0,0,0,0,0,0,0,0,0,0,0,0,
0,0,0,0,0,0,0,0,0,0,0,0,0,0,0,0,
0,0,0,0,0,0,0,0,0,0,0,0,0,9641,9642,0,
0,0,0,0,0,0,0,0,0,0,0,0,0,9673,9674,0,
0,0,0,0,0,0,0,0,0,0,0,0,0,0,0,0,
0,0,0,0,0,0,0,0,0,0,0,0,0,0,9639,9640,
0,0,0,0,0,0,0,0,0,0,0,0,0,0,9671,9672
</chunk>
   <chunk x="16" y="-16" width="16" height="16">
0,0,0,0,0,0,0,0,0,0,0,0,0,0,0,0,
0,0,0,0,0,0,0,0,0,0,0,0,0,0,0,0,
0,0,0,0,0,0,0,0,0,0,0,0,0,0,0,0,
0,0,0,0,0,0,0,0,0,0,0,0,0,0,0,0,
0,0,0,0,0,0,0,0,0,0,0,0,0,0,0,0,
0,0,0,0,0,0,0,0,0,0,0,0,0,0,0,0,
0,0,0,0,0,0,0,0,0,0,0,0,0,0,0,0,
0,0,0,0,0,0,0,0,0,0,0,0,0,0,0,0,
0,0,0,0,0,0,0,0,0,0,0,0,0,0,0,0,
0,0,0,0,0,0,0,0,0,0,0,0,9498,9499,9500,9501,
0,0,0,0,0,0,0,0,0,0,0,0,9530,9531,9532,9533,
0,0,0,0,0,0,0,0,0,0,0,0,9562,9563,9564,9565,
0,0,0,0,0,0,0,0,0,0,0,0,9594,9595,9596,9597,
0,0,0,0,0,0,0,0,0,0,0,0,0,0,0,0,
0,0,0,0,0,0,0,0,0,0,0,10153,10154,0,0,0,
0,0,0,0,0,0,0,0,0,0,0,10185,10186,0,0,0
</chunk>
   <chunk x="32" y="-16" width="16" height="16">
0,0,0,0,0,0,0,0,0,0,0,0,0,0,0,0,
0,0,0,0,0,0,0,0,0,0,0,0,0,0,0,0,
0,0,0,0,0,0,0,0,0,0,0,0,0,0,0,0,
0,0,0,0,0,0,0,0,0,0,0,0,0,0,0,0,
0,0,0,0,0,0,0,0,0,0,0,0,0,0,0,0,
0,0,0,0,0,0,0,0,0,0,0,0,0,0,0,0,
0,0,0,0,0,0,0,0,0,0,0,0,0,0,0,0,
0,0,0,0,0,0,0,0,0,0,0,0,0,0,0,0,
0,0,0,0,0,0,0,0,0,0,0,0,0,0,0,0,
0,0,0,0,0,0,0,0,0,0,0,0,0,0,0,0,
9335,9336,9337,9338,0,0,0,0,0,0,0,0,0,0,0,0,
9367,9368,9369,9370,0,0,0,0,0,0,0,0,0,0,0,0,
9399,9400,9401,9402,0,0,0,0,0,0,0,0,0,0,0,0,
9431,9432,9433,9434,0,0,0,0,0,0,0,0,0,0,0,0,
9463,9464,9465,9466,0,0,0,0,0,0,0,0,10157,10158,0,0,
0,0,0,0,0,0,0,0,0,0,0,0,10189,10190,0,0
</chunk>
   <chunk x="-16" y="0" width="16" height="16">
0,9573,9574,0,0,0,0,10121,10122,0,0,0,0,0,0,0,
0,9605,9606,0,0,0,0,0,0,0,0,0,0,0,10109,10110,
0,0,0,0,0,0,0,0,0,0,0,0,0,0,10141,10142,
0,0,0,0,0,0,0,0,0,0,0,0,0,0,0,0,
0,0,0,0,0,0,0,0,0,0,0,0,0,0,0,0,
0,0,0,0,0,0,0,0,0,0,0,0,0,0,0,0,
0,0,0,0,0,0,0,0,0,0,0,0,0,0,0,0,
0,0,0,0,0,0,0,0,0,0,0,0,0,0,0,0,
0,0,0,0,0,0,0,0,0,0,0,0,0,0,0,0,
0,0,0,0,0,0,0,0,0,0,0,0,0,0,0,0,
0,0,0,0,0,0,0,0,0,0,0,0,0,0,0,0,
0,0,0,0,0,0,0,0,0,0,0,0,0,0,0,0,
0,0,0,0,0,0,0,0,0,0,0,0,0,0,0,0,
0,0,0,0,0,0,0,0,0,0,0,0,0,0,0,0,
0,0,0,0,0,0,0,0,0,0,0,0,0,0,0,0,
0,0,0,0,0,0,0,0,0,0,0,0,0,0,0,0
</chunk>
   <chunk x="0" y="0" width="16" height="16">
0,0,0,0,0,0,0,0,0,0,0,0,0,0,0,0,
0,0,0,0,0,0,0,0,0,0,0,0,0,0,0,0,
0,0,0,0,0,0,0,0,0,0,0,0,0,0,0,0,
0,0,0,0,0,0,0,0,0,0,0,0,0,0,0,0,
0,0,0,0,0,0,0,0,0,0,0,0,0,0,0,0,
0,0,0,0,0,0,0,0,10091,10092,0,0,0,0,0,0,
0,0,0,0,0,0,0,0,10123,10124,0,0,0,0,0,0,
10089,10090,0,0,0,0,0,0,0,0,0,0,0,0,0,0,
10121,10122,0,0,0,0,0,0,0,0,9703,9704,9705,9706,9882,9883,
0,0,0,0,0,0,0,0,0,0,9735,9736,9737,9738,9914,9915,
0,0,0,10157,10158,0,0,0,0,0,9767,9768,9769,9770,0,0,
0,0,0,10189,10190,0,0,0,0,0,9799,9800,9801,9802,0,0,
0,0,0,0,0,0,0,0,0,0,0,0,0,0,0,0,
0,0,0,0,0,0,0,0,0,0,0,0,0,0,0,0,
0,0,0,0,0,0,0,0,0,0,0,0,0,0,0,0,
0,0,0,0,0,0,0,0,0,0,0,0,0,0,0,0
</chunk>
   <chunk x="16" y="0" width="16" height="16">
0,0,0,0,0,0,0,0,0,0,0,0,0,0,0,0,
0,0,0,0,0,10157,10158,0,0,0,0,0,0,0,0,0,
0,0,0,0,0,10189,10190,0,0,0,0,0,0,0,0,0,
0,0,0,0,0,0,0,0,0,0,0,0,0,0,0,0,
0,0,0,0,0,0,0,0,0,0,0,0,0,0,0,0,
0,0,0,0,10153,10154,0,0,0,0,0,0,0,0,0,0,
0,0,0,0,10185,10186,0,0,0,0,0,0,0,0,0,0,
0,0,0,9471,9472,0,0,0,0,0,0,0,0,0,0,10079,
0,0,0,9503,9504,0,0,0,0,0,0,10083,0,0,0,10111,
0,0,0,0,0,0,0,0,0,0,0,0,0,0,0,0,
0,0,0,0,0,10089,10090,0,0,0,0,0,0,0,10176,10177,
0,0,0,0,0,10121,10122,0,0,0,0,0,0,0,10208,10209,
0,0,0,0,0,0,0,0,0,0,0,0,0,0,0,0,
0,0,0,0,0,0,0,0,0,0,0,0,9727,9728,9729,9730,
0,0,0,0,0,0,0,0,0,0,0,0,9759,9760,9761,9762,
0,0,0,0,0,0,0,0,0,0,0,0,9791,9792,9793,9794
</chunk>
   <chunk x="32" y="0" width="16" height="16">
0,0,0,0,0,0,0,0,0,0,0,0,0,0,0,0,
0,0,0,0,0,0,0,0,0,0,0,0,0,0,0,0,
0,0,0,0,0,0,0,0,0,0,0,0,0,0,0,0,
10017,10018,0,0,0,0,0,0,0,0,0,0,0,0,0,0,
10049,10050,9838,9839,9840,0,0,0,0,0,0,0,0,0,0,10089,
10113,0,9870,9871,9872,0,0,0,0,0,0,0,0,0,0,10121,
0,0,9902,9903,9904,0,0,0,0,0,0,0,0,0,0,0,
10080,0,0,0,0,0,0,0,10019,10020,0,0,0,0,0,0,
10112,0,0,0,0,0,0,0,10051,10052,0,10084,0,0,0,0,
0,0,0,0,0,0,0,0,0,0,0,10109,10110,0,0,0,
0,0,0,0,0,0,0,0,0,0,10081,10141,10142,0,0,0,
0,0,0,0,0,0,0,0,0,0,0,0,0,0,0,0,
0,10053,10054,0,0,0,0,0,0,0,0,0,0,0,0,0,
0,10085,10086,0,0,10157,10158,0,0,0,0,0,0,0,0,0,
0,0,0,0,0,10189,10190,0,0,0,0,0,0,0,0,0,
0,0,0,0,0,0,0,0,0,0,0,0,0,0,0,0
</chunk>
   <chunk x="48" y="0" width="16" height="16">
0,0,0,0,0,0,0,0,0,0,0,0,0,0,0,0,
0,0,0,0,0,0,0,0,0,0,0,0,0,0,0,0,
0,0,0,0,0,0,0,0,0,0,0,0,0,0,0,0,
0,0,0,0,0,0,0,0,0,0,0,0,0,0,0,0,
10090,0,0,0,0,0,0,0,0,0,0,0,0,0,0,0,
10122,0,0,0,0,0,0,0,0,0,0,0,0,0,0,0,
0,0,0,0,0,0,0,0,0,0,0,0,0,0,0,0,
0,0,0,0,0,0,0,0,0,0,0,0,0,0,0,0,
0,0,0,0,0,0,0,0,0,0,0,0,0,0,0,0,
0,0,0,0,0,0,0,0,0,0,0,0,0,0,0,0,
0,9637,9638,0,0,0,0,0,0,0,0,0,0,0,0,0,
0,9669,9670,0,0,0,0,0,0,0,0,0,0,0,0,0,
0,0,0,0,0,0,0,0,0,0,0,0,0,0,0,0,
0,0,0,0,0,0,0,0,0,0,0,0,0,0,0,0,
0,0,0,0,0,0,0,0,0,0,0,0,0,0,0,0,
0,0,0,0,0,0,0,0,0,0,0,0,0,0,0,0
</chunk>
   <chunk x="-16" y="16" width="16" height="16">
0,0,0,0,0,0,0,0,0,0,0,0,0,0,0,0,
0,0,0,0,0,0,0,0,0,0,0,0,0,0,0,0,
0,0,0,0,0,0,0,0,0,0,0,0,0,0,0,0,
0,0,0,0,0,0,0,0,0,0,0,0,0,0,0,0,
0,0,0,0,0,0,0,0,0,0,0,0,0,0,0,0,
10109,10110,0,0,0,0,0,0,0,0,0,0,0,0,0,0,
10141,10142,0,0,0,0,0,0,0,0,0,0,0,0,0,0,
0,0,0,0,0,0,0,0,0,0,0,0,0,0,0,0,
0,0,0,0,0,0,0,0,0,0,0,0,0,0,0,0,
0,0,0,0,0,0,0,0,0,0,0,0,0,0,0,0,
0,0,0,0,0,0,0,0,0,0,0,0,0,0,0,0,
0,0,0,0,0,0,0,0,0,0,0,0,0,0,0,0,
0,0,0,0,0,0,0,0,0,0,0,0,0,0,0,0,
0,0,0,0,0,0,0,0,0,0,0,0,0,0,0,0,
0,0,0,0,0,0,0,0,0,0,0,0,0,0,0,0,
0,0,0,0,0,0,0,0,0,0,0,0,0,0,0,0
</chunk>
   <chunk x="0" y="16" width="16" height="16">
0,0,0,0,0,0,0,0,0,0,0,0,9357,9358,9359,0,
0,0,0,0,0,0,0,0,0,0,0,0,9389,9390,9391,0,
0,0,0,0,0,0,0,0,0,0,0,0,9421,9422,9423,0,
0,0,0,0,0,0,0,0,0,0,0,0,0,0,0,0,
0,0,0,0,0,0,0,0,0,0,0,0,0,0,0,0,
0,0,0,0,0,0,0,0,0,0,0,0,0,0,0,0,
0,0,0,0,0,0,0,0,0,0,0,0,0,9707,9708,9709,
0,0,0,0,0,0,0,0,10155,10156,0,0,0,9739,9740,9741,
0,0,0,0,0,0,0,0,10187,10188,0,0,0,9771,9772,9773,
0,0,0,0,0,0,0,0,0,0,0,0,0,0,0,0,
0,0,0,0,0,0,0,0,0,0,0,0,0,0,0,0,
0,0,0,0,0,0,0,0,0,0,0,0,0,0,0,0,
0,0,0,0,0,0,0,0,0,0,0,0,0,0,0,0,
0,0,0,0,0,0,0,0,0,0,0,0,0,0,0,0,
0,0,0,0,0,0,0,0,0,0,0,0,0,0,0,0,
0,0,0,0,0,0,0,0,0,0,0,0,0,0,0,0
</chunk>
   <chunk x="16" y="16" width="16" height="16">
0,0,0,0,0,0,0,0,0,0,0,0,9823,9824,9825,9826,
0,0,0,0,0,0,0,0,0,0,0,0,9855,9856,9857,9858,
0,0,0,0,0,0,0,0,0,0,0,0,0,0,0,0,
0,0,0,0,0,0,0,0,0,0,0,0,0,0,0,0,
0,0,0,0,0,0,0,0,0,0,0,0,0,0,0,0,
0,0,0,0,0,0,0,0,0,0,0,0,0,0,0,0,
0,0,0,0,0,0,0,0,0,0,0,0,0,9534,9535,9536,
0,0,0,0,0,0,0,0,0,0,0,0,0,9566,9567,9568,
0,0,0,0,0,0,0,0,0,0,0,0,0,9598,9599,9600,
0,0,0,0,0,0,0,0,0,0,0,0,0,0,0,0,
0,0,0,0,0,0,0,0,0,0,0,0,0,0,0,0,
0,0,0,0,0,0,0,0,0,0,0,0,0,0,0,0,
0,0,0,0,0,0,10157,10158,0,0,0,0,0,0,0,0,
0,0,0,0,0,0,10189,10190,0,10109,10110,0,0,0,0,0,
0,0,0,0,0,0,0,0,0,10141,10142,0,0,0,0,0,
0,10109,10110,0,0,0,0,0,0,0,0,0,0,0,0,0
</chunk>
   <chunk x="32" y="16" width="16" height="16">
0,0,0,0,0,0,0,0,9731,9732,9733,0,0,0,0,0,
0,0,0,0,0,0,0,0,9763,9764,9765,0,0,0,0,0,
0,0,0,0,0,0,0,0,9795,9796,9797,0,0,0,0,0,
0,0,0,10093,10094,0,0,0,9827,9828,9829,0,0,0,0,0,
0,0,0,10125,10126,0,0,0,0,0,0,0,0,0,0,0,
0,0,0,0,0,0,0,0,0,0,0,0,0,0,0,0,
0,0,0,0,0,0,0,0,0,0,0,0,0,0,0,0,
0,0,0,0,0,0,0,0,0,0,0,0,0,0,0,0,
0,0,0,0,0,0,0,0,0,0,0,0,0,0,0,0,
0,0,0,0,0,0,0,0,0,0,0,0,0,0,0,0,
0,0,0,0,0,0,0,0,0,0,0,0,0,0,0,0,
0,0,0,0,0,0,0,0,0,0,0,0,0,0,0,0,
0,0,0,0,0,0,0,0,0,0,0,0,0,0,0,0,
0,0,0,0,0,0,0,0,0,0,0,0,0,0,0,0,
0,0,0,0,0,0,0,0,0,0,0,0,0,0,0,0,
0,0,0,0,0,0,0,10109,10110,0,0,0,0,0,0,0
</chunk>
   <chunk x="48" y="16" width="16" height="16">
0,0,0,0,0,0,0,0,0,0,0,0,0,0,0,0,
0,0,0,0,0,0,0,0,0,0,0,0,0,0,0,0,
0,0,0,0,0,0,0,0,0,0,0,0,0,0,0,0,
0,0,0,0,0,0,0,0,0,0,0,0,0,0,0,0,
0,0,0,0,0,0,0,0,0,0,0,0,0,0,0,0,
0,0,0,0,0,0,0,0,0,0,0,0,0,0,0,0,
0,0,0,0,0,0,0,0,0,0,0,0,0,0,0,0,
10089,10090,0,0,0,0,0,0,0,0,0,0,0,0,0,0,
10121,10122,0,0,0,0,0,0,0,0,0,0,0,0,0,0,
0,0,0,0,0,0,0,0,0,0,0,0,0,0,0,0,
0,0,0,0,0,0,0,0,0,0,0,0,0,0,0,0,
0,0,0,0,0,0,0,0,0,0,0,0,0,0,0,0,
0,0,0,0,0,0,0,0,0,0,0,0,0,0,0,0,
0,0,9634,9635,9636,0,0,0,0,0,0,0,0,0,0,0,
0,0,9666,9667,9668,0,0,0,0,0,0,0,0,0,0,0,
0,0,0,0,0,0,0,0,0,0,0,0,0,0,0,0
</chunk>
   <chunk x="16" y="32" width="16" height="16">
0,10141,10142,0,0,0,0,0,0,0,0,0,0,0,0,0,
0,0,0,0,0,0,0,0,0,0,0,0,0,0,0,0,
0,0,0,0,0,0,0,0,0,0,0,0,0,0,0,0,
0,0,0,0,0,0,0,0,0,0,0,0,0,0,0,0,
0,0,0,0,0,0,0,0,0,0,0,0,0,0,0,0,
0,0,0,0,0,0,0,0,0,0,0,0,0,0,0,0,
0,0,0,0,0,0,0,0,0,0,0,0,0,10089,10090,0,
0,0,0,0,0,0,0,0,0,0,0,0,0,10121,10122,0,
0,0,0,0,0,0,0,0,0,0,0,0,0,0,0,0,
0,0,0,0,0,0,0,0,0,0,0,0,0,0,0,0,
0,0,0,0,0,0,0,0,0,0,0,0,0,0,0,0,
0,0,0,0,0,0,0,0,0,0,0,0,0,0,0,0,
0,0,0,0,0,0,0,0,0,0,0,0,0,0,0,0,
0,0,0,0,0,0,0,0,0,0,0,0,0,0,0,0,
0,0,0,0,0,0,0,0,0,0,0,0,0,0,0,0,
0,0,0,0,0,0,0,0,0,0,0,0,0,0,0,0
</chunk>
   <chunk x="32" y="32" width="16" height="16">
0,0,0,10093,10094,0,0,10141,10142,0,0,0,0,0,0,0,
0,10157,10158,10125,10126,0,0,0,0,0,0,0,0,0,0,0,
0,10189,10190,0,0,0,0,0,0,0,0,0,0,0,0,0,
10109,10110,0,0,0,0,0,0,0,0,0,0,0,0,0,0,
10141,10142,0,0,0,0,0,0,0,0,0,0,0,0,0,0,
0,0,0,0,0,0,0,0,0,0,0,0,0,0,0,0,
0,0,0,0,0,0,0,0,0,0,0,0,0,0,0,0,
0,0,0,0,0,0,0,0,0,0,0,0,0,0,0,0,
0,0,0,0,0,0,0,0,0,0,0,0,0,0,0,0,
0,0,0,0,0,0,0,0,0,0,0,0,0,0,0,0,
0,0,0,0,0,0,0,0,0,0,0,0,0,0,0,0,
0,0,0,0,0,0,0,0,0,0,0,0,0,0,0,0,
0,0,0,0,0,0,0,0,0,0,0,0,0,0,0,0,
0,0,0,0,0,0,0,0,0,0,0,0,0,0,0,0,
0,0,0,0,0,0,0,0,0,0,0,0,0,0,0,0,
0,0,0,0,0,0,0,0,0,0,0,0,0,0,0,0
</chunk>
   <chunk x="48" y="32" width="16" height="16">
0,0,0,0,0,0,0,0,0,0,0,0,0,0,0,0,
0,0,0,0,0,0,0,0,9885,9886,0,0,0,0,0,0,
0,0,0,0,0,0,0,0,9917,9918,0,0,0,0,0,0,
0,0,0,0,0,0,0,0,0,0,0,0,0,0,0,0,
0,0,0,0,0,0,0,0,0,0,0,0,0,0,0,0,
0,0,0,0,0,9534,9535,9536,0,0,0,0,0,0,0,0,
0,0,0,0,0,9566,9567,9568,0,0,0,0,0,0,0,0,
9534,9535,9536,0,0,9598,9599,9600,0,0,0,0,0,0,0,0,
9566,9567,9568,0,0,0,0,0,9534,9535,0,0,0,0,0,0,
9598,9599,9600,0,0,0,0,0,9566,9567,0,0,0,0,0,0,
0,0,0,0,0,0,0,0,9598,9599,0,0,0,0,0,0,
0,0,0,0,0,0,0,0,0,0,0,0,0,0,0,0,
0,0,0,0,0,0,0,0,0,0,0,0,0,0,0,0,
0,0,0,0,0,0,0,0,0,0,0,0,0,0,0,0,
0,0,0,0,0,0,0,0,0,0,0,0,0,0,0,0,
0,0,0,0,0,0,0,0,0,0,0,0,0,0,0,0
</chunk>
  </data>
 </layer>
 <layer id="197" name="objects1" width="46" height="32">
  <data encoding="csv">
   <chunk x="-16" y="-16" width="16" height="16">
0,0,0,0,0,0,0,0,0,0,0,0,0,0,0,0,
0,0,0,0,0,0,0,0,0,0,0,0,0,0,0,0,
0,0,0,0,0,0,0,0,0,0,0,0,0,0,0,0,
0,0,0,0,0,0,0,0,0,0,0,0,0,0,0,0,
0,0,0,0,0,0,0,0,0,0,0,0,0,0,0,0,
0,0,0,0,0,0,0,0,0,0,0,0,0,0,0,0,
0,0,0,0,0,0,0,0,0,0,0,0,0,0,0,0,
0,0,0,0,0,0,0,0,0,0,0,0,0,0,0,0,
0,0,0,0,0,0,0,0,0,0,0,0,0,0,0,0,
0,0,0,0,0,0,0,0,0,0,0,0,0,0,0,0,
0,0,0,0,0,0,0,0,0,0,0,10081,10082,0,0,0,
0,0,0,0,0,0,0,0,0,0,0,0,0,0,0,0,
0,0,0,0,0,0,0,0,0,0,0,0,0,0,0,0,
0,0,0,0,0,0,0,0,0,0,0,0,0,0,0,0,
0,0,0,0,0,0,0,0,0,0,0,0,0,0,0,0,
0,0,0,0,0,0,0,0,0,0,9643,9644,0,0,0,0
</chunk>
   <chunk x="0" y="-16" width="16" height="16">
0,0,0,0,0,0,0,0,0,0,0,0,0,0,0,0,
0,0,0,0,0,0,0,0,0,0,0,0,0,0,0,0,
0,0,0,0,0,0,0,0,0,0,0,0,0,0,0,0,
0,0,0,0,0,0,0,0,0,0,0,0,0,0,0,0,
0,0,0,0,0,0,0,0,0,0,0,0,0,0,0,0,
0,0,0,0,0,0,0,0,0,0,0,0,0,0,0,0,
0,0,0,0,0,0,0,0,0,0,0,0,0,0,0,0,
0,0,0,0,0,0,0,0,0,0,0,0,0,0,0,0,
0,0,0,0,0,0,0,0,0,0,0,0,0,0,0,0,
0,0,0,0,0,0,0,0,0,0,0,10153,10154,0,0,0,
0,0,0,0,0,0,0,0,0,0,0,10185,10186,0,0,0,
0,0,9634,9635,9636,0,0,0,0,0,0,0,0,0,0,0,
0,0,9666,9667,9668,0,0,0,0,0,0,0,0,0,0,9634,
0,0,0,9710,9711,9712,0,0,0,0,0,0,0,0,0,9666,
0,0,0,9742,9743,9744,0,0,0,0,0,0,0,0,0,0,
0,0,0,9774,9775,9776,0,0,0,0,0,0,0,0,0,0
</chunk>
   <chunk x="16" y="-16" width="16" height="16">
0,0,0,0,0,0,0,0,0,0,0,0,0,0,0,0,
0,0,0,0,0,0,0,0,0,0,0,0,0,0,0,0,
0,0,0,0,0,0,0,0,0,0,0,0,0,0,0,0,
0,0,0,0,0,0,0,0,0,0,0,0,0,0,0,0,
0,0,0,0,0,0,0,0,0,0,0,0,0,0,0,0,
0,0,0,0,0,0,0,0,0,0,0,0,0,0,0,0,
0,0,0,0,9632,9633,0,0,0,0,0,0,0,0,0,0,
0,0,0,0,9664,9665,0,0,0,0,0,0,0,0,0,0,
0,0,0,0,9696,9697,0,0,9634,9635,9636,0,0,0,0,0,
9710,9711,9712,10081,10082,9710,9711,9712,9666,9667,9668,0,0,0,0,0,
9742,9743,9744,0,0,9742,9743,9744,0,0,9498,9499,9500,9501,0,0,
9774,9775,9776,9626,9627,9774,9775,9776,0,0,9530,9531,9532,9533,0,0,
9635,9636,9657,9658,9659,0,0,0,0,0,9562,9563,9564,9565,0,9495,
9667,9668,9689,9690,9691,0,0,0,0,0,9594,9595,9596,9597,0,9527,
0,10053,10054,0,0,0,0,0,0,0,0,0,0,0,0,9559,
0,10085,10086,0,0,0,0,0,0,0,0,0,9625,9626,9627,9591
</chunk>
   <chunk x="32" y="-16" width="16" height="16">
0,0,0,0,0,0,0,0,0,0,0,0,0,0,0,0,
0,0,0,0,0,0,0,0,0,0,0,0,0,0,0,0,
0,0,0,0,0,0,0,0,0,0,0,0,0,0,0,0,
0,0,0,0,0,0,0,0,0,0,0,0,0,0,0,0,
0,0,0,0,0,0,0,0,0,0,0,0,0,0,0,0,
0,0,0,0,0,0,0,0,0,0,0,0,0,0,0,0,
0,0,0,0,0,0,0,0,0,0,0,0,0,0,0,0,
0,0,0,0,0,0,0,0,0,0,0,0,0,0,0,0,
0,0,0,0,0,0,0,0,0,0,0,0,0,0,0,0,
0,0,0,0,0,0,0,0,0,0,0,0,0,0,0,0,
0,0,0,0,0,0,0,0,0,0,0,0,0,0,0,0,
0,0,0,0,0,0,0,0,0,0,0,0,0,0,0,0,
9496,9497,0,0,0,0,0,0,0,0,0,0,0,0,0,0,
9528,9529,0,0,0,0,0,0,0,0,0,0,0,0,0,0,
9560,9561,0,0,0,0,0,0,0,0,0,0,0,0,0,0,
9592,9593,0,0,0,0,0,0,0,0,0,0,0,0,0,0
</chunk>
   <chunk x="-16" y="0" width="16" height="16">
0,0,0,9509,9510,9511,0,0,0,0,9675,9676,0,0,0,0,
0,0,0,9541,9542,9543,9495,9496,9497,0,0,0,0,0,0,0,
0,0,0,0,0,0,9527,9528,9529,0,9518,9519,9520,0,0,0,
0,0,0,0,9639,9640,9559,9560,9561,0,9550,9551,9552,10182,0,0,
0,0,0,0,9671,9672,9591,9592,9593,0,9582,9583,9584,0,0,0,
0,0,0,0,0,0,0,0,0,0,0,0,0,9509,9510,9511,
0,0,0,0,0,0,0,0,0,0,0,0,10182,9541,9542,9543,
0,0,0,0,0,0,0,0,0,0,0,0,0,0,0,0,
0,0,0,0,0,0,0,0,0,0,0,0,0,0,0,0,
0,0,0,0,0,0,0,0,0,0,0,0,0,0,0,0,
0,0,0,0,0,0,0,0,0,0,0,0,0,0,0,0,
0,0,0,0,0,0,0,0,0,0,0,0,0,0,0,0,
0,0,0,0,0,0,0,0,0,0,0,0,0,0,0,0,
0,0,10153,10154,0,0,0,0,0,0,0,0,0,0,0,0,
0,0,10185,10186,0,0,0,0,0,0,0,0,0,0,0,0,
10250,10251,10252,0,0,10109,10110,0,0,0,0,0,0,0,0,0
</chunk>
   <chunk x="0" y="0" width="16" height="16">
0,0,0,0,0,0,0,0,0,0,0,0,0,0,0,0,
10019,10020,0,0,0,0,0,0,0,0,0,0,0,0,0,0,
10051,10052,0,0,0,0,0,9643,9644,0,0,0,0,0,0,0,
9625,9626,9627,0,0,0,0,9675,9676,0,0,0,0,0,0,0,
9657,9658,9659,0,0,0,0,0,0,0,0,0,0,0,0,0,
0,0,0,9442,0,9512,9513,9514,0,0,0,0,0,0,0,0,
0,0,0,0,0,9544,9545,9546,0,0,0,0,0,0,9424,9425,
0,0,0,0,0,9576,9577,9578,0,0,0,0,0,0,9456,9457,
0,0,0,0,0,9608,9609,9610,0,0,0,0,0,0,0,0,
0,0,0,0,0,0,0,0,0,0,0,0,0,0,0,0,
0,0,0,0,0,0,0,0,0,0,0,9330,9331,9332,9333,9334,
0,0,0,0,0,0,0,0,0,0,0,9362,9363,9364,9365,9366,
0,0,0,0,0,0,0,0,0,0,0,9394,9395,9396,9397,9398,
0,0,0,0,0,0,0,0,0,0,0,9426,9427,9428,9429,9430,
0,0,0,0,0,0,0,0,0,0,0,9458,9459,9460,9461,9462,
0,0,0,0,0,0,0,0,0,0,0,9573,9574,0,9747,9748
</chunk>
   <chunk x="16" y="0" width="16" height="16">
0,0,0,0,0,0,0,0,0,0,0,0,9657,9658,9659,0,
0,0,0,0,0,0,0,0,0,0,0,9455,9689,9690,9691,0,
0,0,0,9534,9535,9536,0,0,0,0,0,0,0,0,0,0,
0,0,0,9566,9567,9568,0,0,0,0,0,0,0,0,10180,10181,
0,0,0,9598,9599,9600,0,0,0,0,0,0,0,0,10212,10213,
0,9625,9626,9627,0,0,0,0,0,0,0,0,0,0,0,0,
0,9657,9658,9659,0,9347,9348,9349,9350,9351,10182,0,0,0,0,0,
0,9689,9690,9691,0,9379,9380,9381,9382,9383,9384,0,0,0,0,0,
0,9517,0,0,0,9411,9412,9413,9414,9415,9416,0,0,0,0,0,
0,0,0,0,0,9443,9444,9445,9446,9447,9448,0,0,0,0,0,
9515,9516,0,0,0,0,9476,9477,9478,9479,9480,0,0,0,0,0,
9547,9548,0,9453,9454,0,0,0,0,0,0,0,9360,9361,0,0,
0,0,0,9485,9486,0,0,0,0,0,0,0,9392,9393,0,0,
0,0,0,0,0,0,0,0,9473,9474,9475,0,0,0,0,0,
9717,9718,9719,9720,9721,0,0,0,9505,9506,9507,9508,0,0,0,0,
9749,9750,9751,9752,9753,0,0,0,9537,9538,9539,9540,0,0,0,0
</chunk>
   <chunk x="32" y="0" width="16" height="16">
0,0,0,0,0,0,0,0,0,0,0,0,0,0,0,0,
0,0,0,0,0,0,0,0,9613,9614,9615,0,0,0,0,0,
10182,0,0,0,0,9509,9510,9511,9645,9646,9647,0,0,0,0,0,
0,0,0,0,0,9541,9542,9543,9677,9678,9679,0,9509,9510,9511,0,
0,0,0,0,0,0,0,0,0,9634,9635,9636,9541,9542,9543,0,
0,0,0,0,0,0,0,0,0,9666,9667,9668,0,0,0,0,
10178,10179,0,0,0,0,0,0,0,0,0,0,0,0,0,0,
10210,10211,0,0,0,0,0,0,0,0,0,0,0,0,0,0,
0,0,0,0,0,0,0,0,0,0,0,0,0,0,0,0,
0,0,0,0,0,0,0,0,0,0,0,0,0,0,0,0,
0,0,0,0,0,0,0,0,0,0,0,0,0,0,0,0,
0,0,0,0,0,0,0,9335,9336,9337,9338,0,10182,0,0,0,
0,0,0,0,0,0,0,9367,9368,9369,9370,0,0,0,0,0,
0,0,0,0,0,0,0,9399,9400,9401,9402,0,9639,9640,0,0,
0,0,0,0,0,0,0,9431,9432,9433,9434,0,9671,9672,0,0,
0,0,9357,9358,9359,0,0,9463,9464,9465,9466,0,0,0,0,0
</chunk>
   <chunk x="48" y="0" width="16" height="16">
10019,10020,0,0,0,0,0,0,0,0,0,0,0,0,0,0,
10051,10052,0,0,0,0,0,0,0,0,0,0,0,0,0,0,
0,0,0,0,0,0,0,0,0,0,0,0,0,0,0,0,
0,0,0,0,0,0,0,0,0,0,0,0,0,0,0,0,
0,0,0,0,10019,10020,0,0,0,0,0,0,0,0,0,0,
0,0,0,0,10051,10052,0,0,0,0,0,0,0,0,0,0,
0,0,0,0,0,0,0,0,0,0,0,0,0,0,0,0,
0,0,0,0,0,0,0,0,0,0,0,0,0,0,0,0,
0,0,0,0,0,0,10153,10154,0,0,0,0,0,0,0,0,
0,0,0,0,0,0,10185,10186,0,0,0,0,0,0,0,0,
0,0,0,0,0,0,0,0,0,0,0,0,0,0,0,0,
0,0,0,0,0,0,0,0,0,0,0,0,0,0,0,0,
0,0,0,0,0,0,0,0,0,0,0,0,0,0,0,0,
0,0,0,0,0,0,0,0,0,0,0,0,0,0,0,0,
0,0,0,0,0,0,0,0,0,0,0,0,0,0,0,0,
0,0,0,0,0,0,0,0,0,0,0,0,0,0,0,0
</chunk>
   <chunk x="-16" y="16" width="16" height="16">
10282,10283,10284,0,0,10141,10142,10079,10080,0,0,0,0,0,0,0,
0,0,0,0,0,0,0,10111,10112,0,0,10155,10156,0,0,0,
0,0,0,0,0,0,0,0,0,0,0,10187,10188,0,0,0,
0,0,0,0,0,0,0,0,0,0,0,0,0,0,0,0,
0,0,0,0,0,0,0,0,0,0,9625,9626,9627,0,0,0,
0,0,0,0,0,0,0,0,0,0,9657,9658,9659,0,0,0,
0,0,0,0,0,0,0,0,0,0,9689,9690,9691,0,0,0,
0,0,0,0,0,0,0,0,0,0,0,0,0,0,0,0,
0,0,0,0,0,0,0,0,0,0,0,0,0,0,0,0,
0,0,0,0,0,0,0,0,0,0,0,0,0,0,0,0,
0,0,0,0,0,0,0,0,0,0,0,0,0,0,0,0,
0,0,0,0,0,0,0,0,0,0,0,0,0,0,0,0,
0,0,0,0,0,0,0,0,0,0,0,0,0,0,0,0,
0,0,0,0,0,0,0,0,0,0,0,0,0,0,0,0,
0,0,0,0,0,0,0,0,0,0,0,0,0,0,0,0,
0,0,0,0,0,0,0,0,0,0,0,0,0,0,0,0
</chunk>
   <chunk x="0" y="16" width="16" height="16">
0,0,0,0,0,0,0,0,0,0,0,9605,9606,0,9779,9780,
0,0,0,0,0,0,0,0,0,0,0,0,0,0,9811,9812,
0,0,0,0,0,0,0,0,0,0,0,0,0,0,9843,9844,
0,0,0,0,0,9498,9499,9500,9501,0,0,0,0,0,9875,9876,
0,0,0,0,0,9530,9531,9532,9533,9343,9344,9345,9346,0,9907,9908,
10182,0,0,0,0,9562,9563,9564,9565,9375,9376,9377,9378,0,0,0,
0,0,0,0,0,9594,9595,9596,9597,9407,9408,9409,9410,0,0,0,
0,0,0,0,0,0,0,0,0,9439,9440,9441,9442,0,0,0,
0,0,0,9495,9496,9497,0,10182,0,0,9722,9723,9724,9725,9726,0,
0,0,0,9527,9528,9529,0,0,0,0,9754,9755,9756,9757,9758,0,
0,0,0,9559,9560,9561,0,0,0,0,9786,9787,9788,9789,9790,0,
0,0,0,9591,9592,9593,0,0,0,0,9818,9819,9820,9821,9822,0,
0,0,0,0,0,0,0,0,0,0,9850,9851,9852,9853,9854,0,
0,0,0,0,0,0,0,0,0,0,0,0,0,0,0,0,
0,0,0,0,0,0,0,0,0,0,0,0,0,0,0,0,
0,0,0,0,0,0,0,0,0,0,0,0,0,0,0,0
</chunk>
   <chunk x="16" y="16" width="16" height="16">
9781,9782,9783,9784,9785,0,0,0,9569,9570,9571,9572,0,0,0,0,
9813,9814,9815,9816,9817,0,0,0,9601,9602,9603,9509,9510,9511,0,0,
9845,9846,9847,9848,9849,0,0,0,0,0,0,9541,9542,9543,0,9353,
9877,9878,9879,9880,9881,0,0,0,0,0,0,0,0,0,0,9385,
9909,9910,9911,9912,9913,0,0,0,0,0,0,0,0,0,0,9417,
0,0,0,9455,0,0,0,0,0,0,0,0,0,0,0,9449,
0,0,0,0,0,9637,9638,0,0,0,0,0,0,0,0,9481,
0,0,0,0,0,9669,9670,0,0,0,0,0,0,0,0,0,
0,0,0,0,0,0,0,9339,9340,9341,9342,0,0,0,0,0,
0,0,0,0,0,0,0,9371,9372,9373,9374,0,0,0,0,0,
0,0,0,0,0,0,0,9403,9404,9405,9406,0,0,0,0,0,
0,0,0,0,0,0,0,9435,9436,9437,9438,0,9632,9633,0,0,
0,0,0,0,0,0,0,9467,9468,9469,9470,0,9664,9665,0,9641,
9625,9626,9627,0,0,0,0,0,0,0,0,0,9696,9697,0,9673,
9657,9658,9659,0,0,0,0,0,0,0,0,0,0,0,0,0,
0,0,0,0,0,0,0,0,0,0,0,0,0,0,0,0
</chunk>
   <chunk x="32" y="16" width="16" height="16">
0,0,9389,9390,9391,9491,9492,9493,9494,0,0,0,0,0,0,0,
0,0,9421,9422,9423,9523,9524,9525,9526,0,0,0,0,0,0,0,
9354,9355,9356,0,0,9555,9556,9557,9558,0,0,0,0,0,0,0,
9386,9387,9388,0,0,9587,9588,9589,9590,0,0,0,0,0,0,0,
9418,9419,9420,0,0,0,9360,9361,0,0,0,0,0,0,0,0,
9450,9451,9452,0,0,0,9392,9393,0,0,0,0,0,0,0,0,
9482,9483,9484,9575,0,0,0,0,0,0,0,0,0,0,0,0,
0,0,0,0,0,0,0,0,0,9628,9629,9630,0,0,0,0,
0,0,0,0,0,0,0,0,0,9660,9661,9662,0,0,9639,9640,
0,0,0,0,9495,9496,9497,9639,9640,9692,9693,9694,0,0,9671,9672,
0,0,0,0,9527,9528,9529,9671,9672,0,0,0,0,0,10182,0,
0,0,0,0,9559,9560,9561,0,0,0,0,0,0,0,0,0,
9642,0,0,0,9591,9592,9593,0,0,0,0,0,0,0,0,0,
9674,0,0,0,0,0,0,0,0,0,0,0,0,0,0,0,
0,0,0,0,0,0,0,0,0,0,0,0,0,0,0,0,
0,0,0,0,0,0,0,0,0,0,0,0,0,0,0,0
</chunk>
   <chunk x="48" y="16" width="16" height="16">
0,0,0,0,0,0,0,0,0,0,0,0,0,0,0,0,
0,0,0,0,0,0,0,0,0,0,0,0,0,0,0,0,
0,0,0,0,0,0,0,0,0,0,0,0,0,0,0,0,
0,0,0,0,0,0,0,0,0,0,0,0,0,0,0,0,
0,0,0,0,0,0,0,0,0,0,0,0,0,0,0,0,
0,0,0,0,0,0,0,0,0,0,0,0,0,0,0,0,
0,0,0,0,0,0,0,0,0,0,0,0,0,0,0,0,
0,0,0,0,0,0,0,0,0,0,0,0,0,0,0,0,
0,0,0,0,0,0,0,0,0,0,0,0,0,0,0,0,
0,0,0,0,0,0,0,0,0,0,0,0,0,0,0,0,
0,0,0,0,0,0,0,0,0,0,0,0,0,0,0,0,
0,0,0,0,0,0,0,0,0,0,0,0,0,0,0,0,
0,0,0,0,0,9946,9947,9948,9949,9950,0,0,0,0,0,0,
0,0,0,0,0,9978,9979,9980,9981,9982,0,0,0,0,0,0,
0,0,0,0,0,10010,10011,10012,10013,10014,0,0,0,0,0,0,
0,0,0,0,0,10042,10043,10044,10045,10046,0,0,0,0,0,0
</chunk>
   <chunk x="0" y="32" width="16" height="16">
0,0,0,0,0,0,0,0,0,0,0,0,0,0,0,9643,
0,0,0,0,0,0,0,0,0,0,0,0,0,0,0,9675,
0,0,0,0,0,0,0,0,0,0,0,0,0,0,0,0,
0,0,0,0,0,0,0,0,0,0,0,0,0,0,0,0,
0,0,0,0,0,0,0,0,0,0,0,0,0,0,0,0,
0,0,0,0,0,0,0,0,0,0,0,0,0,0,0,0,
0,0,0,0,0,0,0,0,0,0,0,0,0,0,0,0,
0,0,0,0,0,0,0,0,0,0,0,0,0,0,0,0,
0,0,0,0,0,0,0,0,0,0,0,0,0,0,0,0,
0,0,0,0,0,0,0,0,0,0,0,0,0,0,0,0,
0,0,0,0,0,0,0,0,0,0,0,0,0,0,0,0,
0,0,0,0,0,0,0,0,0,0,0,0,0,0,0,0,
0,0,0,0,0,0,0,0,0,0,0,0,0,0,0,0,
0,0,0,0,0,0,0,0,0,0,0,0,0,0,0,0,
0,0,0,0,0,0,0,0,0,0,0,0,0,0,0,0,
0,0,0,0,0,0,0,0,0,0,0,0,0,0,0,0
</chunk>
   <chunk x="16" y="32" width="16" height="16">
9644,0,0,0,0,0,0,0,0,0,0,0,0,0,0,0,
9676,0,0,0,0,0,0,0,0,0,0,0,0,0,0,0,
0,0,0,0,0,0,0,0,0,0,0,0,0,0,0,0,
0,0,0,0,0,0,0,9625,0,0,0,0,0,9509,9510,9511,
0,0,0,0,0,0,0,0,0,0,0,9643,9644,9541,9542,9543,
0,0,0,0,0,0,0,0,0,0,0,9675,9676,0,0,0,
0,0,0,0,0,0,0,0,0,0,0,0,0,0,0,0,
0,0,0,0,0,0,0,0,0,0,0,0,0,0,0,0,
0,0,0,0,0,0,0,0,0,0,0,0,0,0,0,0,
0,0,0,0,0,0,0,0,0,0,0,0,0,0,0,0,
0,0,0,0,0,0,0,0,0,0,0,0,0,0,0,0,
0,0,0,0,0,0,0,0,0,0,0,0,0,0,0,0,
0,0,0,0,0,0,0,0,0,0,0,0,0,0,0,0,
0,0,0,0,0,0,0,0,0,0,0,0,0,0,0,0,
0,0,0,0,0,0,0,0,0,0,0,0,0,0,0,0,
0,0,0,0,0,0,0,0,0,0,0,0,0,0,0,0
</chunk>
   <chunk x="32" y="32" width="16" height="16">
0,0,0,0,0,0,0,0,0,0,0,0,0,0,0,0,
0,0,0,0,0,0,0,0,0,0,0,0,0,0,0,0,
0,0,0,0,0,0,0,0,0,0,0,0,0,0,0,0,
0,0,0,0,0,0,0,0,0,0,0,0,0,0,0,0,
0,0,0,10182,0,0,0,0,0,0,0,0,0,0,0,0,
0,9643,9644,0,0,0,0,0,0,0,0,0,0,0,0,0,
0,9675,9676,0,0,0,0,0,0,0,0,0,0,0,0,0,
0,0,0,0,0,0,0,0,0,0,0,0,0,0,0,0,
0,0,0,0,0,0,0,0,0,0,0,0,0,0,0,0,
0,0,0,0,0,0,0,0,0,0,0,0,0,0,0,0,
0,0,0,0,0,0,0,0,0,0,0,0,0,0,0,0,
0,0,0,0,0,0,0,0,0,0,0,0,0,0,0,0,
0,0,0,0,0,0,0,0,0,0,0,0,0,0,0,0,
0,0,0,0,0,0,0,0,0,0,0,0,0,0,0,0,
0,0,0,0,0,0,0,0,0,0,0,0,0,0,0,0,
0,0,0,0,0,0,0,0,0,0,0,0,0,0,0,0
</chunk>
   <chunk x="48" y="32" width="16" height="16">
0,0,0,0,0,10074,10075,10076,10077,10078,0,0,0,0,0,0,
0,0,0,0,0,0,0,0,0,0,0,0,0,0,0,0,
9495,9496,9497,0,0,0,0,0,0,0,0,0,0,0,0,0,
9527,9528,9529,9534,9535,9536,0,0,0,0,0,0,0,0,0,0,
9559,9560,9561,9566,9567,9568,0,0,0,0,0,0,0,0,0,0,
9591,9592,9593,9598,9599,9600,0,0,9534,9535,0,0,0,0,0,0,
0,0,0,0,0,0,0,0,9566,9567,0,0,0,0,0,0,
0,0,0,0,9490,9491,9492,9493,9598,9599,0,0,0,0,0,0,
0,0,0,0,9522,9523,9524,9525,9526,0,0,0,0,0,0,0,
0,0,0,0,9554,9555,9556,9557,9558,0,0,0,0,0,0,0,
0,0,0,0,9586,9587,9588,9589,9590,0,0,0,0,0,0,0,
0,0,0,0,0,0,0,0,0,0,0,0,0,0,0,0,
0,0,0,0,0,0,0,0,0,0,0,0,0,0,0,0,
0,0,0,0,0,0,0,0,0,0,0,0,0,0,0,0,
0,0,0,0,0,0,0,0,0,0,0,0,0,0,0,0,
0,0,0,0,0,0,0,0,0,0,0,0,0,0,0,0
</chunk>
  </data>
 </layer>
 <layer id="201" name="objects3" width="46" height="32">
  <data encoding="csv">
   <chunk x="-16" y="-16" width="16" height="16">
0,0,0,0,0,0,0,0,0,0,0,0,0,0,0,0,
0,0,0,0,0,0,0,0,0,0,0,0,0,0,0,0,
0,0,0,0,0,0,0,0,0,0,0,0,0,0,0,0,
0,0,0,0,0,0,0,0,0,0,0,0,0,0,0,0,
0,0,0,0,0,0,0,0,0,0,0,0,0,0,0,0,
0,0,0,0,0,0,0,0,0,0,0,0,0,0,0,0,
0,0,0,0,0,0,0,0,0,0,0,0,0,0,0,0,
0,0,0,0,0,0,0,0,0,0,0,0,0,0,0,0,
0,0,0,0,0,0,0,0,0,0,0,0,0,0,0,0,
0,0,0,0,0,0,0,0,0,0,0,0,0,0,0,0,
0,0,0,0,0,0,0,0,0,0,0,0,0,0,0,0,
0,0,0,0,0,0,0,0,0,0,0,0,0,0,0,0,
0,0,0,0,0,0,0,0,0,0,0,0,0,0,0,0,
0,0,0,9375,9376,9377,9378,0,0,0,0,0,0,0,0,0,
10168,10169,0,9407,9408,9409,9410,0,0,0,0,0,0,0,10168,10169,
10200,10201,0,9439,9440,9441,9442,0,0,0,0,0,0,0,10200,10201
</chunk>
   <chunk x="0" y="-16" width="16" height="16">
0,0,0,0,0,0,0,0,0,0,0,0,0,0,0,0,
0,0,0,0,0,0,0,0,0,0,0,0,0,0,0,0,
0,0,0,0,0,0,0,0,0,0,0,0,0,0,0,0,
0,0,0,0,0,0,0,0,0,0,0,0,0,0,0,0,
0,0,0,0,0,0,0,0,0,0,0,0,0,0,0,0,
0,0,0,0,0,0,0,0,0,0,0,0,0,0,0,0,
0,0,0,0,0,0,0,0,0,0,0,0,0,0,0,0,
0,0,0,0,0,0,0,0,0,0,0,0,0,0,0,0,
0,0,0,0,0,0,0,0,0,0,0,0,0,0,0,0,
0,0,0,0,0,0,0,0,0,0,0,0,0,0,0,0,
0,0,0,0,0,0,0,0,0,0,0,0,0,0,0,0,
0,0,0,0,0,0,0,0,0,0,0,0,0,0,0,0,
0,0,0,0,0,0,0,9882,9883,9722,9723,9724,9725,9726,0,0,
0,0,0,0,0,0,0,9914,9915,9754,9755,9756,9757,9758,0,0,
0,0,0,0,0,0,0,0,0,9786,9787,9788,9789,9790,0,0,
0,0,0,0,0,0,10163,10164,10165,9818,9819,9820,9821,9822,0,0
</chunk>
   <chunk x="16" y="-16" width="16" height="16">
0,0,0,0,0,0,0,0,0,0,0,0,0,0,0,0,
0,0,0,0,0,0,0,0,0,0,0,0,0,0,0,0,
0,0,0,0,0,0,0,0,0,0,0,0,0,0,0,0,
0,0,0,0,0,0,0,0,0,0,0,0,0,0,0,0,
0,0,0,0,0,0,0,0,0,0,0,0,0,0,0,0,
0,0,0,0,0,0,0,0,0,0,0,0,0,0,0,0,
0,0,0,0,0,0,0,0,0,0,0,0,0,0,0,0,
0,0,0,0,0,0,0,0,0,0,0,0,0,0,0,0,
0,0,0,0,0,0,0,0,0,0,0,0,0,0,0,0,
0,0,0,0,0,0,0,0,0,0,0,0,0,0,0,0,
0,0,0,0,0,0,0,0,0,0,0,0,0,0,0,0,
0,0,0,0,0,0,0,0,0,0,0,0,0,9495,9496,9497,
0,0,0,0,0,0,0,0,0,0,0,0,0,9527,9528,9529,
0,0,0,0,0,0,0,0,0,0,0,0,0,9559,9560,9561,
0,0,0,0,0,0,9490,9491,9492,9493,9494,0,0,9591,9592,9593,
0,0,0,0,0,0,9522,9523,9524,9525,9526,0,0,0,0,0
</chunk>
   <chunk x="32" y="-16" width="16" height="16">
0,0,0,0,0,0,0,0,0,0,0,0,0,0,0,0,
0,0,0,0,0,0,0,0,0,0,0,0,0,0,0,0,
0,0,0,0,0,0,0,0,0,0,0,0,0,0,0,0,
0,0,0,0,0,0,0,0,0,0,0,0,0,0,0,0,
0,0,0,0,0,0,0,0,0,0,0,0,0,0,0,0,
0,0,0,0,0,0,0,0,0,0,0,0,0,0,0,0,
0,0,0,0,0,0,0,0,0,0,0,0,0,0,0,0,
0,0,0,0,0,0,0,0,0,0,0,0,0,0,0,0,
0,0,0,0,0,0,0,0,0,0,0,0,0,0,0,0,
0,0,0,0,0,0,0,0,0,0,0,0,0,0,0,0,
0,0,0,0,0,0,0,0,0,0,0,0,0,0,0,0,
0,0,0,0,0,0,0,0,0,0,0,0,0,0,0,0,
0,0,0,0,0,0,0,0,0,0,0,0,0,0,0,0,
0,0,0,0,0,0,0,0,0,0,0,0,0,0,0,0,
0,9534,9535,9536,0,0,0,9632,9633,0,0,0,0,0,0,0,
0,9566,9567,9568,0,10168,10169,9664,9665,0,0,0,0,0,0,0
</chunk>
   <chunk x="-16" y="0" width="16" height="16">
0,0,0,0,0,0,0,0,0,0,0,0,0,9575,0,0,
0,0,0,0,0,0,0,0,0,9575,0,0,0,0,0,0,
0,0,0,0,0,0,0,0,0,0,0,0,0,0,0,0,
0,0,0,0,0,0,0,0,0,0,0,0,0,0,0,0,
0,0,0,0,0,0,0,0,0,0,0,0,0,0,0,0,
0,0,0,0,0,0,0,9453,9454,0,0,0,0,0,0,0,
0,0,0,0,0,0,0,9485,9486,0,0,0,0,0,0,0,
0,0,0,0,0,0,0,0,0,0,0,0,0,0,9453,9454,
0,0,0,0,0,0,0,0,0,0,0,0,0,0,9485,9486,
0,0,0,0,0,0,0,0,0,0,0,0,0,0,0,0,
0,0,0,0,0,0,0,0,0,0,0,0,0,0,0,0,
0,0,0,0,0,0,0,0,0,0,0,0,0,0,0,0,
0,0,0,0,0,0,0,0,0,0,0,0,0,0,0,0,
9517,0,0,0,0,0,0,0,0,0,0,0,0,0,0,0,
0,0,0,0,0,0,0,0,0,0,0,0,0,0,0,0,
0,0,0,0,0,0,0,0,0,0,0,0,0,0,0,0
</chunk>
   <chunk x="0" y="0" width="16" height="16">
0,0,0,0,0,0,10195,10196,10197,9850,9851,9852,9853,9854,0,0,
0,0,0,0,0,0,10227,10228,10229,0,0,0,0,0,0,0,
0,0,0,10168,10169,0,0,0,0,0,0,0,0,0,0,0,
0,0,0,10200,10201,0,0,0,0,0,9710,9711,9712,0,0,0,
0,0,0,0,0,0,0,0,0,0,9742,9743,9744,0,0,0,
0,0,0,0,0,0,0,0,0,0,9774,9775,9776,0,0,0,
0,0,0,0,0,0,0,0,0,0,0,0,0,0,0,0,
0,0,0,0,0,0,0,0,0,0,0,0,0,0,0,0,
0,0,0,0,0,0,0,0,0,0,0,0,0,0,0,0,
0,0,0,0,0,0,0,0,0,0,0,0,0,0,0,0,
0,0,0,0,0,0,0,0,0,0,0,0,0,0,0,0,
0,0,0,0,0,0,0,0,0,9453,9454,0,0,0,0,0,
0,0,0,0,0,0,0,0,0,9485,9486,0,0,0,0,0,
0,0,0,0,0,0,0,0,0,0,0,0,0,0,0,0,
0,0,0,0,0,0,0,0,0,0,0,0,0,0,0,0,
0,0,0,0,0,0,0,0,0,0,0,0,0,0,10166,10167
</chunk>
   <chunk x="16" y="0" width="16" height="16">
0,0,0,0,0,0,9554,9555,9556,9557,9558,0,0,0,0,0,
0,0,0,0,0,0,9586,9587,9588,9589,9590,0,0,0,0,0,
0,0,0,0,0,0,0,0,0,0,0,0,0,0,0,0,
0,0,0,0,0,0,0,0,0,0,0,0,0,0,0,0,
0,0,0,0,0,0,0,0,0,0,0,0,0,0,0,0,
0,0,0,0,0,0,0,0,0,0,0,0,0,0,0,0,
0,0,0,0,0,0,0,0,0,0,0,0,0,0,0,0,
0,0,0,0,0,0,0,0,0,0,0,0,0,0,0,0,
0,0,0,0,0,0,0,0,0,0,0,0,0,0,0,0,
0,0,0,0,0,0,0,0,0,0,0,0,0,0,0,0,
0,0,0,0,0,0,0,0,0,0,0,0,0,0,0,0,
0,0,0,0,0,0,0,0,0,0,0,0,0,0,0,0,
0,0,0,0,0,0,0,0,0,0,9573,9574,0,0,0,0,
0,0,0,0,0,0,0,0,0,0,9605,9606,0,0,0,0,
0,0,0,0,0,0,0,0,0,0,0,0,0,0,0,0,
0,0,0,0,0,0,0,0,0,0,0,0,0,0,0,0
</chunk>
   <chunk x="32" y="0" width="16" height="16">
0,9598,9599,9600,0,10200,10201,9696,9697,0,0,9375,9376,9377,9378,0,
0,0,0,0,0,0,0,0,0,0,0,9407,9408,9409,9410,0,
0,0,0,0,0,0,0,0,0,0,0,9439,9440,9441,9442,9575,
0,0,0,0,0,0,0,0,0,0,0,0,0,0,0,0,
0,0,0,0,0,0,0,0,0,0,0,9601,0,0,0,0,
0,0,0,0,0,0,0,0,0,0,0,0,0,0,0,0,
0,0,0,0,0,0,0,0,0,0,0,0,0,0,0,0,
0,0,0,0,0,0,0,0,0,0,0,0,0,0,0,0,
0,0,0,0,0,0,0,0,0,0,0,0,0,0,0,0,
0,0,0,0,0,0,0,0,0,0,0,0,0,0,0,0,
0,0,0,0,0,0,0,0,0,0,0,0,0,0,9632,9633,
0,0,0,0,0,0,0,0,0,0,0,0,0,0,9664,9665,
0,0,0,0,0,0,0,0,0,0,0,0,0,0,9696,9697,
0,0,0,0,0,0,0,0,0,0,0,0,0,0,0,0,
0,0,0,0,0,0,0,0,0,0,10170,10171,0,0,0,0,
0,0,0,0,0,9575,0,0,0,0,10202,10203,0,0,0,0
</chunk>
   <chunk x="48" y="0" width="16" height="16">
0,0,0,0,0,0,0,0,0,0,0,0,0,0,0,0,
0,0,0,10168,10169,0,0,0,0,0,0,0,0,0,0,0,
10157,10158,0,10200,10201,0,0,0,0,0,0,0,0,0,0,0,
10189,10190,0,0,0,0,0,0,0,0,0,0,0,0,0,0,
0,9573,9574,0,0,0,0,0,0,0,0,0,0,0,0,0,
0,9605,9606,0,0,0,0,0,0,0,0,0,0,0,0,0,
0,9498,9499,9500,9501,0,0,0,0,0,0,0,0,0,0,0,
0,9530,9531,9532,9533,0,0,0,0,0,0,0,0,0,0,0,
0,9562,9563,9564,9565,0,0,0,0,0,0,0,0,0,0,0,
0,9594,9595,9596,9597,0,0,0,0,0,0,0,0,0,0,0,
0,0,0,0,0,0,0,0,0,0,0,0,0,0,0,0,
0,0,0,0,0,0,0,0,0,0,0,0,0,0,0,0,
0,0,0,0,0,0,0,0,0,0,0,0,0,0,0,0,
0,0,0,0,0,0,0,0,0,0,0,0,0,0,0,0,
0,0,0,0,0,0,0,0,0,0,0,0,0,0,0,0,
0,0,0,0,0,0,0,0,0,0,0,0,0,0,0,0
</chunk>
   <chunk x="-16" y="16" width="16" height="16">
0,0,0,0,0,0,0,0,0,0,0,0,0,0,0,0,
0,0,0,0,0,0,0,0,0,0,0,0,0,0,0,0,
0,0,9517,0,0,0,0,0,0,0,0,0,0,0,9453,9454,
0,0,0,0,0,0,0,0,0,0,0,0,0,0,9485,9486,
0,0,0,0,0,0,0,0,0,0,0,0,0,0,0,0,
0,0,0,0,0,0,0,0,0,0,0,0,0,0,0,0,
0,0,0,0,0,0,0,0,0,0,0,0,0,0,0,0,
0,0,0,0,0,0,0,0,0,0,0,0,0,0,0,0,
0,0,0,0,0,0,0,0,0,0,0,0,0,0,0,0,
0,0,0,0,0,0,0,0,0,0,0,0,0,0,0,0,
0,0,0,0,0,0,0,0,0,0,0,0,0,0,0,0,
0,0,0,0,0,0,0,0,0,0,0,0,0,0,0,0,
0,0,0,0,0,0,0,0,0,0,0,0,0,0,0,0,
0,0,0,0,0,0,0,0,0,0,0,0,0,0,0,0,
0,0,0,0,0,0,0,0,0,0,0,0,0,0,0,0,
0,0,0,0,0,0,0,0,0,0,0,0,0,0,0,0
</chunk>
   <chunk x="0" y="16" width="16" height="16">
0,0,0,0,0,0,0,0,0,0,0,0,0,0,10198,10199,
0,0,0,0,0,0,0,0,0,0,0,0,0,0,0,0,
0,0,0,0,0,0,0,0,0,0,0,0,0,0,0,0,
0,0,0,0,0,0,0,0,0,0,0,0,0,0,0,0,
0,0,0,0,0,0,0,0,0,0,0,0,0,0,0,0,
0,0,9710,9711,9712,0,0,0,0,0,0,0,0,0,0,0,
0,0,9742,9743,9744,0,0,0,0,0,0,0,0,0,0,0,
0,0,9774,9775,9776,0,0,0,0,0,0,0,0,0,0,0,
0,0,0,0,0,0,0,0,0,0,0,0,0,0,0,0,
0,0,0,0,0,0,0,0,0,0,0,0,0,0,0,0,
0,0,0,0,0,0,0,0,0,0,0,0,0,0,0,0,
0,0,0,0,0,0,0,0,0,0,0,0,0,0,0,0,
0,0,0,0,0,0,0,0,0,0,0,0,0,0,0,0,
0,0,0,0,0,0,0,0,0,0,0,0,0,0,0,0,
0,0,0,0,0,0,0,0,0,0,0,0,0,0,0,0,
0,0,0,0,0,0,0,0,0,0,0,0,0,0,0,0
</chunk>
   <chunk x="16" y="16" width="16" height="16">
0,0,0,0,0,0,0,0,0,0,0,0,0,0,0,0,
0,0,0,0,0,0,0,0,0,0,0,0,0,0,0,0,
0,0,0,0,0,0,0,0,0,0,0,0,0,0,0,0,
0,0,0,0,0,0,0,0,0,0,0,0,0,0,0,0,
0,0,0,0,0,0,0,9495,9496,9497,0,0,0,0,0,0,
0,0,0,0,0,0,0,9527,9528,9529,0,0,0,0,0,0,
0,0,0,0,0,0,0,9559,9560,9561,0,0,0,0,0,0,
0,0,0,0,0,0,0,9591,9592,9593,0,0,0,0,0,0,
0,0,0,0,0,0,0,0,0,0,0,0,0,0,0,0,
0,0,0,0,0,0,0,0,0,0,0,0,0,0,0,0,
0,0,0,0,0,0,0,0,0,0,0,0,0,0,0,0,
0,0,0,0,0,0,0,0,0,0,0,0,0,0,0,0,
0,0,0,0,0,0,0,0,0,0,0,0,0,0,0,0,
0,0,0,0,0,0,0,0,0,0,0,0,0,0,0,0,
0,0,0,0,0,0,0,0,0,0,0,0,0,0,0,0,
0,0,0,0,0,0,0,0,0,0,0,0,0,0,0,0
</chunk>
   <chunk x="32" y="16" width="16" height="16">
0,0,0,0,0,0,0,0,0,0,0,0,0,0,0,0,
0,0,0,0,0,0,0,0,0,0,0,0,0,0,0,0,
0,0,0,0,0,0,0,0,0,0,0,0,0,0,0,0,
0,0,0,0,0,0,0,0,0,0,0,0,0,0,0,0,
0,0,0,0,0,0,0,0,0,0,0,0,0,10079,10080,0,
0,0,0,0,0,0,0,0,0,0,0,10089,10090,10111,10112,0,
0,10163,10164,10165,0,0,0,0,0,0,0,10121,10122,0,0,0,
0,10195,10196,10197,0,0,0,0,0,0,0,0,0,0,0,0,
0,10227,10228,10229,0,0,0,0,0,0,0,0,0,0,0,0,
0,0,0,0,0,0,0,0,0,0,0,0,0,0,0,0,
0,0,0,0,0,0,0,0,0,0,0,0,0,0,0,0,
0,0,0,0,0,0,0,0,0,10271,10272,10157,10158,0,0,0,
0,0,0,0,0,0,0,0,0,10303,10304,10189,10190,0,0,0,
0,0,0,0,0,0,0,0,0,0,0,0,0,0,0,0,
0,0,0,0,10315,10316,0,0,0,0,0,0,0,0,0,0,
0,0,0,0,10347,10348,0,0,0,0,0,0,0,0,0,0
</chunk>
   <chunk x="48" y="16" width="16" height="16">
0,0,0,0,0,0,0,0,0,0,0,0,0,0,0,0,
0,0,0,0,0,0,0,0,0,0,0,0,0,0,0,0,
0,0,0,0,0,0,0,0,0,0,0,0,0,0,0,0,
0,0,0,0,0,0,0,0,0,0,0,0,0,0,0,0,
0,0,0,0,0,0,0,0,0,0,0,0,0,0,0,0,
0,0,0,0,0,0,0,0,0,0,0,0,0,0,0,0,
0,0,0,0,0,0,0,0,0,0,0,0,0,0,0,0,
0,0,0,0,0,0,0,0,0,0,0,0,0,0,0,0,
0,0,0,0,0,0,0,0,0,0,0,0,0,0,0,0,
0,0,0,0,0,0,0,0,0,0,0,0,0,0,0,0,
0,0,0,0,0,10155,10156,0,9453,9454,0,0,0,0,0,0,
0,0,0,0,0,10187,10188,0,9485,9486,0,0,0,0,0,0,
0,0,0,0,10172,0,0,0,0,0,0,0,0,0,0,0,
0,0,0,0,0,0,0,0,0,0,0,0,0,0,0,0,
0,0,0,0,0,0,0,0,0,0,0,0,0,0,0,0,
0,0,9707,9708,9709,0,0,0,0,0,0,0,0,0,0,0
</chunk>
   <chunk x="0" y="32" width="16" height="16">
0,0,0,0,0,0,0,0,0,0,0,0,0,0,0,0,
0,0,0,0,0,0,0,0,0,0,0,0,0,0,0,0,
0,0,0,0,0,0,0,0,0,0,0,0,0,0,0,0,
0,0,0,0,0,0,0,0,0,0,0,0,0,0,0,0,
0,0,0,0,0,0,0,0,0,0,0,0,0,0,0,0,
0,0,0,0,0,0,0,0,0,0,13072,0,0,13075,12912,0,
0,0,0,0,0,0,0,0,0,0,0,0,0,0,12944,0,
0,0,0,0,0,0,0,0,0,0,0,0,0,0,0,0,
0,0,0,0,0,0,0,0,0,0,0,0,0,0,0,0,
0,0,0,0,0,0,0,0,0,0,13200,0,0,13203,13040,0,
0,0,0,0,0,0,0,0,0,12516,12517,0,0,0,0,0,
0,0,0,0,0,0,0,0,0,0,0,0,0,0,0,0,
0,0,0,0,0,0,0,0,0,0,0,0,0,0,0,0,
0,0,0,0,0,0,0,0,0,0,0,0,0,0,0,0,
0,0,0,0,0,0,0,0,0,0,0,0,0,0,0,0,
0,0,0,0,0,0,0,0,0,0,0,0,0,0,0,0
</chunk>
   <chunk x="16" y="32" width="16" height="16">
0,0,0,0,0,0,0,0,0,0,0,0,0,0,0,0,
0,0,10163,10164,10165,0,0,0,0,0,0,0,0,0,0,0,
9573,9574,10195,10196,10197,0,0,0,0,0,0,0,9632,9633,9628,9629,
9605,9606,10227,10228,10229,0,0,0,0,10153,10154,0,9664,9665,9660,9661,
0,0,0,0,0,0,0,0,0,10185,10186,0,9696,9697,9692,9693,
0,12915,9517,0,0,0,0,0,0,0,0,0,9643,9644,9885,9886,
0,0,0,0,0,0,0,0,10157,10158,9643,9644,9675,9676,9917,9918,
0,0,0,0,0,0,0,0,10189,10190,9675,9676,9622,9623,9624,0,
0,0,0,0,0,0,0,0,9579,9580,9652,9653,9654,9655,9656,0,
0,0,0,0,0,0,0,0,9611,9612,9684,9685,9686,9687,9688,10271,
0,0,0,0,0,0,0,0,0,9491,9492,9493,9494,10089,10090,10303,
0,0,0,0,0,0,0,0,0,9523,9524,9525,9526,10121,10122,0,
0,0,0,0,0,0,0,0,0,9555,9556,9557,9558,0,0,0,
0,0,0,0,0,0,0,0,0,9587,9588,9589,9590,0,0,0,
0,0,0,0,0,0,0,0,0,0,0,0,0,0,0,0,
0,0,0,0,0,0,0,0,0,0,0,0,0,0,0,0
</chunk>
   <chunk x="32" y="32" width="16" height="16">
9579,9580,9885,9886,10379,10380,10176,10177,0,0,0,0,0,0,0,0,
9611,9612,9917,9918,0,0,10208,10209,0,0,0,0,0,0,0,0,
9630,0,10271,10272,0,0,0,0,0,0,0,0,0,0,0,0,
9662,0,10303,10304,0,0,0,0,0,0,0,0,0,0,0,0,
9694,0,0,0,0,0,0,0,0,0,0,0,0,0,0,0,
0,9989,9990,0,0,0,0,0,0,0,0,0,0,0,0,0,
0,10021,10022,0,0,0,0,0,0,0,0,0,0,0,0,0,
10271,10272,0,0,0,0,0,0,0,0,0,0,0,0,0,0,
10303,10304,0,0,0,0,0,0,0,0,0,0,0,0,0,0,
10272,0,0,0,0,0,0,0,0,0,0,0,0,0,0,0,
10304,0,0,0,0,0,0,0,0,0,0,0,0,0,0,0,
0,0,0,0,0,0,0,0,0,0,0,0,0,0,0,0,
0,0,0,0,0,0,0,0,0,0,0,0,0,0,0,0,
0,0,0,0,0,0,0,0,0,0,0,0,0,0,0,0,
0,0,0,0,0,0,0,0,0,0,0,0,0,0,0,0,
0,0,0,0,0,0,0,0,0,0,0,0,0,0,0,0
</chunk>
   <chunk x="48" y="32" width="16" height="16">
10168,10169,9739,9740,9741,0,0,0,0,0,0,0,0,0,0,0,
10200,10201,9771,9772,9773,10163,10164,10165,0,0,0,0,0,0,0,0,
0,0,0,0,0,10195,10196,10197,0,0,0,0,0,0,0,0,
0,0,0,0,0,10227,10228,10229,0,10172,0,0,0,0,0,0,
0,0,0,0,0,0,0,10168,10169,0,0,0,0,0,0,0,
0,9330,9331,9332,9333,9334,0,10200,10201,0,0,0,0,0,0,0,
0,9362,9363,9364,9365,9366,0,0,0,0,0,0,0,0,0,0,
0,9394,9395,9396,9397,9398,0,0,0,0,0,0,0,0,0,0,
0,9426,9427,9428,9429,9430,0,0,0,0,0,0,0,0,0,0,
0,9458,9459,9460,9461,9462,0,0,0,0,0,0,0,0,0,0,
0,0,0,0,0,0,0,0,0,0,0,0,0,0,0,0,
0,0,0,0,0,0,0,0,0,0,0,0,0,0,0,0,
0,0,0,0,0,0,0,0,0,0,0,0,0,0,0,0,
0,0,0,0,0,0,0,0,0,0,0,0,0,0,0,0,
0,0,0,0,0,0,0,0,0,0,0,0,0,0,0,0,
0,0,0,0,0,0,0,0,0,0,0,0,0,0,0,0
</chunk>
   <chunk x="0" y="48" width="16" height="16">
0,0,0,0,0,0,0,0,0,0,0,0,0,0,0,0,
0,0,0,0,0,0,0,0,0,0,0,0,0,0,0,0,
0,0,0,0,0,0,0,0,0,0,0,0,0,0,0,0,
0,0,0,0,0,0,0,0,0,0,0,0,0,0,0,0,
0,0,0,0,0,0,0,0,0,0,0,0,0,0,0,0,
0,0,0,0,0,0,0,0,0,0,0,0,0,0,0,0,
0,0,0,0,0,0,0,0,0,0,0,0,0,0,0,0,
0,0,0,0,0,0,0,0,0,0,0,0,0,0,0,0,
0,0,0,0,0,0,0,0,0,0,0,0,0,0,0,0,
0,0,0,0,0,0,0,0,0,0,0,0,0,0,0,0,
0,0,0,0,0,0,0,0,0,0,0,0,0,0,0,0,
0,0,0,0,12582,12582,12582,0,0,0,0,0,0,0,0,0,
0,0,0,0,12614,12614,12614,0,0,0,0,0,0,0,0,0,
0,0,0,0,12582,12582,12582,0,0,0,0,0,0,0,0,0,
0,0,0,0,12614,12614,12614,0,0,0,0,0,0,0,0,0,
0,0,0,0,12612,12612,12612,0,0,0,0,0,0,0,0,0
</chunk>
   <chunk x="16" y="48" width="16" height="16">
0,0,0,0,0,0,0,0,9710,9711,9712,0,0,0,0,0,
0,0,0,0,0,0,0,0,9742,9743,9744,0,0,0,0,0,
0,0,0,0,0,0,0,0,9643,9644,9776,0,0,0,0,0,
0,0,0,0,0,0,0,9517,9675,9676,0,0,0,0,0,0,
0,0,0,0,0,0,0,9634,9635,9636,0,0,0,0,0,0,
0,0,0,0,0,0,0,9666,9667,9668,0,0,0,0,0,0,
0,0,0,0,0,0,0,9573,9574,0,0,0,0,0,0,0,
0,0,0,0,0,0,0,9605,9606,0,0,0,0,0,0,0,
0,0,0,0,0,0,0,0,0,0,0,0,0,0,0,0,
0,0,0,0,0,0,0,0,0,0,0,0,0,0,0,0,
0,0,0,0,0,0,0,0,0,0,0,14907,14908,14909,14902,14903,
0,0,0,0,0,0,10153,10154,0,0,0,14922,14923,14924,14917,14918,
0,0,0,0,0,0,10185,10186,0,0,0,14937,14938,14939,14932,14933,
0,0,0,0,0,0,9357,9358,9359,0,0,15098,0,0,0,0,
0,0,0,0,0,0,9389,9390,9391,0,0,0,0,0,0,0,
0,0,0,0,0,0,9421,9422,9423,0,0,0,0,0,0,0
</chunk>
   <chunk x="32" y="48" width="16" height="16">
0,0,0,0,0,0,0,0,0,0,0,0,0,0,0,0,
0,0,0,0,0,0,0,0,0,0,0,0,0,0,0,0,
0,0,0,0,0,0,0,0,0,0,0,0,0,0,0,0,
0,0,0,0,0,0,0,0,0,0,0,0,0,0,0,0,
0,0,0,0,0,0,0,0,0,0,0,0,0,0,0,0,
0,14824,14825,14826,14827,14828,0,0,0,0,0,0,0,0,0,0,
0,14839,14840,14841,14842,14843,0,0,0,0,0,0,0,0,0,0,
0,14854,14855,14856,14857,14858,0,14899,14900,14901,0,0,0,0,0,0,
14445,14946,14947,14948,14949,14950,14391,14914,14915,14916,0,14539,14540,0,0,0,
0,14961,14962,14963,14964,14965,0,14929,14930,14931,0,14560,14561,0,0,0,
14904,14976,14977,14978,14979,14980,0,0,0,0,0,0,0,0,0,0,
14919,14920,14921,14394,15047,15048,0,0,0,0,0,0,0,0,0,0,
14934,14935,14936,14415,15062,15063,0,0,0,0,0,0,0,0,0,0,
0,0,0,0,0,0,0,0,0,0,0,0,0,0,0,0,
0,0,0,0,0,0,0,0,0,0,0,0,0,0,0,0,
0,0,0,0,0,0,0,0,0,0,0,0,0,0,0,0
</chunk>
  </data>
 </layer>
 <layer id="210" name="house" width="46" height="32">
  <data encoding="csv">
   <chunk x="-16" y="32" width="16" height="16">
0,0,0,0,0,0,0,0,0,0,0,0,0,0,0,0,
0,0,0,0,0,0,0,0,0,0,0,0,0,0,0,0,
0,0,0,0,0,0,0,0,0,0,0,0,0,0,0,0,
0,0,0,0,0,0,0,0,0,0,0,0,0,0,0,0,
0,11193,11194,11195,11196,11197,11198,11199,11200,0,0,0,0,0,0,0,
0,11224,11225,11226,11227,11228,11229,11230,11231,0,0,0,0,0,0,0,
0,11255,11256,11257,11258,11259,11260,11261,11262,0,0,11218,11218,11219,11220,11221,
0,11286,11287,11288,11289,11290,11291,11292,11293,0,0,0,11249,11250,11251,11252,
0,11317,11318,11319,11320,11321,11322,11323,11324,0,0,0,11280,11281,11282,11283,
0,11348,11349,11350,11351,11352,11353,11354,11355,0,0,0,11311,11312,11313,11314,
0,11379,11380,11381,11382,11383,11384,11385,11386,0,0,0,11342,11343,11344,11345,
0,11410,11411,11412,11413,11414,11415,11416,11417,0,0,0,11373,11374,11375,11376,
0,11441,11442,11443,11444,11445,11446,11447,11448,0,0,0,0,0,0,0,
0,0,0,0,0,0,0,0,0,0,0,0,0,0,0,0,
0,0,0,0,0,0,0,0,0,0,0,0,0,0,0,0,
0,0,0,11387,11388,11389,11390,11391,0,0,0,0,0,0,0,0
</chunk>
   <chunk x="0" y="32" width="16" height="16">
0,0,0,0,0,0,0,0,0,0,0,0,0,0,0,0,
0,0,0,0,0,0,0,0,0,0,0,0,0,0,0,0,
0,0,0,0,0,0,0,0,0,0,0,0,0,0,0,0,
0,0,0,0,0,0,0,0,0,0,0,0,0,0,0,0,
0,0,0,0,0,0,0,0,0,0,0,0,0,0,0,0,
0,0,0,0,0,0,0,0,0,0,0,0,0,0,0,0,
11222,11223,0,0,0,0,0,0,0,0,0,0,0,0,0,0,
11253,11254,0,11241,0,0,0,0,0,0,0,0,0,0,0,0,
11284,11285,0,0,0,0,0,0,0,0,0,0,0,0,0,0,
11315,11316,0,0,0,0,0,0,0,0,0,0,0,0,0,0,
11346,11347,0,0,0,0,0,0,0,0,0,0,0,0,0,0,
11377,11378,0,0,0,0,0,0,0,0,0,0,0,0,0,0,
0,0,0,0,0,0,0,0,0,0,0,0,0,0,0,0,
0,0,0,0,0,0,0,0,0,0,11434,0,0,0,0,0,
0,0,0,0,0,0,0,0,0,11241,11242,11213,11214,0,0,0,
0,0,0,0,0,0,0,0,11241,11242,11243,11244,11245,11246,11247,11248
</chunk>
   <chunk x="16" y="32" width="16" height="16">
0,0,0,0,0,0,0,0,0,0,0,0,0,0,0,0,
0,0,0,0,0,0,0,0,0,0,0,0,0,0,0,0,
0,0,0,0,0,0,0,0,0,0,0,0,0,0,0,0,
0,0,0,0,0,0,0,0,0,0,0,0,0,0,0,0,
0,0,0,0,0,0,0,0,0,0,0,0,0,0,0,0,
0,0,0,0,0,0,0,0,0,0,0,0,0,0,0,0,
0,0,0,0,0,0,0,0,0,0,0,0,0,0,0,0,
0,0,0,0,0,0,0,0,0,0,0,0,0,0,0,0,
0,0,0,0,0,0,0,0,0,0,0,0,0,0,0,0,
0,0,0,9455,0,0,0,0,0,0,0,0,0,0,0,0,
0,0,0,0,0,0,0,0,0,0,0,0,0,0,0,0,
0,0,0,9517,0,0,0,0,0,0,0,0,0,0,0,0,
0,0,0,0,0,0,0,0,0,0,0,0,0,0,0,0,
0,0,0,10093,10094,0,0,0,0,0,0,0,0,0,0,0,
0,0,0,10125,10126,0,0,0,0,0,0,0,0,0,0,0,
13685,13686,13687,0,11248,0,0,0,0,0,0,0,0,0,0,0
</chunk>
   <chunk x="-16" y="48" width="16" height="16">
0,0,0,11418,11419,11420,11421,11422,0,0,0,0,0,0,0,0,
0,0,0,11449,11450,11451,11452,11453,0,0,0,0,0,0,0,0,
0,0,0,0,0,0,0,0,0,0,0,0,0,0,0,0,
0,0,0,0,0,0,0,0,0,0,0,0,0,0,0,0,
0,0,0,0,0,0,0,0,0,11426,0,0,0,0,0,0,
0,0,11363,0,0,0,0,0,11425,11457,0,0,0,0,0,0,
0,0,11394,0,0,0,0,0,11456,0,0,0,0,0,0,0,
0,0,0,0,0,0,0,0,0,0,0,0,0,0,0,0,
0,0,0,0,0,0,0,0,0,0,0,0,0,0,0,0,
0,0,0,0,0,0,0,0,0,0,0,0,11238,11239,11240,0,
0,0,0,0,0,0,0,0,0,0,0,0,11269,11270,11271,0,
0,0,0,0,0,0,0,0,0,0,0,0,11300,11301,11302,0,
0,0,0,0,0,0,0,0,0,0,0,0,11331,11332,11333,0,
0,0,0,0,0,0,0,0,0,0,0,0,0,0,0,0,
0,0,0,0,0,0,0,0,0,0,0,0,0,0,0,0,
0,0,0,0,0,0,0,0,0,0,0,0,0,0,0,0
</chunk>
   <chunk x="0" y="48" width="16" height="16">
0,0,0,0,0,0,0,0,11272,11273,11274,11275,11276,11277,11278,11279,
0,0,0,0,0,0,0,0,11303,11304,11305,11306,11307,11308,11309,11310,
0,0,0,0,0,0,0,0,11334,11335,11336,11337,11338,11339,11340,11341,
0,0,0,0,0,0,0,0,11365,11366,11367,11368,11369,11370,11371,11372,
0,0,0,0,0,0,0,0,11396,11397,11398,11399,11400,11401,11402,11403,
0,0,0,0,0,0,0,0,11427,11428,11429,11430,11431,11432,11433,13604,
0,0,0,0,0,0,0,0,0,0,0,0,0,0,0,13618,
0,0,0,0,0,0,0,0,0,0,0,0,0,0,0,13632,
0,0,0,0,0,0,0,0,0,0,0,0,0,0,0,0,
0,0,0,0,0,0,0,0,0,0,0,0,0,0,0,0,
0,0,0,0,0,0,0,0,0,0,0,0,0,0,0,0,
0,0,0,0,0,0,0,0,0,0,0,0,0,0,0,0,
0,0,0,0,0,0,0,0,0,0,0,0,0,0,0,0,
0,0,0,0,0,0,0,0,0,0,0,0,0,0,0,0,
0,11363,0,0,0,0,0,0,0,11363,0,0,0,0,11425,11364,
0,11394,0,0,0,0,0,0,0,11394,0,0,0,0,11456,11395
</chunk>
   <chunk x="16" y="48" width="16" height="16">
13699,13700,13701,10109,10110,0,0,0,0,0,0,0,0,0,0,0,
13554,13555,13556,10141,10142,0,0,0,0,0,0,0,0,0,0,0,
13568,13569,13570,10157,10158,0,0,0,0,0,0,0,0,0,0,0,
13582,13583,13584,10189,10190,0,0,0,0,0,14565,14566,14567,14568,14569,14570,
13596,13597,13598,10079,10080,11434,0,0,0,0,14580,14581,14582,14583,14584,14585,
13605,13636,13637,10111,10112,0,0,0,0,0,14595,14596,14597,14598,14599,14600,
13619,13650,13651,0,0,0,0,0,0,0,14610,14611,14612,14613,14614,14615,
13633,13664,13665,0,0,0,0,0,0,0,14625,14626,14627,14628,14629,14630,
0,0,0,0,0,0,0,0,0,0,14640,14641,14642,14643,14644,14645,
0,0,0,0,0,0,0,0,0,0,14655,14656,14657,14658,14659,14660,
0,0,0,0,0,0,0,0,0,0,14655,0,0,0,0,0,
0,9509,9510,9511,0,0,0,0,0,0,0,0,0,0,0,0,
9517,9541,9542,9543,0,0,0,0,0,0,0,0,0,0,0,0,
0,9453,9454,0,0,0,0,0,0,0,0,0,0,0,0,0,
9455,9485,9486,0,0,0,0,0,0,0,0,0,0,0,0,0,
0,0,0,0,0,0,0,0,0,0,0,0,0,0,0,0
</chunk>
   <chunk x="32" y="48" width="16" height="16">
0,0,0,0,0,0,0,0,0,0,0,0,0,0,0,0,
0,0,0,0,0,0,0,0,0,0,0,0,0,0,0,0,
0,0,0,0,0,0,0,0,0,0,0,0,0,0,0,0,
14571,14572,0,0,0,0,0,0,0,0,0,0,0,0,0,0,
14586,14587,0,0,0,0,0,0,0,0,0,0,0,0,0,0,
14601,14602,0,0,0,0,0,0,0,0,0,0,0,0,0,0,
14616,14617,0,0,0,0,0,0,0,0,0,0,0,0,0,0,
14631,14632,0,0,0,0,0,0,0,0,0,0,0,0,0,0,
14646,14647,0,0,0,0,0,0,0,0,0,0,0,0,0,0,
14661,14647,0,0,0,0,0,0,0,0,0,0,0,0,0,0,
0,0,0,0,0,0,0,0,0,0,0,0,0,0,0,0,
0,0,0,0,0,0,0,0,0,0,0,0,0,0,0,0,
0,0,0,0,0,0,0,0,0,0,0,0,0,0,0,0,
0,0,0,0,0,0,0,0,0,0,0,0,0,0,0,0,
0,0,0,0,0,0,0,0,0,0,0,0,0,0,0,0,
0,0,0,0,0,0,0,0,0,0,0,0,0,0,0,0
</chunk>
  </data>
 </layer>
 <layer id="202" name="reeds" width="46" height="32">
  <data encoding="csv">
   <chunk x="-16" y="-16" width="16" height="16">
0,0,0,0,0,0,0,0,0,0,0,0,0,0,0,0,
0,0,0,0,0,0,0,0,0,0,0,0,0,0,0,0,
0,0,0,0,0,0,0,0,0,0,0,0,0,0,0,0,
0,0,0,0,0,0,0,0,0,0,0,0,0,0,0,0,
0,0,0,0,0,0,0,0,0,0,0,0,0,0,0,0,
0,0,0,0,0,0,0,0,0,0,0,0,0,0,0,0,
0,0,0,0,0,0,0,0,0,0,0,0,0,0,0,0,
10268,10269,0,10274,10275,0,0,0,0,0,0,0,0,0,0,0,
10300,10301,0,10306,10307,0,0,10268,10269,0,0,10274,10275,0,0,0,
0,0,0,0,0,0,0,10300,10301,0,0,10306,10307,0,0,0,
0,0,0,0,0,0,0,0,0,0,0,0,0,0,0,0,
0,0,0,0,0,0,0,0,0,0,0,0,0,0,0,0,
0,0,0,0,0,0,0,0,0,0,0,0,0,0,0,0,
0,0,0,0,0,0,0,0,0,0,0,0,0,0,0,0,
0,0,0,0,0,0,0,0,0,0,0,0,0,0,0,0,
0,0,0,0,0,0,0,0,0,0,0,0,0,0,0,0
</chunk>
   <chunk x="0" y="-16" width="16" height="16">
0,0,0,0,0,0,0,0,0,0,0,0,0,0,0,0,
0,0,0,0,0,0,0,0,0,0,0,0,0,0,0,0,
0,0,0,0,0,0,0,0,0,0,0,0,0,0,0,0,
0,0,0,0,0,0,0,0,0,0,0,0,0,0,0,0,
0,0,0,0,0,0,0,0,0,0,0,0,0,0,0,0,
0,0,0,0,0,0,0,0,0,0,0,0,0,0,0,0,
0,0,0,0,0,0,0,0,0,0,0,0,0,0,0,0,
0,0,0,0,0,0,0,0,0,0,0,0,0,0,0,0,
0,0,0,0,0,0,0,0,0,0,0,0,0,0,10268,10269,
0,0,10268,10269,0,0,0,0,0,10274,10275,0,0,0,10300,10301,
0,0,10300,10301,0,0,10268,10269,0,10306,10307,0,0,0,0,0,
0,0,0,0,0,0,10300,10301,0,0,0,0,0,0,0,0,
0,0,0,0,0,0,0,0,0,0,0,0,0,0,0,0,
0,0,0,0,0,0,0,0,0,0,0,0,0,0,0,0,
0,0,0,0,0,0,0,0,0,0,0,0,0,0,0,0,
0,0,0,0,0,0,0,0,0,0,0,0,0,0,0,0
</chunk>
   <chunk x="16" y="-16" width="16" height="16">
0,0,0,0,0,0,0,0,0,0,0,0,0,0,0,0,
0,0,0,0,0,0,0,0,0,0,0,0,0,0,0,0,
0,0,0,0,0,0,0,0,0,0,0,0,0,0,0,0,
0,0,0,0,0,0,0,0,0,0,0,0,0,0,0,0,
0,0,0,0,0,0,0,0,0,0,0,0,0,0,0,0,
0,0,0,0,0,0,0,0,0,0,0,0,0,0,0,0,
0,0,10274,10275,0,0,0,10268,10269,0,0,0,0,0,0,0,
0,0,10306,10307,0,0,0,10300,10301,0,0,0,0,0,0,0,
0,0,0,0,0,0,0,0,0,0,0,0,10274,10275,0,0,
0,0,0,0,0,0,0,0,0,0,0,0,10306,10307,0,0,
0,0,0,0,0,0,0,0,0,0,0,0,0,0,0,0,
0,0,0,0,0,0,0,0,0,0,0,0,0,0,0,0,
0,0,0,0,0,0,0,0,0,0,0,0,0,0,0,0,
0,0,0,0,0,0,0,0,0,0,0,0,0,0,0,0,
0,0,0,0,0,0,0,0,0,0,0,0,0,0,0,0,
0,0,0,0,0,0,0,0,0,0,0,0,0,0,0,0
</chunk>
   <chunk x="32" y="-16" width="16" height="16">
0,0,0,0,0,0,0,0,0,0,0,0,0,0,0,0,
0,0,0,0,0,0,0,0,0,0,0,0,0,0,0,0,
0,0,0,0,0,0,0,0,0,0,0,0,0,0,0,0,
0,0,0,0,0,0,0,0,0,0,0,0,0,0,0,0,
0,0,0,0,0,0,0,0,0,0,0,0,0,0,0,0,
0,0,0,0,0,0,0,0,0,0,0,0,0,0,0,0,
0,0,0,0,0,0,0,0,0,0,0,0,0,0,0,0,
0,0,0,0,0,0,0,0,0,0,0,0,0,0,0,0,
0,0,0,0,0,0,0,0,0,0,0,0,0,0,0,0,
0,0,0,0,0,0,0,0,0,0,0,0,0,0,0,0,
0,0,0,0,0,0,0,0,0,0,0,0,0,0,0,0,
0,0,0,0,0,0,0,0,0,0,0,0,0,0,0,0,
0,0,0,0,0,10268,10269,0,0,0,0,0,0,0,0,0,
0,0,0,0,0,10300,10301,0,0,0,0,0,0,0,0,0,
0,0,0,0,0,0,0,0,0,0,10274,10275,0,0,0,0,
0,0,0,0,0,0,0,0,0,0,10306,10307,0,0,0,0
</chunk>
   <chunk x="-16" y="0" width="16" height="16">
0,0,0,0,0,0,0,0,0,0,0,0,0,0,0,0,
0,0,0,0,0,0,0,0,0,0,0,0,0,0,0,0,
0,0,0,0,0,0,0,0,0,0,0,0,0,0,0,0,
0,0,0,0,0,0,0,0,0,0,0,0,0,0,0,0,
0,0,0,0,0,0,0,0,0,0,10266,10267,0,0,0,0,
0,0,0,0,0,0,0,0,0,0,10298,10299,0,0,0,0,
0,0,0,0,0,0,0,0,0,0,10330,10331,0,0,0,0,
0,0,0,0,0,0,0,0,0,0,0,0,0,0,0,0,
0,0,0,0,0,0,0,0,0,0,0,0,0,0,0,0,
0,0,0,0,0,0,0,0,0,0,0,0,0,0,0,0,
0,10268,10269,0,0,0,0,0,0,0,0,0,0,0,0,0,
0,10300,10301,0,0,0,0,0,0,0,0,0,0,0,0,0,
0,0,0,0,0,10266,10267,0,0,0,0,0,0,0,0,0,
0,0,0,0,0,10298,10299,0,0,0,0,0,0,0,0,0,
0,0,0,0,0,10330,10331,0,0,0,0,0,0,0,0,0,
0,0,0,0,0,0,0,0,0,0,10268,10269,0,0,0,0
</chunk>
   <chunk x="0" y="0" width="16" height="16">
0,0,0,0,0,0,0,0,0,0,0,0,0,0,0,0,
0,0,0,0,0,0,0,0,0,0,0,0,0,0,0,0,
0,0,0,0,0,0,0,0,0,0,0,0,0,0,0,0,
0,0,0,0,0,0,0,0,0,0,0,0,0,0,0,0,
0,0,0,0,0,0,0,0,0,0,0,0,0,0,0,0,
0,0,0,0,0,0,0,0,0,0,0,0,0,0,0,0,
0,0,10218,10219,10220,0,0,0,0,0,0,0,0,0,0,0,
0,0,10250,10251,10252,0,0,0,0,0,0,0,0,0,0,0,
0,0,10282,10283,10284,0,0,0,0,0,0,0,0,0,0,0,
0,0,0,0,0,0,0,0,0,0,0,0,0,0,0,0,
0,0,0,0,0,0,0,0,0,0,0,0,0,0,0,0,
0,0,0,0,0,0,10312,10313,0,0,0,0,0,0,0,0,
0,0,0,0,0,0,10344,10345,0,0,0,0,0,0,0,0,
0,0,0,0,0,0,10376,10377,0,0,0,0,0,0,0,0,
0,0,0,0,0,0,0,0,10215,10216,10217,0,0,0,0,0,
0,0,0,0,0,0,0,0,10247,10248,10249,0,0,0,0,0
</chunk>
   <chunk x="16" y="0" width="16" height="16">
0,0,0,0,0,0,0,0,0,0,0,0,0,0,0,0,
0,0,0,0,0,0,0,0,0,0,0,0,0,0,0,0,
0,0,0,0,0,0,0,0,0,0,0,0,0,0,0,0,
0,0,0,0,0,0,0,0,0,0,0,0,0,0,0,0,
0,0,0,0,0,0,0,0,0,0,0,0,0,0,0,0,
0,0,0,0,0,0,0,0,0,0,0,0,0,0,0,0,
0,0,0,0,0,0,0,0,0,0,0,0,0,0,0,0,
0,0,0,0,0,0,0,0,0,0,0,0,0,0,0,0,
0,0,0,0,0,0,0,0,0,0,0,0,0,0,0,0,
0,0,0,0,0,0,0,0,0,0,0,0,0,0,0,0,
0,0,10309,10310,0,0,0,0,0,0,0,0,0,0,0,0,
0,0,10341,10342,0,0,0,0,0,0,0,0,0,0,0,0,
0,0,10373,10374,0,0,0,0,0,0,0,0,0,0,0,0,
0,0,0,2147493920,2147493919,2147493918,0,0,0,0,0,0,0,0,0,0,
0,0,0,2147493952,2147493951,2147493950,0,0,0,0,0,0,0,0,0,0,
0,0,0,0,0,0,0,0,0,0,0,0,0,0,0,0
</chunk>
   <chunk x="48" y="0" width="16" height="16">
0,0,0,0,0,0,0,0,0,0,0,0,0,0,0,0,
0,0,0,0,0,0,0,0,0,0,0,0,0,0,0,0,
0,0,0,0,0,0,0,0,0,0,0,0,0,0,0,0,
0,0,0,0,0,0,10268,10269,0,0,0,0,0,0,0,0,
0,0,0,0,0,0,10300,10301,0,0,0,0,0,0,0,0,
0,0,0,0,0,0,0,0,0,0,0,0,0,0,0,0,
0,0,0,0,0,10274,10275,0,0,0,0,0,0,0,0,0,
0,0,0,0,0,10306,10307,0,0,0,0,0,0,0,0,0,
0,0,0,0,0,0,0,0,0,0,0,0,0,0,0,0,
0,0,0,0,0,0,0,0,0,0,0,0,0,0,0,0,
0,0,0,0,0,0,10271,10272,0,0,0,0,0,0,0,0,
0,0,0,0,10168,10169,10303,10304,0,0,0,0,0,0,0,0,
10271,10272,0,0,10200,10201,0,0,0,0,0,0,0,0,0,0,
10303,10304,0,10274,10275,0,10268,10269,0,0,0,0,0,0,0,0,
0,0,0,10306,10307,0,10300,10301,0,0,0,0,0,0,0,0,
0,0,0,0,0,0,0,0,0,0,0,0,0,0,0,0
</chunk>
   <chunk x="-16" y="16" width="16" height="16">
0,0,0,0,0,0,0,0,0,0,10300,10301,0,0,0,0,
0,0,0,0,0,0,0,0,0,0,0,0,0,0,0,0,
0,0,0,0,0,0,0,0,0,0,0,0,0,0,0,0,
0,0,0,0,0,0,0,0,0,0,0,0,0,0,0,0,
0,0,0,0,0,0,0,0,0,0,0,0,0,0,0,0,
0,0,0,0,0,0,0,0,0,0,0,0,0,0,0,0,
0,0,0,0,0,0,0,0,0,0,0,0,0,0,0,0,
0,0,0,0,0,0,0,0,0,0,0,0,0,0,0,0,
0,0,0,0,0,0,0,0,0,0,0,0,0,0,0,0,
0,0,0,0,0,0,0,0,0,0,0,0,0,0,0,0,
0,0,0,0,0,0,0,0,0,0,0,0,0,0,0,0,
0,0,0,0,0,0,0,0,0,0,0,0,0,0,0,0,
0,0,0,0,0,0,0,0,0,0,0,0,0,0,0,0,
0,0,0,0,0,0,0,0,0,0,0,0,0,0,0,0,
0,0,0,0,0,0,0,0,0,0,0,0,0,0,0,0,
0,0,0,0,0,0,0,0,0,0,0,0,0,0,0,0
</chunk>
   <chunk x="0" y="16" width="16" height="16">
0,0,0,0,0,0,0,0,10279,10280,10281,0,0,0,0,0,
0,0,0,0,0,0,0,0,0,0,0,0,0,0,0,0,
0,0,0,0,10245,10246,0,0,0,0,0,0,0,0,0,0,
0,10314,10315,10316,10277,10278,0,0,0,0,0,0,0,0,0,0,
0,10346,10347,10348,0,0,0,0,0,0,0,0,0,0,0,0,
0,10378,10379,10380,0,0,0,0,0,0,0,0,0,0,0,0,
0,0,0,0,0,0,0,0,0,0,0,0,0,0,0,0,
0,0,0,0,0,0,0,0,0,0,0,0,0,0,0,0,
0,0,0,0,0,0,0,0,0,0,0,0,0,0,0,0,
0,0,0,0,0,0,0,0,0,0,0,0,0,0,0,0,
0,0,0,0,0,0,0,0,0,0,0,0,0,0,0,0,
0,0,0,0,0,0,0,0,0,0,0,0,0,0,0,10312,
0,0,0,0,0,0,0,0,0,0,0,0,0,0,0,10344,
0,0,0,0,0,0,0,0,0,0,0,0,0,0,0,10376,
0,0,0,0,0,0,0,0,0,0,0,0,0,0,0,0,
0,0,0,0,0,0,0,0,0,0,0,0,0,0,0,0
</chunk>
   <chunk x="16" y="16" width="16" height="16">
0,0,0,0,0,0,0,0,0,0,0,0,0,0,0,0,
0,0,0,0,0,0,0,0,0,0,0,0,0,0,0,0,
0,0,0,0,0,0,0,0,0,0,0,0,0,0,0,0,
0,0,0,0,0,0,0,0,0,0,0,0,0,0,0,0,
0,0,0,0,0,0,0,0,0,0,0,0,0,0,0,0,
0,0,0,0,0,0,0,0,0,0,0,0,0,0,0,0,
0,0,0,0,0,0,0,0,0,0,0,0,0,0,0,0,
0,0,0,0,0,0,0,0,0,0,10314,10315,10316,0,0,0,
0,10309,10310,0,0,0,0,0,0,0,10346,10347,10348,0,0,0,
0,10341,10342,0,0,0,0,0,0,0,10378,10379,10380,0,0,0,
0,10373,10374,0,10314,10315,10316,0,0,0,0,0,0,0,0,10312,
10313,0,0,0,10346,10347,10348,0,0,0,0,0,0,0,0,10344,
10345,0,0,0,10378,10379,10380,0,0,0,0,0,0,0,0,10376,
10377,0,0,0,0,0,0,0,0,0,0,0,0,0,0,0,
0,0,0,0,0,0,0,0,0,0,0,0,0,0,0,0,
0,0,0,0,0,0,0,0,0,0,0,0,0,0,0,0
</chunk>
   <chunk x="32" y="16" width="16" height="16">
0,0,0,0,0,0,0,0,0,0,0,0,0,0,0,0,
0,0,0,0,0,0,0,0,0,0,0,0,0,0,0,0,
0,0,0,0,0,0,0,0,0,0,0,0,0,0,0,0,
0,0,0,0,0,0,0,0,10274,10275,0,0,0,0,0,0,
0,0,0,0,0,0,0,0,10306,10307,0,0,0,0,0,0,
0,0,0,0,0,0,0,0,0,0,0,0,0,0,0,0,
0,0,0,0,10268,10269,0,0,0,0,0,0,0,0,0,0,
0,0,0,0,10300,10301,0,0,0,0,0,0,0,0,0,0,
0,0,0,0,0,0,0,0,0,0,0,0,0,0,0,0,
0,0,0,0,0,0,0,0,0,0,0,0,0,0,0,0,
10313,10316,0,0,0,0,0,0,0,0,0,0,0,0,0,0,
10345,10348,0,0,0,0,0,0,0,0,0,0,0,0,0,0,
10377,10380,0,0,0,0,0,0,0,0,0,0,0,0,0,0,
0,0,0,0,0,0,0,0,0,0,0,0,0,0,0,0,
0,0,0,0,0,0,0,0,0,0,0,0,0,0,0,0,
0,0,0,0,0,0,0,0,0,0,0,0,0,0,0,0
</chunk>
   <chunk x="48" y="32" width="16" height="16">
0,0,0,0,0,0,0,0,0,0,0,0,0,0,0,0,
0,0,0,0,0,0,0,0,0,0,0,0,0,0,0,0,
0,0,0,0,0,0,0,0,0,0,0,0,0,0,0,0,
0,0,0,0,0,0,0,0,0,0,0,0,0,0,0,0,
0,0,0,0,0,0,0,0,0,0,0,0,0,0,0,0,
10271,10272,0,0,0,0,0,0,0,0,0,0,0,0,0,0,
10303,10304,0,0,0,0,0,0,0,0,0,0,0,0,0,0,
0,0,0,0,0,0,0,0,0,0,0,0,0,0,0,0,
0,0,0,0,0,0,0,0,0,0,0,0,0,0,0,0,
0,0,0,0,0,0,0,0,0,0,0,0,0,0,0,0,
0,0,0,0,0,0,0,0,0,0,0,0,0,0,0,0,
0,0,0,0,0,0,0,0,0,0,0,0,0,0,0,0,
0,0,0,0,0,0,0,0,0,0,0,0,0,0,0,0,
0,0,0,0,0,0,0,0,0,0,0,0,0,0,0,0,
0,0,0,0,0,0,0,0,0,0,0,0,0,0,0,0,
0,0,0,0,0,0,0,0,0,0,0,0,0,0,0,0
</chunk>
  </data>
 </layer>
 <layer id="230" name="sunflower" width="46" height="32">
  <data encoding="csv"/>
 </layer>
 <layer id="231" name="vine" width="46" height="32">
  <data encoding="csv">
   <chunk x="-16" y="48" width="16" height="16">
0,0,0,0,0,0,0,0,0,0,0,0,0,0,0,0,
0,0,0,0,0,0,0,0,0,0,0,0,0,0,0,0,
0,0,0,0,0,0,0,0,0,0,0,0,0,0,0,0,
0,0,0,0,0,0,0,0,0,0,0,0,0,0,0,0,
0,0,0,0,0,0,0,0,0,0,0,0,0,16377,16378,0,
0,0,0,0,0,0,0,0,0,0,0,0,0,16425,16426,0,
0,0,0,0,0,0,0,0,0,0,0,0,0,16473,16474,0,
0,0,0,0,0,0,0,0,0,0,0,0,0,0,0,0,
0,0,0,0,0,0,0,0,0,0,0,0,0,0,0,0,
0,0,0,0,0,0,0,0,0,0,0,0,0,0,0,0,
0,0,0,0,0,0,0,0,0,0,0,0,0,0,0,0,
0,0,0,0,0,0,0,0,0,0,0,0,0,0,0,0,
0,0,0,0,0,0,0,0,0,0,0,0,0,0,0,0,
0,0,0,0,0,0,0,0,0,0,0,0,0,0,0,0,
0,0,0,0,0,0,0,0,0,0,0,0,0,0,0,0,
0,0,0,0,0,0,0,0,0,0,0,0,0,0,0,0
</chunk>
  </data>
 </layer>
 <objectgroup id="222" name="collision">
  <object id="4" x="67.4424" y="420.515" width="11.1695" height="19.7109">
   <ellipse/>
  </object>
  <object id="5" x="106.057" y="342.766" width="11.1695" height="19.7109">
   <ellipse/>
  </object>
  <object id="6" x="135.847" y="372.238" width="16.8724" height="16.2892">
   <ellipse/>
  </object>
  <object id="7" x="282.527" y="505.594" width="11.1695" height="10.5863">
   <ellipse/>
  </object>
  <object id="8" x="216.28" y="352.114" width="30.0433" height="40.9752">
   <ellipse/>
  </object>
  <object id="9" x="115.483" y="386.722" width="7.07617" height="8.69707">
   <ellipse/>
  </object>
  <object id="10" x="-74.2749" y="274.54" width="21.906" height="20.7824">
   <ellipse/>
  </object>
  <object id="11" x="48.1307" y="339.852" width="21.906" height="29.3">
   <ellipse/>
  </object>
  <object id="12" x="-82.6298" y="328.946" width="21.906" height="23.4032">
   <ellipse/>
  </object>
  <object id="13" x="-246.211" y="343.22" width="13.0254" height="13.5933">
   <ellipse/>
  </object>
  <object id="14" x="-233.253" y="486.656" width="19.228" height="16.35">
   <ellipse/>
  </object>
  <object id="15" x="-134.952" y="263.47" width="14.4448" height="15.8083">
   <ellipse/>
  </object>
  <object id="18" x="171.618" y="362.283" width="11.1695" height="10.5863">
   <ellipse/>
  </object>
  <object id="19" x="269.798" y="476.627" width="20.1494" height="15.9742">
   <ellipse/>
  </object>
  <object id="20" x="297.037" y="540.385" width="27.932" height="20.7635">
   <ellipse/>
  </object>
  <object id="21" x="426.971" y="623.955" width="13.7578" height="12.8189">
   <ellipse/>
  </object>
  <object id="22" x="207.538" y="572.413" width="17.1561" height="14.1783">
   <ellipse/>
  </object>
  <object id="23" x="397.313" y="775.957" width="22.544" height="21.9609">
   <ellipse/>
  </object>
  <object id="24" x="312.603" y="774.46" width="15.9588" height="15.3757">
   <ellipse/>
  </object>
  <object id="25" x="310.507" y="838.816" width="15.9588" height="15.3757">
   <ellipse/>
  </object>
  <object id="26" x="392.834" y="812.012" width="15.9588" height="15.3757">
   <ellipse/>
  </object>
  <object id="27" x="423.013" y="716.081" width="17.1561" height="14.1783">
   <ellipse/>
  </object>
  <object id="28" x="457.336" y="605.974" width="13.7578" height="12.8189">
   <ellipse/>
  </object>
  <object id="29" x="498.117" y="572.67" width="13.7578" height="12.8189">
   <ellipse/>
  </object>
  <object id="30" x="459.375" y="569.272" width="13.7578" height="12.8189">
   <ellipse/>
  </object>
  <object id="31" x="615.02" y="514.219" width="20.5545" height="18.9359">
   <ellipse/>
  </object>
  <object id="32" x="551.131" y="516.937" width="13.7578" height="12.8189">
   <ellipse/>
  </object>
  <object id="33" x="634.051" y="502.664" width="13.7578" height="12.8189">
   <ellipse/>
  </object>
  <object id="34" x="593.95" y="442.853" width="13.7578" height="12.8189">
   <ellipse/>
  </object>
  <object id="35" x="675.511" y="394.596" width="13.7578" height="12.8189">
   <ellipse/>
  </object>
  <object id="36" x="633.371" y="414.307" width="13.7578" height="12.8189">
   <ellipse/>
  </object>
  <object id="37" x="392.768" y="444.212" width="16.4765" height="12.8189">
   <ellipse/>
  </object>
  <object id="38" x="459.375" y="457.126" width="13.7578" height="12.8189">
   <ellipse/>
  </object>
  <object id="39" x="406.361" y="469.36" width="13.7578" height="12.8189">
   <ellipse/>
  </object>
  <object id="40" x="171.208" y="389.354" width="47.0351" height="63.4043">
   <ellipse/>
  </object>
  <object id="41" x="518.52" y="341.777" width="17.8092" height="17.8664">
   <ellipse/>
  </object>
  <object id="42" x="345.204" y="357.07" width="15.0905" height="19.9054">
   <ellipse/>
  </object>
  <object id="43" x="462.868" y="236.382" width="35.8596" height="24.4373">
   <ellipse/>
  </object>
  <object id="44" x="482.498" y="380.858" width="12.3719" height="10.39">
   <ellipse/>
  </object>
  <object id="45" x="536.871" y="362.847" width="28.0043" height="23.3038">
   <ellipse/>
  </object>
  <object id="46" x="656.153" y="285.364" width="15.0906" height="13.7884">
   <ellipse/>
  </object>
  <object id="47" x="616.053" y="299.298" width="16.4499" height="13.7884">
   <ellipse/>
  </object>
  <object id="48" x="715.625" y="220.796" width="13.7313" height="13.7884">
   <ellipse/>
  </object>
  <object id="49" x="645.958" y="235.069" width="19.8483" height="13.7884">
   <ellipse/>
  </object>
  <object id="50" x="682.321" y="232.35" width="13.0516" height="12.4291">
   <ellipse/>
  </object>
  <object id="51" x="747.229" y="188.851" width="13.0516" height="11.0698">
   <ellipse/>
  </object>
  <object id="52" x="791.408" y="173.898" width="19.8483" height="11.0698">
   <ellipse/>
  </object>
  <object id="53" x="837.626" y="182.054" width="19.8483" height="17.8665">
   <ellipse/>
  </object>
  <object id="54" x="806.361" y="144.672" width="19.8483" height="12.4291">
   <ellipse/>
  </object>
  <object id="55" x="832.188" y="64.4712" width="30.0434" height="28.7412">
   <ellipse/>
  </object>
  <object id="56" x="767.959" y="-0.777179" width="32.0824" height="32.8192">
   <ellipse/>
  </object>
  <object id="57" x="818.935" y="21.9918" width="24.606" height="19.9055">
   <ellipse/>
  </object>
  <object id="58" x="389.585" y="359.107" width="15.0905" height="13.1087">
   <ellipse/>
  </object>
  <object id="59" x="410.354" y="265.961" width="15.0905" height="13.1087">
   <ellipse/>
  </object>
  <object id="60" x="359.375" y="235.752" width="15.0905" height="13.1087">
   <ellipse/>
  </object>
  <object id="61" x="369.76" y="145.752" width="21.3842" height="24.4373">
   <ellipse/>
  </object>
  <object id="62" x="469.2" y="68.3402" width="35.8596" height="45.8358">
   <ellipse/>
  </object>
  <object id="63" x="509.164" y="-21.0298" width="21.3842" height="13.1087">
   <ellipse/>
  </object>
  <object id="64" x="387.697" y="9.4945" width="21.3842" height="16.2555">
   <ellipse/>
  </object>
  <object id="65" x="711.82" y="28.3755" width="15.7199" height="11.85">
   <ellipse/>
  </object>
  <object id="66" x="633.464" y="-5.925" width="15.7199" height="11.85">
   <ellipse/>
  </object>
  <object id="67" x="664.933" y="70.4429" width="32.0824" height="17.7144">
   <ellipse/>
  </object>
  <object id="68" x="483.676" y="160.442" width="25.1594" height="22.7493">
   <ellipse/>
  </object>
  <object id="69" x="555.423" y="67.9255" width="32.0824" height="30.3017">
   <ellipse/>
  </object>
  <object id="70" x="643.22" y="115.757" width="25.1594" height="22.7493">
   <ellipse/>
  </object>
  <object id="71" x="462.591" y="-6.86904" width="21.3842" height="22.5492">
   <ellipse/>
  </object>
  <object id="72" x="476.437" y="-37.3933" width="21.3842" height="13.1087">
   <ellipse/>
  </object>
  <object id="73" x="535.159" y="-35.1066" width="21.3842" height="13.1087">
   <ellipse/>
  </object>
  <object id="74" x="393.589" y="-119.265" width="30.298" height="13.1087">
   <ellipse/>
  </object>
  <object id="75" x="543.977" y="-0.256063" width="17.1853" height="9.32973">
   <ellipse/>
  </object>
  <object id="76" x="440.694" y="-48.2585" width="21.3842" height="13.1087">
   <ellipse/>
  </object>
  <object id="77" x="345.647" y="-103.333" width="30.298" height="26.2672">
   <ellipse/>
  </object>
  <object id="78" x="297.258" y="-69.5876" width="30.298" height="23.2959">
   <ellipse/>
  </object>
  <object id="79" x="326.122" y="-133.47" width="18.8374" height="12.6842">
   <ellipse/>
  </object>
  <object id="80" x="264.574" y="-105.455" width="26.9023" height="23.2959">
   <ellipse/>
  </object>
  <object id="81" x="253.326" y="-56.4291" width="26.4778" height="12.6842">
   <ellipse/>
  </object>
  <object id="82" x="211.728" y="-73.4078" width="18.8374" height="12.6842">
   <ellipse/>
  </object>
  <object id="83" x="233.8" y="-15.6804" width="14.1683" height="8.01507">
   <ellipse/>
  </object>
  <object id="84" x="158.458" y="-24.8064" width="21.8087" height="24.1448">
   <ellipse/>
  </object>
  <object id="85" x="163.127" y="-55.368" width="37.9384" height="24.1448">
   <ellipse/>
  </object>
  <object id="86" x="118.558" y="-60.886" width="21.8087" height="24.1448">
   <ellipse/>
  </object>
  <object id="87" x="3.95197" y="18.9136" width="21.8087" height="24.1448">
   <ellipse/>
  </object>
  <object id="88" x="103.277" y="-6.12987" width="30.298" height="28.8139">
   <ellipse/>
  </object>
  <object id="89" x="43.0029" y="-73.62" width="31.5714" height="16.9289">
   <ellipse/>
  </object>
  <object id="90" x="58.7081" y="-42.634" width="21.8087" height="24.1448">
   <ellipse/>
  </object>
  <object id="91" x="56.7284" y="36.9465" width="13.9108" height="19.3183">
   <ellipse/>
  </object>
  <object id="92" x="-166.259" y="-81.2604" width="16.2906" height="13.5331">
   <ellipse/>
  </object>
  <object id="93" x="-129.33" y="-63.8573" width="40.4852" height="24.1448">
   <ellipse/>
  </object>
  <object id="94" x="-248.393" y="-22.4718" width="16.2906" height="13.5331">
   <ellipse/>
  </object>
  <object id="98" x="-234.81" y="-55.1557" width="16.2906" height="13.5331">
   <ellipse/>
  </object>
  <object id="99" x="-143.126" y="58.6012" width="14.5927" height="12.2597">
   <ellipse/>
  </object>
  <object id="100" x="-181.752" y="-23.1085" width="14.5927" height="12.2597">
   <ellipse/>
  </object>
  <object id="101" x="-181.328" y="63.4826" width="14.5927" height="12.2597">
   <ellipse/>
  </object>
  <object id="102" x="-26.8218" y="-27.7776" width="21.8086" height="21.1735">
   <ellipse/>
  </object>
  <object id="103" x="-20.8793" y="24.0073" width="14.5927" height="12.2597">
   <ellipse/>
  </object>
  <object id="104" x="14.1055" y="55.9369" width="21.8087" height="24.1448">
   <ellipse/>
  </object>
  <object id="105" x="95.2779" y="125.482" width="13.9108" height="11.4204">
   <ellipse/>
  </object>
  <object id="106" x="172.94" y="130.308" width="41.9921" height="47.3995">
   <ellipse/>
  </object>
  <object id="107" x="172.501" y="54.84" width="25.3189" height="27.2161">
   <ellipse/>
  </object>
  <object id="108" x="230.858" y="131.186" width="21.8087" height="25.0223">
   <ellipse/>
  </object>
  <object id="109" x="284.826" y="91.4773" width="21.8087" height="21.5121">
   <ellipse/>
  </object>
  <object id="110" x="206.725" y="220.476" width="21.8087" height="12.2979">
   <ellipse/>
  </object>
  <object id="111" x="226.47" y="239.562" width="27.5127" height="24.5835">
   <ellipse/>
  </object>
  <object id="112" x="857.672" y="478.011" width="28.3405" height="36.0659">
   <ellipse/>
  </object>
  <object id="113" x="490.258" y="600.149" width="13.7578" height="12.8189">
   <ellipse/>
  </object>
  <object id="114" x="433.906" y="642.458" width="45.4899" height="12.8189">
   <ellipse/>
  </object>
  <object id="115" x="809" y="489.97" width="28.3405" height="36.0659">
   <ellipse/>
  </object>
  <object id="116" x="867.308" y="456.815" width="40.9167" height="22.3464">
   <ellipse/>
  </object>
  <object id="117" x="784.441" y="585.472" width="15.6641" height="15.6735">
   <ellipse/>
  </object>
  <object id="118" x="857.192" y="532.562" width="32.7497" height="31.6567">
   <ellipse/>
  </object>
  <object id="119" x="773.694" y="519.61" width="21.1756" height="15.6735">
   <ellipse/>
  </object>
  <object id="120" x="814.478" y="653.539" width="21.1756" height="11.2643">
   <ellipse/>
  </object>
  <object id="121" x="884.474" y="582.992" width="21.1756" height="15.6735">
   <ellipse/>
  </object>
  <object id="122" x="871.246" y="670.624" width="17.3176" height="11.2643">
   <ellipse/>
  </object>
  <object id="123" x="912.858" y="669.522" width="14.0107" height="11.2643">
   <ellipse/>
  </object>
  <object id="124" x="905.693" y="537.798" width="14.0107" height="11.2643">
   <ellipse/>
  </object>
  <object id="125" x="911.756" y="618.266" width="14.0107" height="11.2643">
   <ellipse/>
  </object>
  <object id="126" x="813.652" y="472.763" width="26.6871" height="11.2643">
   <ellipse/>
  </object>
 </objectgroup>
 <objectgroup id="226" name="coop">
  <object id="143" x="-20.8385" y="943.569">
   <polygon points="0,0 51.6796,0 51.6796,57.5144 35.8423,58.3479 35.8423,67.5169 -40.8435,66.6833 -43.3442,-1.66708 -37.5094,0 -35.8423,23.3392 -3.33417,23.3392"/>
  </object>
 </objectgroup>
 <objectgroup id="227" name="cowshed">
  <object id="144" x="145.87" y="945.236">
   <polygon points="0,0 0,56.6808 13.3367,56.6808 15.8373,67.5169 76.6858,66.6833 76.6858,60.015 95.8573,56.6808 95.0238,-3.33417"/>
  </object>
 </objectgroup>
 <objectgroup id="225" name="pigsty">
  <object id="142" x="-223.389" y="771.026">
   <polygon points="0,0 20.005,-1.66708 24.1727,27.5069 33.3417,21.6721 80.02,21.6721 87.5219,29.174 89.189,5.83479 92.5231,-3.33417 112.528,-3.33417 111.695,86.6883 96.6908,87.5219 95.8573,96.6908 17.5044,99.1915 14.1702,85.0213 0,86.6883"/>
  </object>
 </objectgroup>
 <objectgroup id="229" name="wicket">
  <object id="145" x="-224.231" y="765.438">
   <polygon points="0,0 111.529,0 111.529,99.7887 2.34797,102.137"/>
  </object>
  <object id="146" x="-63.3952" y="945.058">
   <polygon points="0,0 95.0927,-1.17398 95.0927,66.9171 2.34797,65.7431"/>
  </object>
  <object id="147" x="146.748" y="942.71">
   <polygon points="0,0 92.7448,0 92.7448,68.0911 0,68.0911"/>
  </object>
  <object id="148" x="-255.929" y="279.408">
   <polygon points="0,0 69.2651,0 81.0049,14.0878 154.966,14.0878 160.836,29.3496 234.797,30.5236 281.756,77.483 298.192,81.0049 316.976,99.7887 333.412,108.007 367.457,111.529 375.675,147.922 375.675,158.488 405.025,163.184 407.373,203.099 435.548,207.795 439.07,306.41 449.636,322.846 292.322,327.542 110.355,326.368 105.659,311.106 58.6992,309.932 50.4813,295.844 0,297.018"/>
  </object>
 </objectgroup>
 <objectgroup id="224" name="water_zone">
  <object id="128" x="-163.299" y="124.53">
   <polygon points="0,0 84.5865,1.17481 119.831,29.3703 153.9,48.1673 164.474,46.9925 191.494,77.5376 244.361,81.062 261.983,96.3346 277.256,96.3346 279.605,157.425 267.857,164.474 267.857,173.872 237.312,175.047 203.242,210.291 171.523,183.271 178.571,169.173 165.648,151.551 152.726,160.949 123.355,131.579 117.481,122.18 55.2162,118.656 44.6429,125.705 27.0207,112.782 0,85.7613 -54.0414,35.2444 -65.7895,43.468 -88.1109,32.8947 -88.1109,-96.3346 -55.2162,-79.8872 -55.2162,-44.6429 -39.9436,-29.3703 -27.0207,-35.2444"/>
  </object>
  <object id="129" x="205.592" y="495.771">
   <polygon points="0,0 1.17481,15.2726 22.3214,16.4474 23.4962,-5.87406 36.4192,-14.0977 39.9436,-38.7688 66.9643,-45.8177 85.7613,-58.7406 81.062,-66.9643 61.0902,-64.6147 44.6429,-50.5169 29.3703,-51.6917 12.9229,-31.7199 14.0977,-17.6222"/>
  </object>
  <object id="130" x="321.898" y="431.156">
   <polygon points="0,0 25.8459,-18.797 52.8665,-18.797 203.242,-22.3214 205.592,0 162.124,10.5733 143.327,-5.87406 81.062,-9.3985 39.9436,-5.87406 22.3214,4.69925 0,9.3985"/>
  </object>
  <object id="131" x="558.036" y="437.03">
   <polygon points="0,0 19.9718,0 84.5865,-65.7895 102.209,-63.4398 118.656,-83.4117 118.656,-109.258 133.929,-111.607 144.502,-110.432 152.726,-115.132 156.25,-126.88 195.019,-129.229 196.194,-180.921 172.697,-183.271 175.047,-170.348 157.425,-150.376 144.502,-152.726 139.803,-150.376 142.152,-139.803 137.453,-125.705 121.006,-122.18 115.132,-123.355 109.258,-117.481 111.607,-106.908 97.5094,-88.1109 75.188,-70.4887 62.265,-74.0132 37.594,-44.6429 17.6222,-43.468 1.17481,-24.6711"/>
  </object>
  <object id="133" x="411.187" y="63.2595">
   <polygon points="0,0 63.2595,-1.66472 60.7624,9.98835 46.6123,11.6531 42.4505,24.9709 35.7916,29.1327 27.468,21.6414 9.98835,29.1327 -4.99417,24.1385 -16.6472,26.6356 -24.1385,15.8149 -5.82654,9.15598"/>
  </object>
  <object id="134" x="294.656" y="206.426">
   <polygon points="0,0 11.6531,-2.49709 28.3003,14.9825 29.965,17.4796 22.4738,29.965 14.1502,31.6298 10.8207,41.6181 -2.49709,39.121 -7.49126,41.6181 -14.9825,29.1327 -29.965,17.4796 -14.1502,4.99417 -10.8207,-4.16181"/>
  </object>
  <object id="135" x="459.464" y="158.149">
   <polygon points="0,0 14.9825,0 14.9825,7.49126 11.6531,11.6531 6.6589,12.4854 -0.832362,10.8207 -5.82654,3.32945 -7.49126,-1.66472"/>
  </object>
  <object id="136" x="564.342" y="125.687">
   <polygon points="0,0 -9.98835,-0.832362 -14.1502,6.6589 -29.1327,17.4796 -29.1327,24.1385 -37.4563,31.6298 -53.2712,28.3003 -60.7624,34.1269 -56.6006,44.1152 -44.9476,49.1094 -43.2828,64.0919 -43.2828,72.4155 -39.9534,75.745 -34.9592,77.4097 -24.1385,75.745 -14.1502,79.0744 -2.49709,76.5773"/>
  </object>
  <object id="137" x="590.145" y="127.351">
   <polygon points="0,0 0.832362,72.4155 17.4796,72.4155 27.468,59.0977 34.9592,53.2712 42.4505,55.7683 44.9476,43.2828 60.7624,36.6239 59.9301,31.6298 45.7799,27.468 41.6181,14.9825 30.7974,13.3178 25.8032,-0.832362"/>
  </object>
  <object id="138" x="781.588" y="257.2">
   <polygon points="0,0 0.832362,51.6065 20.8091,58.2654 27.468,79.0744 21.6414,91.5598 19.9767,97.3864 34.9592,119.028 34.1269,140.669 3.32945,171.467 -15.8149,171.467 -34.1269,190.611 -44.9476,203.929 -65.7566,205.593 -72.4155,206.426 -72.4155,220.576 -119.86,222.241 -119.028,245.547 -132.346,253.038 -135.675,295.489 -202.264,300.483 -199.767,345.43 -218.079,349.592 -214.749,422.008 -248.044,428.667 -248.876,474.446 -282.171,476.111 -280.506,502.747 -317.13,507.741 -311.303,551.856 -345.43,556.018 -342.101,587.648 -343.766,609.289 -165.64,609.289 -161.478,638.422 -53.2712,641.751 -50.7741,710.837 -97.3864,722.49 -92.3922,764.109 -117.363,766.606 -115.698,724.988 -143.999,725.82 -141.502,768.27 -164.808,768.27 -164.808,730.814 -256.368,733.311 -257.2,779.923 -315.465,776.594 -314.633,734.976 -342.101,736.641 -345.43,794.074 -151.49,796.571 143.999,796.571 144.831,438.655 87.398,441.984 11.6531,440.32 -25.8032,397.037 -28.3003,266.356 -7.49126,253.87 -7.49126,213.917 12.4854,208.091 16.6472,211.42 22.4738,207.258 22.4738,181.455 49.1094,178.958 54.1035,180.623 54.9359,174.796 52.4388,154.819 63.2595,147.328 78.2421,153.155 92.3922,143.999 97.3864,146.496 108.207,143.166 113.201,148.16 124.854,144.831 136.507,148.993 147.328,129.849 143.999,-513.568 -1037.12,-512.735 -1035.46,-428.667 -1027.14,-431.996 -1009.66,-421.175 -1013.82,-412.019 -993.841,-406.193 -988.014,-412.019 -975.529,-402.863 -980.523,-400.366 -968.037,-393.707 -954.719,-393.707 -933.91,-397.037 -918.928,-399.534 -896.454,-392.043 -850.674,-402.031 -829.865,-399.534 -819.877,-391.21 -821.542,-372.066 -809.888,-378.725 -780.756,-378.725 -772.432,-374.563 -756.617,-383.719 -736.641,-371.234 -739.138,-366.239 -723.323,-360.413 -703.346,-367.904 -687.531,-366.239 -671.716,-350.425 -659.231,-344.598 -652.572,-344.598 -643.416,-345.43 -624.272,-348.76 -619.278,-350.425 -617.613,-371.234 -603.463,-373.731 -604.295,-389.546 -590.145,-379.557 -509.406,-380.39 -504.412,-384.551 -504.412,-411.187 -356.251,-416.181 -339.604,-407.025 -325.454,-392.875 -315.465,-396.204 -306.309,-390.378 -307.974,-382.054 -294.656,-377.892 -291.327,-369.569 -278.009,-359.58 -269.685,-362.91 -258.032,-357.916 -262.194,-351.257 -211.42,-330.448 -198.935,-334.61 -178.126,-327.118 -167.305,-334.61 -150.658,-330.448 -145.663,-322.957 -148.16,-317.962 -129.016,-308.806 -131.513,-303.812 -116.531,-295.489 -104.045,-302.98 -41.6181,-303.812 -10.8207,-271.35 28.3003,-267.188 30.7974,-258.865 37.4563,-254.703 82.4039,-254.703 112.369,-225.57 125.687,-214.749 129.849,-129.849 129.849,-95.7217 124.022,-93.2246 129.016,-15.8149 114.034,-0.832362"/>
  </object>
  <object id="139" x="142.644" y="224.866">
   <polygon points="0,0 0,52.9463 9.96636,53.5692 3.73739,33.6365 8.09767,19.9327 21.8014,20.5556 21.1785,-2.49159"/>
  </object>
  <object id="140" x="323.907" y="159.462">
   <polygon points="0,0 -7.47477,-1.2458 -7.47477,1.2458 -3.11449,6.85187"/>
  </object>
  <object id="141" x="-220.783" y="946.821">
   <polygon points="0,0 0,54.1344 106.146,57.3188 105.084,0"/>
  </object>
 </objectgroup>
 <objectgroup id="223" name="map_bounds" visible="0">
  <object id="127" x="-254.211" y="-253.999" width="1182.44" height="1311"/>
 </objectgroup>
</map>
